115026438_SC.txt|MMI|44.37|Patient Discharge|C0030685|[hlca]|"Discharge"-text-55-"DISCHARGE"-NNP-0,"Discharge"-text-96-"DISCHARGE"-NNP-0,"Discharge"-text-0-"discharge"-NN-0,"Discharge"-text-0-"DISCHARGE"-NN-0|text|145/9;230/9;1635/9;1746/9|N04.590.233.727.210.125;E02.760.169.125;N02.421.585.169.125;E02.760.400.610;N02.421.585.400.610|
115026438_SC.txt|MMI|5.57|Pain|C0030193|[sosy]|"Pain"-text-215-"PAIN"-NNP-0|text|510/4|G11.561.790.444;F02.830.816.444;C23.888.592.612|
115026438_SC.txt|MMI|4.73|Dental anesthesia|C0002912|[topp]|"Anesthesia"-text-18-"Anesthesia"-NNP-0,"Anesthesia"-text-26-"Anesthesia"-NNP-0|text|900/10;932/10|E03.155.141;E06.045|
115026438_SC.txt|MMI|4.67|Peripheral Arterial Diseases|C1704436|[dsyn]|"PAD"-text-0-"pad"-NN-0|text|1608/3|C14.907.137.126.307.500;C14.907.617.671|
115026438_SC.txt|MMI|4.33|Disease|C0012634|[dsyn]|"DIS"-text-16-"DIS"-NNP-0,"condition"-text-56-"Condition"-NNP-0,"condition"-text-0-"CONDITION"-NN-0|text|62/3;1031/9;1756/9|C23.550.288|
115026438_SC.txt|MMI|4.21|Manuals as Topic|C0024763|[inpr, mnob]|"Manual"-text-54-"Manual"-NNP-0|text|1024/6|L01.178.682.192.609;L01.178.820.500|
115026438_SC.txt|MMI|4.19|Abdominal Pain|C0000737|[sosy]|"Abdominal Pain"-text-6-"abdominal pain"-JJ-0|text|1647/14|C23.888.592.612.054;C23.888.821.030|
115026438_SC.txt|MMI|3.29|Physical activity|C0026606|[dora]|"activity"-text-225-"Activity"-NN-1|text|538/8|G11.427.410.698.277;I03.350|
115026438_SC.txt|MMI|3.29|Physicians|C0031831|[prog]|"Doctor"-text-26-"doctor"-NN-0|text|1711/6|M01.526.485.810;N02.360.810|
115026438_SC.txt|MMI|3.27|Neoplasm Metastasis|C0027627|[neop]|"secondary"-text-24-"Secondary"-NNP-0|text|922/9|C04.697.650;C23.550.727.650|
115026438_SC.txt|MMI|2.37|ibuprofen|C0020740|[orch, phsu]|"ibuprofen"-text-199-"IBUPROFEN"-NNP-0|text|476/9|D02.241.223.701.430|
115026438_SC.txt|MMI|2.34|Diet therapy|C0012159|[hlca]|"Diet"-text-217-"DIET"-NNP-0|text|515/4|E02.642.249;Y11.010|
115026438_SC.txt|MMI|2.01|Body Fluid Discharge|C0012621|[bdsu]|"Discharge"-text-55-"DISCHARGE"-NNP-0,"Discharge"-text-96-"DISCHARGE"-NNP-0,"Discharge"-text-0-"discharge"-NN-0,"Discharge"-text-0-"DISCHARGE"-NN-0|text|145/9;230/9;1635/9;1746/9||
115026438_SC.txt|MMI|2.01|Discharge, Body Substance, Sample|C0600083|[bdsu]|"Discharge"-text-55-"DISCHARGE"-NNP-0,"Discharge"-text-96-"DISCHARGE"-NNP-0,"Discharge"-text-0-"discharge"-NN-0,"Discharge"-text-0-"DISCHARGE"-NN-0|text|145/9;230/9;1635/9;1746/9||
115026438_SC.txt|MMI|2.01|Discharge, body substance|C2926602|[sosy]|"Discharge"-text-55-"DISCHARGE"-NNP-0,"Discharge"-text-96-"DISCHARGE"-NNP-0,"Discharge"-text-0-"discharge"-NN-0,"Discharge"-text-0-"DISCHARGE"-NN-0|text|145/9;230/9;1635/9;1746/9||
115026438_SC.txt|MMI|2.01|Specimen Source Codes - Discharge|C1546601|[inpr]|"Discharge"-text-55-"DISCHARGE"-NNP-0,"Discharge"-text-96-"DISCHARGE"-NNP-0,"Discharge"-text-0-"discharge"-NN-0,"Discharge"-text-0-"DISCHARGE"-NN-0|text|145/9;230/9;1635/9;1746/9||
115026438_SC.txt|MMI|1.97|Diagnosis|C0011900|[diap]|"Diagnosis"-text-271-"DIAGNOSIS"-NNP-0,"Diagnosis"-text-10-"DIAGNOSIS"-.-0|text|649/9;778/9|E01;Y04|
115026438_SC.txt|MMI|1.90|Appointments|C0003629|[tmco]|"Appointment"-text-237-"APPOINTMENT"-NNP-0|text|572/11|x.x.x.x|
115026438_SC.txt|MMI|1.90|BID protein, human|C1530795|[bacs, aapp]|"BID"-text-195-"BID"-NNP-0|text|468/3|x.x.x.x|
115026438_SC.txt|MMI|1.90|Childbirth|C1148523|[orgf]|"Delivery"-text-50-"Delivery"-NN-0|text|1013/8|x.x.x.x|
115026438_SC.txt|MMI|1.90|Deafness, Sensorineural, And Male Infertility|C1970187|[dsyn]|"DIS"-text-16-"DIS"-NNP-0|text|62/3|x.x.x.x|
115026438_SC.txt|MMI|1.90|Episiotomy|C0014586|[topp]|"Episiotomy"-text-40-"Episiotomy"-NNP-0|text|982/10|E04.520.252.750|
115026438_SC.txt|MMI|1.90|Infantile Neuroaxonal Dystrophy|C0270724|[dsyn]|"PLAN"-text-0-"PLAN"-NNP-0|text|1783/4|x.x.x.x|
115026438_SC.txt|MMI|1.90|Symptoms|C1457887|[sosy]|"Symptoms"-text-16-"symptoms"-NNS-0|text|1683/8|x.x.x.x|
115026438_SC.txt|MMI|1.88|AT 10|C0591126|[orch, phsu]|"AT 10"-text-112-"AT 10"-WDT-0|text|262/5|x.x.x.x|
115026438_SC.txt|MMI|1.88|Diet|C0012155|[food]|"Diet"-text-217-"DIET"-NNP-0|text|515/4|G07.203.650.240|
115026438_SC.txt|MMI|1.88|Fever|C0015967|[sosy]|"Fever"-text-0-"fever"-NN-0|text|1573/5|C23.888.119.344|
115026438_SC.txt|MMI|1.44|Ambulatory Care Facilities|C0002424|[mnob, hcro]|"Clinic"-text-249-"Clinic"-NNP-0|text|595/6|N02.278.035|
115026438_SC.txt|MMI|1.44|Andorra|C0002838|[geoa]|"AND"-text-255-"and"-CC-0|text|610/3|Z01.542.049|
115026438_SC.txt|MMI|1.44|Hospitals|C0019994|[mnob, hcro]|"Hospital"-text-36-"hospital"-NN-0|text|1735/8|N02.278.421|
115026438_SC.txt|MMI|1.44|Obstetric Delivery|C0011209|[topp]|"Delivery"-text-50-"Delivery"-NN-0|text|1013/8|E04.520.252|
115026438_SC.txt|MMI|1.42|Hemorrhage|C0019080|[patf]|"Bleeding"-text-0-"bleeding"-VBG-0|text|1592/8|C23.550.414|
115026438_SC.txt|MMI|1.42|Volition|C0042950|[menp]|"Will"-text-126-"WILL"-MD-0|text|304/4|F02.463.902|
115026438_SC.txt|MMI|1.05|Absence of sensation|C0278134|[sosy]|"Anesthesia"-text-18-"Anesthesia"-NNP-0,"Anesthesia"-text-26-"Anesthesia"-NNP-0|text|900/10;932/10||
115026438_SC.txt|MMI|1.05|Anesthesia procedures|C0002903|[topp]|"Anesthesia"-text-18-"Anesthesia"-NNP-0,"Anesthesia"-text-26-"Anesthesia"-NNP-0|text|900/10;932/10||
115026438_SC.txt|MMI|1.05|Anesthesia substance|C4049933|[phsu]|"Anesthesia"-text-18-"Anesthesia"-NNP-0,"Anesthesia"-text-26-"Anesthesia"-NNP-0|text|900/10;932/10||
115026438_SC.txt|MMI|1.05|As required|C0558288|[tmco]|"prn"-text-197-"PRN"-NNP-0,"prn"-text-213-"PRN"-NNP-0|text|472/3;506/3||
115026438_SC.txt|MMI|1.05|CIAO3 gene|C1422467|[gngm]|"PRN"-text-197-"PRN"-NNP-0,"PRN"-text-213-"PRN"-NNP-0|text|472/3;506/3||
115026438_SC.txt|MMI|1.05|Condition|C0348080|[qlco]|"Condition"-text-56-"Condition"-NNP-0,"Condition"-text-0-"CONDITION"-NN-0|text|1031/9;1756/9||
115026438_SC.txt|MMI|1.05|Condition Domain|C4722256|[inpr]|"CONDITION"-text-56-"Condition"-NNP-0,"CONDITION"-text-0-"CONDITION"-NN-0|text|1031/9;1756/9||
115026438_SC.txt|MMI|1.05|Condition:Find:Pt:^Patient:Nom|C3864998|[clna]|"Condition"-text-56-"Condition"-NNP-0,"Condition"-text-0-"CONDITION"-NN-0|text|1031/9;1756/9||
115026438_SC.txt|MMI|1.05|Diagnosis Classification - Diagnosis|C1546899|[clas]|"Diagnosis"-text-271-"DIAGNOSIS"-NNP-0,"Diagnosis"-text-10-"DIAGNOSIS"-.-0|text|649/9;778/9||
115026438_SC.txt|MMI|1.05|Diagnosis Code|C1550350|[inpr]|"DIAGNOSIS"-text-271-"DIAGNOSIS"-NNP-0,"DIAGNOSIS"-text-10-"DIAGNOSIS"-.-0|text|649/9;778/9||
115026438_SC.txt|MMI|1.05|Diagnosis Study|C1704656|[resa]|"DIAGNOSIS"-text-271-"DIAGNOSIS"-NNP-0,"DIAGNOSIS"-text-10-"DIAGNOSIS"-.-0|text|649/9;778/9||
115026438_SC.txt|MMI|1.05|Diagnosis:Impression/interpretation of study:Point in time:^Patient:Nominal|C0945731|[clna]|"Diagnosis"-text-271-"DIAGNOSIS"-NNP-0,"Diagnosis"-text-10-"DIAGNOSIS"-.-0|text|649/9;778/9||
115026438_SC.txt|MMI|1.05|Hospital admission|C0184666|[hlca]|"Admit"-text-269-"ADMIT"-NNP-0,"Admission"-text-0-"Admission"-NNP-0|text|643/5;749/9||
115026438_SC.txt|MMI|1.05|Logical Condition|C1705253|[cnce]|"Condition"-text-56-"Condition"-NNP-0,"Condition"-text-0-"CONDITION"-NN-0|text|1031/9;1756/9||
115026438_SC.txt|MMI|1.05|Normal delivery|C1384485|[fndg]|"NSVD"-text-14-"NSVD"-NNP-0,"NSVD"-text-6-"NSVD"-NNP-0|text|57/4;767/4||
115026438_SC.txt|MMI|1.05|PRN (schedule frequency)|C1879745|[qlco]|"PRN"-text-197-"PRN"-NNP-0,"PRN"-text-213-"PRN"-NNP-0|text|472/3;506/3||
115026438_SC.txt|MMI|1.05|Procedure anesthesia:Finding:Point in time:^Patient:Narrative|C2926599|[clna]|"Anesthesia"-text-18-"Anesthesia"-NNP-0,"Anesthesia"-text-26-"Anesthesia"-NNP-0|text|900/10;932/10||
115026438_SC.txt|MMI|1.05|Summary (document)|C1706244|[inpr]|"Summary"-text-150-"SUMMARY"-NNP-0,"Summary"-text-8-"summary"-NN-0|text|342/7;1802/7||
115026438_SC.txt|MMI|1.05|diagnosis aspect|C1704338|[ftcn]|"diagnosis"-text-271-"DIAGNOSIS"-NNP-0,"diagnosis"-text-10-"DIAGNOSIS"-.-0|text|649/9;778/9||
115026438_SC.txt|MMI|1.05|summary - ActRelationshipSubset|C1552616|[inpr]|"summary"-text-150-"SUMMARY"-NNP-0,"summary"-text-8-"summary"-NN-0|text|342/7;1802/7||
115026438_SC.txt|MMI|0.98|Patients|C0030705|[podg]|"Patient"-text-98-"PATIENT"-NNP-0|text|240/7|M01.643|
115026438_SC.txt|MMI|0.98|Placenta|C0032043|[emst]|"Placenta"-text-46-"Placenta"-NNP-0|text|1002/8|A16.710|
115026438_SC.txt|MMI|0.52|ActInformationPrivacyReason <service>|C3245478|[idcn]|"service"-text-90-"Service"-NNP-0|text|216/7||
115026438_SC.txt|MMI|0.52|Active|C0205177|[qlco]|"Activity"-text-225-"Activity"-NN-1|text|538/8||
115026438_SC.txt|MMI|0.52|Activities|C0441655|[acty]|"Activity"-text-225-"Activity"-NN-1|text|538/8||
115026438_SC.txt|MMI|0.52|Activity (animal life circumstance)|C3668946|[fndg]|"Activity"-text-225-"Activity"-NN-1|text|538/8||
115026438_SC.txt|MMI|0.52|Address type - Home|C1549632|[idcn]|"Home"-text-177-"Home"-NNP-0|text|413/4||
115026438_SC.txt|MMI|0.52|Administration procedure|C1533734|[topp]|"Treatment"-text-0-"Treatment"-NNP-0|text|842/9||
115026438_SC.txt|MMI|0.52|Admission activity|C0809949|[hlca]|"Admission"-text-0-"Admission"-NNP-0|text|749/9||
115026438_SC.txt|MMI|0.52|Admission date:Time Stamp -- Date and Time:Point in time:^Patient:Quantitative|C2598112|[clna]|"Admission date"-text-20-"Admission Date"-NNP-0|text|66/14||
115026438_SC.txt|MMI|0.52|Affecting|C0392760|[ftcn]|"Affecting"-text-0-"affecting"-VBG-0|text|832/9||
115026438_SC.txt|MMI|0.52|And|C1515981|[idcn]|"And"-text-255-"and"-CC-0|text|610/3||
115026438_SC.txt|MMI|0.52|And - dosing instruction fragment|C1706368|[inpr]|"And"-text-255-"and"-CC-0|text|610/3||
115026438_SC.txt|MMI|0.52|Attending (action)|C1999232|[ftcn]|"attending"-text-156-"Attending"-NNP-0|text|356/9||
115026438_SC.txt|MMI|0.52|Attending (provider role)|C1547429|[prog]|"Attending"-text-156-"Attending"-NNP-0|text|356/9||
115026438_SC.txt|MMI|0.52|BID gene|C1332410|[gngm]|"BID"-text-195-"BID"-NNP-0|text|468/3||
115026438_SC.txt|MMI|0.52|Biomaterial Treatment|C1705169|[cnce]|"Treatment"-text-0-"Treatment"-NNP-0|text|842/9||
115026438_SC.txt|MMI|0.52|Body Parts - Epidural|C1550254|[bpoc]|"Epidural"-text-22-"Epidural"-NNP-0|text|913/8||
115026438_SC.txt|MMI|0.52|CHL1 gene|C1413393|[gngm]|"CALL"-text-22-"call"-VB-0|text|1701/4||
115026438_SC.txt|MMI|0.52|Call (Instruction)|C1947967|[ftcn]|"Call"-text-22-"call"-VB-0|text|1701/4||
115026438_SC.txt|MMI|0.52|Call - dosing instruction fragment|C1720420|[inpr]|"Call"-text-22-"call"-VB-0|text|1701/4||
115026438_SC.txt|MMI|0.52|Causing|C0678227|[ftcn]|"Causing"-text-0-"Causing"-NNP-0|text|741/7||
115026438_SC.txt|MMI|0.52|Clinic|C0442592|[mnob, hcro]|"Clinic"-text-249-"Clinic"-NNP-0|text|595/6||
115026438_SC.txt|MMI|0.52|Clinical Research|C0008972|[resa]|"Study"-text-0-"Study"-NNP-0|text|731/5||
115026438_SC.txt|MMI|0.52|Complication|C0009566|[patf]|"Complications"-text-0-"Complications"-NNP-0|text|816/13||
115026438_SC.txt|MMI|0.52|Complication Aspects|C1171258|[ftcn]|"complications"-text-0-"Complications"-NNP-0|text|816/13||
115026438_SC.txt|MMI|0.52|Complications:Type:Duration of the study:^Patient:Nominal|C0802632|[clna]|"Complications"-text-0-"Complications"-NNP-0|text|816/13||
115026438_SC.txt|MMI|0.52|Conditional|C1701901|[qlco]|"Contingent"-text-118-"CONTINGENT"-JJ-0|text|274/10||
115026438_SC.txt|MMI|0.52|DHX40 gene|C1425244|[gngm]|"PAD"-text-0-"pad"-NN-0|text|1608/3||
115026438_SC.txt|MMI|0.52|DICOM Study|C1880229|[resa]|"Study"-text-0-"Study"-NNP-0|text|731/5||
115026438_SC.txt|MMI|0.52|Date of admission|C1302393|[tmco]|"Admission date"-text-20-"Admission Date"-NNP-0|text|66/14||
115026438_SC.txt|MMI|0.52|Decision|C0679006|[menp]|"Call"-text-22-"call"-VB-0|text|1701/4||
115026438_SC.txt|MMI|0.52|Diagnostic interview schedule|C0451119|[inpr]|"DIS"-text-16-"DIS"-NNP-0|text|62/3||
115026438_SC.txt|MMI|0.52|Disabled Person Code - Patient|C1578486|[inpr]|"Patient"-text-98-"PATIENT"-NNP-0|text|240/7||
115026438_SC.txt|MMI|0.52|Discontinued|C1444662|[fndg]|"DIS"-text-16-"DIS"-NNP-0|text|62/3||
115026438_SC.txt|MMI|0.52|Doctor - Title|C2348314|[inpr]|"Doctor"-text-26-"doctor"-NN-0|text|1711/6||
115026438_SC.txt|MMI|0.52|Encounter Special Courtesy - staff|C1551040|[fndg]|"staff"-text-68-"Staff"-NNP-0|text|1072/5||
115026438_SC.txt|MMI|0.52|Entered|C1521975|[qlco]|"Entered"-text-10-"ENTERED"-NNP-0|text|1810/7||
115026438_SC.txt|MMI|0.52|Entire placenta|C1278988|[emst]|"Placenta"-text-46-"Placenta"-NNP-0|text|1002/8||
115026438_SC.txt|MMI|0.52|Epidural Route of Drug Administration|C0592511|[ftcn]|"Epidural"-text-22-"Epidural"-NNP-0|text|913/8||
115026438_SC.txt|MMI|0.52|Epidural device|C1283259|[medd]|"Epidural"-text-22-"Epidural"-NNP-0|text|913/8||
115026438_SC.txt|MMI|0.52|Evaluation|C0220825|[hlca]|"Evaluation"-text-124-"evaluation"-NN-0|text|293/10||
115026438_SC.txt|MMI|0.52|Evaluation procedure|C1261322|[hlca]|"Evaluation"-text-124-"evaluation"-NN-0|text|293/10||
115026438_SC.txt|MMI|0.52|Experience|C0596545|[menp]|"Experience"-text-0-"experience"-VBP-0|text|1562/10||
115026438_SC.txt|MMI|0.52|FDA Establishment Activity Terminology|C4049939|[inpr]|"ACTIVITY"-text-225-"Activity"-NN-1|text|538/8||
115026438_SC.txt|MMI|0.52|Facilitated oscillatory release technique|C1562169|[topp]|"FOR"-text-0-"for"-IN-0|text|737/3||
115026438_SC.txt|MMI|0.52|Follow-Up Information|C4745114|[inpr]|"Follow Up"-text-235-"FOLLOW UP"-NNP-1|text|562/9||
115026438_SC.txt|MMI|0.52|Follow-up status|C0589120|[fndg]|"follow up"-text-235-"FOLLOW UP"-NNP-1|text|562/9||
115026438_SC.txt|MMI|0.52|Home environment|C0442519|[spco]|"Home"-text-177-"Home"-NNP-0|text|413/4||
115026438_SC.txt|MMI|0.52|Hospital environment|C1510665|[qlco]|"Hospital"-text-36-"hospital"-NN-0|text|1735/8||
115026438_SC.txt|MMI|0.52|Hour|C0439227|[tmco]|"Hour"-text-0-"hour"-NN-0|text|1614/4||
115026438_SC.txt|MMI|0.52|Infection|C3714514|[patf]|"Infections"-text-0-"Infections"-NNP-0|text|803/10|C01|
115026438_SC.txt|MMI|0.52|Infections of musculoskeletal system|C0851162|[dsyn]|"Infections"-text-0-"Infections"-NNP-0|text|803/10||
115026438_SC.txt|MMI|0.52|Infections:-:Point in time:^Patient:-|C2707258|[clna]|"Infections"-text-0-"Infections"-NNP-0|text|803/10||
115026438_SC.txt|MMI|0.52|Involvement with|C1314939|[ftcn]|"Affecting"-text-0-"affecting"-VBG-0|text|832/9||
115026438_SC.txt|MMI|0.52|LEP wt Allele|C2986870|[gngm]|"OBS"-text-94-"OBS"-NNP-0|text|226/3||
115026438_SC.txt|MMI|0.52|Laboratory Sample Manual|C3891067|[inpr]|"Manual"-text-54-"Manual"-NNP-0|text|1024/6||
115026438_SC.txt|MMI|0.52|Mail Claim Party - Patient|C1578481|[idcn]|"Patient"-text-98-"PATIENT"-NNP-0|text|240/7||
115026438_SC.txt|MMI|0.52|Manual|C0175674|[ftcn]|"Manual"-text-54-"Manual"-NNP-0|text|1024/6||
115026438_SC.txt|MMI|0.52|Median (qualifier value)|C2939193|[spco]|"Median"-text-44-"Median"-NNP-0|text|995/6||
115026438_SC.txt|MMI|0.52|Median Statistical Measurement|C0876920|[qnco]|"Median"-text-44-"Median"-NNP-0|text|995/6||
115026438_SC.txt|MMI|0.52|Medication administration: epidural|C0812144|[topp]|"epidural"-text-22-"Epidural"-NNP-0|text|913/8||
115026438_SC.txt|MMI|0.52|Midline (qualifier value)|C0549183|[spco]|"Median"-text-44-"Median"-NNP-0|text|995/6||
115026438_SC.txt|MMI|0.52|No Effort|C5202819|[fndg]|"None"-text-6-"none"-NN-0|text|859/4||
115026438_SC.txt|MMI|0.52|No Extremity Functional Restrictions|C4054353|[inpr]|"No restrictions"-text-223-"No Restrictions"-DT-0|text|522/15||
115026438_SC.txt|MMI|0.52|No Hand Mobility|C4050154|[inpr]|"None"-text-6-"none"-NN-0|text|859/4||
115026438_SC.txt|MMI|0.52|No Support Needed|C4050155|[inpr]|"None"-text-6-"none"-NN-0|text|859/4||
115026438_SC.txt|MMI|0.52|No known allergy|C0262580|[fndg]|"NO KNOWN ALLERGIES"-text-267-"No Known Allergies"-DT-1|text|624/18||
115026438_SC.txt|MMI|0.52|Non-human parturition, function|C1314680|[orgf]|"Delivery"-text-50-"Delivery"-NN-0|text|1013/8||
115026438_SC.txt|MMI|0.52|None|C0549184|[fndg]|"None"-text-6-"none"-NN-0|text|859/4||
115026438_SC.txt|MMI|0.52|None (no infant feeding)|C5200984|[fndg]|"None"-text-6-"none"-NN-0|text|859/4||
115026438_SC.txt|MMI|0.52|None - Action Taken in Response to the Event|C1556148|[ftcn]|"None"-text-6-"none"-NN-0|text|859/4||
115026438_SC.txt|MMI|0.52|None - Additive/Preservative|C1556152|[ftcn]|"None"-text-6-"none"-NN-0|text|859/4||
115026438_SC.txt|MMI|0.52|None - ContainerSeparator|C1551387|[ftcn]|"None"-text-6-"none"-NN-0|text|859/4||
115026438_SC.txt|MMI|0.52|None - Eligibility Source|C1556147|[idcn]|"None"-text-6-"none"-NN-0|text|859/4||
115026438_SC.txt|MMI|0.52|None - Language Proficiency|C1556151|[ftcn]|"None"-text-6-"none"-NN-0|text|859/4||
115026438_SC.txt|MMI|0.52|None - ObservationValue|C1556150|[idcn]|"None"-text-6-"none"-NN-0|text|859/4||
115026438_SC.txt|MMI|0.52|None - Relationship|C1556146|[idcn]|"None"-text-6-"none"-NN-0|text|859/4||
115026438_SC.txt|MMI|0.52|None - Sequencing|C1550437|[ftcn]|"None"-text-6-"none"-NN-0|text|859/4||
115026438_SC.txt|MMI|0.52|None - Specimen Additive|C1550083|[inpr]|"None"-text-6-"none"-NN-0|text|859/4||
115026438_SC.txt|MMI|0.52|None Device|C1706277|[mnob]|"None"-text-6-"none"-NN-0|text|859/4||
115026438_SC.txt|MMI|0.52|Null Value|C0456148|[qnco]|"None"-text-6-"none"-NN-0|text|859/4||
115026438_SC.txt|MMI|0.52|On Staff|C1947908|[qlco]|"Staff"-text-68-"Staff"-NNP-0|text|1072/5||
115026438_SC.txt|MMI|0.52|Operations and procedures|C1576866|[hlca]|"Operations and procedures"-text-12-"OPERATIONS AND PROCEDURES"-NNS-0|text|864/25||
115026438_SC.txt|MMI|0.52|Order (action)|C1705178|[acty]|"Order"-text-134-"ORDER"-NNP-0|text|315/5||
115026438_SC.txt|MMI|0.52|Order (arrangement)|C1705176|[qlco]|"Order"-text-134-"ORDER"-NNP-0|text|315/5||
115026438_SC.txt|MMI|0.52|Order (document)|C1705175|[inpr]|"Order"-text-134-"ORDER"-NNP-0|text|315/5||
115026438_SC.txt|MMI|0.52|Order (record artifact)|C4284072|[inpr]|"Order"-text-134-"ORDER"-NNP-0|text|315/5||
115026438_SC.txt|MMI|0.52|Order (taxonomic)|C1705177|[clas]|"Order"-text-134-"ORDER"-NNP-0|text|315/5||
115026438_SC.txt|MMI|0.52|Order [PK]|C1373200|[npop]|"Order"-text-134-"ORDER"-NNP-0|text|315/5||
115026438_SC.txt|MMI|0.52|Organization unit type - Home|C1547197|[orgt]|"Home"-text-177-"Home"-NNP-0|text|413/4||
115026438_SC.txt|MMI|0.52|Organization unit type - Hospital|C1547192|[idcn]|"Hospital"-text-36-"hospital"-NN-0|text|1735/8||
115026438_SC.txt|MMI|0.52|PAD Regimen|C3814046|[topp]|"PAD"-text-0-"pad"-NN-0|text|1608/3||
115026438_SC.txt|MMI|0.52|PADI4 gene|C1425478|[gngm]|"PAD"-text-0-"pad"-NN-0|text|1608/3||
115026438_SC.txt|MMI|0.52|PADI4 wt Allele|C3540603|[gngm]|"PAD"-text-0-"pad"-NN-0|text|1608/3||
115026438_SC.txt|MMI|0.52|Pad (unit of presentation)|C4319657|[qnco]|"Pad"-text-0-"pad"-NN-0|text|1608/3||
115026438_SC.txt|MMI|0.52|Pad Device|C1706364|[mnob]|"Pad"-text-0-"pad"-NN-0|text|1608/3||
115026438_SC.txt|MMI|0.52|Pad Dosage Form|C2347441|[bodm]|"PAD"-text-0-"pad"-NN-0|text|1608/3||
115026438_SC.txt|MMI|0.52|Pad Dosing Unit|C1882271|[qnco]|"Pad"-text-0-"pad"-NN-0|text|1608/3||
115026438_SC.txt|MMI|0.52|Pad Mass|C0332568|[neop]|"Pad"-text-0-"pad"-NN-0|text|1608/3||
115026438_SC.txt|MMI|0.52|Pads|C0182158|[medd]|"Pad"-text-0-"pad"-NN-0|text|1608/3||
115026438_SC.txt|MMI|0.52|Patient Condition Code - Stable|C1547311|[inpr]|"Stable"-text-0-"Stable"-JJ-0|text|1768/6||
115026438_SC.txt|MMI|0.52|Patient location type - Clinic|C1547115|[spco]|"Clinic"-text-249-"Clinic"-NNP-0|text|595/6||
115026438_SC.txt|MMI|0.52|Permutation|C1882348|[qlco]|"Order"-text-134-"ORDER"-NNP-0|text|315/5||
115026438_SC.txt|MMI|0.52|Person location type - Clinic|C1548528|[spco]|"Clinic"-text-249-"Clinic"-NNP-0|text|595/6||
115026438_SC.txt|MMI|0.52|Person location type - Home|C1548530|[spco]|"Home"-text-177-"Home"-NNP-0|text|413/4||
115026438_SC.txt|MMI|0.52|Physical Activity Measurement|C4049938|[lbpr]|"Activity"-text-225-"Activity"-NN-1|text|538/8||
115026438_SC.txt|MMI|0.52|Placenta Specimen|C1550656|[bdsu]|"Placenta"-text-46-"Placenta"-NNP-0|text|1002/8||
115026438_SC.txt|MMI|0.52|Placenta Specimen Code|C1546742|[inpr]|"Placenta"-text-46-"Placenta"-NNP-0|text|1002/8||
115026438_SC.txt|MMI|0.52|Planned|C1301732|[ftcn]|"Plan"-text-0-"PLAN"-NNP-0|text|1783/4||
115026438_SC.txt|MMI|0.52|Population Median|C2347635|[qnco]|"Median"-text-44-"Median"-NNP-0|text|995/6||
115026438_SC.txt|MMI|0.52|Post|C0687676|[tmco]|"After"-text-0-"After"-IN-0|text|725/5||
115026438_SC.txt|MMI|0.52|Practice Experience|C0237607|[menp]|"experience"-text-0-"experience"-VBP-0|text|1562/10||
115026438_SC.txt|MMI|0.52|Preposition For|C0521125|[qlco]|"For"-text-0-"for"-IN-0|text|737/3||
115026438_SC.txt|MMI|0.52|Processing type - Evaluation|C1550157|[idcn]|"Evaluation"-text-124-"evaluation"-NN-0|text|293/10||
115026438_SC.txt|MMI|0.52|Relationship modifier - Patient|C1578484|[idcn]|"Patient"-text-98-"PATIENT"-NNP-0|text|240/7||
115026438_SC.txt|MMI|0.52|RelationshipConjunction - and|C1550557|[inpr]|"and"-text-255-"and"-CC-0|text|610/3||
115026438_SC.txt|MMI|0.52|Report source - Patient|C1578483|[idcn]|"Patient"-text-98-"PATIENT"-NNP-0|text|240/7||
115026438_SC.txt|MMI|0.52|Report status (finding)|C0586177|[fndg]|"Report status"-text-32-"Report Status"-NNP-0|text|94/13||
115026438_SC.txt|MMI|0.52|Report status:Type:Point in time:Report:Nominal|C4760061|[clna]|"Report status"-text-32-"Report Status"-NNP-0|text|94/13||
115026438_SC.txt|MMI|0.52|Responsible to|C1273518|[fndg]|"responsible"-text-0-"Responsible"-JJ-0|text|713/11||
115026438_SC.txt|MMI|0.52|Return to (contextual qualifier) (qualifier value)|C0332156|[qlco]|"Return to"-text-32-"return to"-NN-0|text|1721/9||
115026438_SC.txt|MMI|0.52|Room|C1547703|[spco]|"Room"-text-82-"Room"-NNP-0|text|200/4||
115026438_SC.txt|MMI|0.52|Room - Patient location type|C1547120|[spco]|"Room"-text-82-"Room"-NNP-0|text|200/4||
115026438_SC.txt|MMI|0.52|Room of building - Study|C0557651|[mnob]|"Study"-text-0-"Study"-NNP-0|text|731/5||
115026438_SC.txt|MMI|0.52|Sample Median|C2348144|[qnco]|"Median"-text-44-"Median"-NNP-0|text|995/6||
115026438_SC.txt|MMI|0.52|Scientific Study|C0947630|[lbpr]|"Study"-text-0-"Study"-NNP-0|text|731/5||
115026438_SC.txt|MMI|0.52|Sequence of Planned Assessment Schedule|C3889825|[inpr]|"ORDER"-text-134-"ORDER"-NNP-0|text|315/5||
115026438_SC.txt|MMI|0.52|Services|C0557854|[ocac]|"service"-text-90-"Service"-NNP-0|text|216/7||
115026438_SC.txt|MMI|0.52|Smell Perception|C0037361|[orgf]|"Smelling"-text-0-"smelling"-NN-0|text|1626/8||
115026438_SC.txt|MMI|0.52|Software Service|C2825316|[mnob]|"Service"-text-90-"Service"-NNP-0|text|216/7||
115026438_SC.txt|MMI|0.52|Specimen Source Codes - Patient|C1578485|[inpr]|"Patient"-text-98-"PATIENT"-NNP-0|text|240/7||
115026438_SC.txt|MMI|0.52|Specimen Type - Patient|C1550655|[bdsu]|"Patient"-text-98-"PATIENT"-NNP-0|text|240/7||
115026438_SC.txt|MMI|0.52|Spinal epidural space|C0228134|[bsoj]|"epidural"-text-22-"Epidural"-NNP-0|text|913/8||
115026438_SC.txt|MMI|0.52|Spontaneous|C0205359|[ftcn]|"Spontaneous"-text-38-"Spontaneous"-NNP-0|text|970/11||
115026438_SC.txt|MMI|0.52|Stable status|C0205360|[qlco]|"Stable"-text-0-"Stable"-JJ-0|text|1768/6||
115026438_SC.txt|MMI|0.52|Staff|C0851286|[prog]|"Staff"-text-68-"Staff"-NNP-0|text|1072/5||
115026438_SC.txt|MMI|0.52|Status post|C0231290|[tmco]|"After"-text-0-"After"-IN-0|text|725/5||
115026438_SC.txt|MMI|0.52|Strucure of thick cushion of skin|C3669270|[anst]|"Pad"-text-0-"pad"-NN-0|text|1608/3||
115026438_SC.txt|MMI|0.52|Study|C2603343|[resa]|"Study"-text-0-"Study"-NNP-0|text|731/5||
115026438_SC.txt|MMI|0.52|Study Object|C1705923|[cnce]|"Study"-text-0-"Study"-NNP-0|text|731/5||
115026438_SC.txt|MMI|0.52|Symptoms aspect|C0683368|[ftcn]|"symptoms"-text-16-"symptoms"-NNS-0|text|1683/8||
115026438_SC.txt|MMI|0.52|Therapeutic procedure|C0087111|[topp]|"Treatment"-text-0-"Treatment"-NNP-0|text|842/9||
115026438_SC.txt|MMI|0.52|Transfer Technique|C1705822|[ftcn]|"Delivery"-text-50-"Delivery"-NN-0|text|1013/8||
115026438_SC.txt|MMI|0.52|Treating|C1522326|[ftcn]|"Treatment"-text-0-"Treatment"-NNP-0|text|842/9||
115026438_SC.txt|MMI|0.52|Treatment Epoch|C3538994|[resa]|"TREATMENT"-text-0-"Treatment"-NNP-0|text|842/9||
115026438_SC.txt|MMI|0.52|Treatment Plan|C0599880|[inpr]|"Plan"-text-0-"PLAN"-NNP-0|text|1783/4||
115026438_SC.txt|MMI|0.52|Treatment Study|C3161471|[resa]|"TREATMENT"-text-0-"Treatment"-NNP-0|text|842/9||
115026438_SC.txt|MMI|0.52|Twice a day|C0585361|[tmco]|"BID"-text-195-"BID"-NNP-0|text|468/3||
115026438_SC.txt|MMI|0.52|Upon - dosing instruction fragment|C1720176|[ftcn]|"Upon"-text-120-"UPON"-NNP-0|text|285/4||
115026438_SC.txt|MMI|0.52|Used by|C1273517|[fndg]|"used"-text-138-"USED"-VBN-0|text|324/4||
115026438_SC.txt|MMI|0.52|Veterinary Patient|C1705908|[orgm]|"Patient"-text-98-"PATIENT"-NNP-0|text|240/7||
115026438_SC.txt|MMI|0.52|Visit User Code - Home|C1548341|[inpr]|"Home"-text-177-"Home"-NNP-0|text|413/4||
115026438_SC.txt|MMI|0.52|WWOX gene|C1421525|[gngm]|"FOR"-text-0-"for"-IN-0|text|737/3||
115026438_SC.txt|MMI|0.52|WWOX wt Allele|C4321252|[gngm]|"FOR"-text-0-"for"-IN-0|text|737/3||
115026438_SC.txt|MMI|0.52|What subject filter - Order|C1546465|[idcn]|"Order"-text-134-"ORDER"-NNP-0|text|315/5||
115026438_SC.txt|MMI|0.52|YES Portal|C5202962|[mnob]|"YES"-text-154-"YES"-NNP-0|text|352/3||
115026438_SC.txt|MMI|0.52|YES1 gene|C0919479|[gngm]|"Yes"-text-154-"YES"-NNP-0|text|352/3||
115026438_SC.txt|MMI|0.52|YES1 wt Allele|C1710701|[gngm]|"Yes"-text-154-"YES"-NNP-0|text|352/3||
115026438_SC.txt|MMI|0.52|Yes (indicator)|C1705108|[fndg]|"Yes"-text-154-"YES"-NNP-0|text|352/3||
115026438_SC.txt|MMI|0.52|Yes - Assignment of Benefits|C1549443|[idcn]|"Yes"-text-154-"YES"-NNP-0|text|352/3||
115026438_SC.txt|MMI|0.52|Yes - Event Expected|C1546947|[idcn]|"Yes"-text-154-"YES"-NNP-0|text|352/3||
115026438_SC.txt|MMI|0.52|Yes - Event Seriousness|C1546945|[qlco]|"Yes"-text-154-"YES"-NNP-0|text|352/3||
115026438_SC.txt|MMI|0.52|Yes - Expanded yes/no indicator|C1549060|[idcn]|"Yes"-text-154-"YES"-NNP-0|text|352/3||
115026438_SC.txt|MMI|0.52|Yes - Identity May Be Divulged|C1546969|[idcn]|"Yes"-text-154-"YES"-NNP-0|text|352/3||
115026438_SC.txt|MMI|0.52|Yes - Notify Clergy Code|C1549065|[inpr]|"Yes"-text-154-"YES"-NNP-0|text|352/3||
115026438_SC.txt|MMI|0.52|Yes - Presence findings|C1298907|[fndg]|"Yes"-text-154-"YES"-NNP-0|text|352/3||
115026438_SC.txt|MMI|0.52|Yes - Release Information|C1548171|[idcn]|"Yes"-text-154-"YES"-NNP-0|text|352/3||
115026438_SC.txt|MMI|0.52|Yes - Yes/no indicator|C1549445|[idcn]|"Yes"-text-154-"YES"-NNP-0|text|352/3||
115026438_SC.txt|MMI|0.52|dictated - DocumentCompletion|C1609990|[idcn]|"dictated"-text-6-"dictated"-VBD-0|text|1793/8||
115026438_SC.txt|MMI|0.52|dictated - ParticipationMode|C1548384|[ftcn]|"dictated"-text-6-"dictated"-VBD-0|text|1793/8||
115026438_SC.txt|MMI|0.52|follow-up|C1522577|[hlca]|"Follow Up"-text-235-"FOLLOW UP"-NNP-1|text|562/9||
115026438_SC.txt|MMI|0.52|home health encounter|C1553498|[hlca]|"Home"-text-177-"Home"-NNP-0|text|413/4||
115026438_SC.txt|MMI|0.52|none - ResponseLevel|C1547191|[qlco]|"none"-text-6-"none"-NN-0|text|859/4||
115026438_SC.txt|MMI|0.52|none - SubstanceAdminSubstitution|C1553523|[fndg]|"none"-text-6-"none"-NN-0|text|859/4||
115026438_SC.txt|MMI|0.52|none - TableRules|C1546509|[qnco]|"none"-text-6-"none"-NN-0|text|859/4||
115026438_SC.txt|MMI|0.52|orders - HL7PublishingDomain|C3244315|[inpr]|"orders"-text-57-"ORDERS"-NNP-0|text|155/6||
115026438_SC.txt|MMI|0.52|therapeutic aspects|C0039798|[ftcn]|"treatment"-text-0-"Treatment"-NNP-0|text|842/9||
115026438_SC.txt|MMI|0.52|treatment - ActInformationManagementReason|C3887704|[hlca]|"treatment"-text-0-"Treatment"-NNP-0|text|842/9||
115026438_SC.txt|MMI|0.52|week|C0439230|[tmco]|"Weeks"-text-259-"weeks"-NNS-0|text|616/5||
115026438_SC.txt|MMI|0.50|2 Weeks|C1442457|[tmco]|"2 Weeks"-text-253-"2 weeks"-CD-0|text|602/7||
115026438_SC.txt|MMI|0.50|200|C4319558|[qnco]|"200"-text-201-"200"-CD-0|text|486/3||
115026438_SC.txt|MMI|0.50|600|C3816748|[qnco]|"600"-text-203-"600"-CD-0|text|490/3||
115026438_SC.txt|MMI|0.50|Abdominal Pain, CTCAE 5|C4554323|[fndg]|"Abdominal pain"-text-6-"abdominal pain"-JJ-0|text|1647/14||
115026438_SC.txt|MMI|0.50|Administration Method - Pain|C1549543|[ftcn]|"Pain"-text-215-"PAIN"-NNP-0|text|510/4||
115026438_SC.txt|MMI|0.50|Adverse Event Associated with Pain|C1557397|[fndg]|"PAIN"-text-215-"PAIN"-NNP-0|text|510/4||
115026438_SC.txt|MMI|0.50|Arabic numeral 100|C1704407|[qnco]|"100"-text-0-"100"-CD-0|text|1584/3||
115026438_SC.txt|MMI|0.50|Basal Diet|C2983588|[food]|"DIET"-text-217-"DIET"-NNP-0|text|515/4||
115026438_SC.txt|MMI|0.50|Diet (animal life circumstance)|C3668949|[food]|"Diet"-text-217-"DIET"-NNP-0|text|515/4||
115026438_SC.txt|MMI|0.50|Discharge date|C2361123|[tmco]|"Discharge date"-text-38-"Discharge Date"-NNP-0|text|110/14||
115026438_SC.txt|MMI|0.50|Discharge date:Time Stamp -- Date and Time:Point in time:^Patient:Quantitative|C2361122|[clna]|"Discharge date"-text-38-"Discharge Date"-NNP-0|text|110/14||
115026438_SC.txt|MMI|0.50|Docusate Sodium 100 MG|C3153447|[clnd]|"Docusate Sodium 100 MG"-text-191-"DOCUSATE SODIUM 100 MG"-VB-0|text|442/22||
115026438_SC.txt|MMI|0.50|Feel Pain|C4554132|[inpr]|"Pain"-text-215-"PAIN"-NNP-0|text|510/4||
115026438_SC.txt|MMI|0.50|Fever symptoms (finding)|C0424755|[fndg]|"Fever"-text-0-"fever"-NN-0|text|1573/5||
115026438_SC.txt|MMI|0.50|Fever, CTCAE|C4552740|[fndg]|"Fever"-text-0-"fever"-NN-0|text|1573/5||
115026438_SC.txt|MMI|0.50|Frequency of Pain Question|C0518090|[inpr]|"Pain"-text-215-"PAIN"-NNP-0|text|510/4||
115026438_SC.txt|MMI|0.50|Have Pain|C2984058|[inpr]|"Pain"-text-215-"PAIN"-NNP-0|text|510/4||
115026438_SC.txt|MMI|0.50|How Much Distress Pain|C4085212|[inpr]|"Pain"-text-215-"PAIN"-NNP-0|text|510/4||
115026438_SC.txt|MMI|0.50|How Often Felt Normal question|C4553972|[inpr]|"Normal"-text-60-"Normal"-JJ-0|text|1043/6||
115026438_SC.txt|MMI|0.50|Karnofsky Performance Status 100|C3829431|[fndg]|"100"-text-0-"100"-CD-0|text|1584/3||
115026438_SC.txt|MMI|0.50|Local|C0205276|[spco]|"Local"-text-30-"Local"-JJ-0|text|945/5||
115026438_SC.txt|MMI|0.50|Local Remote Control State - Local|C1550012|[idcn]|"Local"-text-30-"Local"-JJ-0|text|945/5||
115026438_SC.txt|MMI|0.50|Local-Regional anatomy|C1947913|[spco]|"Local"-text-30-"Local"-JJ-0|text|945/5||
115026438_SC.txt|MMI|0.50|Medication.discharge|C0806915|[fndg]|"Discharge medications"-text-181-"DISCHARGE MEDICATIONS"-NNP-0|text|418/21||
115026438_SC.txt|MMI|0.50|Normal|C0205307|[qlco]|"Normal"-text-60-"Normal"-JJ-0|text|1043/6||
115026438_SC.txt|MMI|0.50|Normal Gait|C5200925|[fndg]|"Normal"-text-60-"Normal"-JJ-0|text|1043/6||
115026438_SC.txt|MMI|0.50|Normal Immune Presence|C5202633|[fndg]|"Normal"-text-60-"Normal"-JJ-0|text|1043/6||
115026438_SC.txt|MMI|0.50|Normal Observation Interpretation|C1550457|[fndg]|"Normal"-text-60-"Normal"-JJ-0|text|1043/6||
115026438_SC.txt|MMI|0.50|Normal Reference Range|C2698497|[inpr]|"Normal"-text-60-"Normal"-JJ-0|text|1043/6||
115026438_SC.txt|MMI|0.50|Normal assessment finding|C1873497|[fndg]|"Normal"-text-60-"Normal"-JJ-0|text|1043/6||
115026438_SC.txt|MMI|0.50|Normal, Unit of Concentration|C1704701|[qnco]|"Normal"-text-60-"Normal"-JJ-0|text|1043/6||
115026438_SC.txt|MMI|0.50|Pain Distress Question|C4085211|[inpr]|"Pain"-text-215-"PAIN"-NNP-0|text|510/4||
115026438_SC.txt|MMI|0.50|Pain by Anatomic Descriptor, CTCAE|C1882272|[fndg]|"Pain"-text-215-"PAIN"-NNP-0|text|510/4||
115026438_SC.txt|MMI|0.50|Pain, CTCAE|C4553004|[fndg]|"Pain"-text-215-"PAIN"-NNP-0|text|510/4||
115026438_SC.txt|MMI|0.50|Pain:-:Point in time:^Patient:-|C2598155|[clna]|"Pain"-text-215-"PAIN"-NNP-0|text|510/4||
115026438_SC.txt|MMI|0.50|Primary|C0205225|[qlco]|"Primary"-text-16-"Primary"-JJ-0|text|892/7||
115026438_SC.txt|MMI|0.50|Primary operation|C0439631|[topp]|"Primary"-text-16-"Primary"-JJ-0|text|892/7||
115026438_SC.txt|MMI|0.50|Resident (person)|C2347958|[popg]|"Resident"-text-64-"Resident"-NN-0|text|1061/8||
115026438_SC.txt|MMI|0.50|Resident (physician)|C1320928|[prog]|"Resident"-text-64-"Resident"-NN-0|text|1061/8||
115026438_SC.txt|MMI|0.50|Resident - Procedure Practitioner Identifier Code Type|C1549439|[inpr]|"Resident"-text-64-"Resident"-NN-0|text|1061/8||
115026438_SC.txt|MMI|0.50|Resident - answer to question|C3835651|[fndg]|"Resident"-text-64-"Resident"-NN-0|text|1061/8||
115026438_SC.txt|MMI|0.50|Secondary to|C0175668|[qlco]|"secondary"-text-24-"Secondary"-NNP-0|text|922/9||
115026438_SC.txt|MMI|0.50|Skin appearance normal (finding)|C0558145|[fndg]|"NORMAL"-text-60-"Normal"-JJ-0|text|1043/6||
115026438_SC.txt|MMI|0.50|Special Diet Therapy|C1519433|[topp]|"DIET"-text-217-"DIET"-NNP-0|text|515/4||
115026438_SC.txt|MMI|0.50|True primary (qualifier value)|C0439612|[tmco]|"Primary"-text-16-"Primary"-JJ-0|text|892/7||
115026438_SC.txt|MMI|0.50|Usual Severity Pain|C4085210|[inpr]|"Pain"-text-215-"PAIN"-NNP-0|text|510/4||
115026438_SC.txt|MMI|0.50|Vaginal delivery (finding)|C0566690|[fndg]|"Vaginal delivery"-text-34-"Vaginal delivery"-JJ-0|text|951/16||
115026438_SC.txt|MMI|0.50|Vaginal delivery procedure|C1541822|[topp]|"Vaginal Delivery"-text-34-"Vaginal delivery"-JJ-0|text|951/16||
115026438_SC.txt|MMI|0.50|diet - supply|C1549512|[ftcn]|"diet"-text-217-"DIET"-NNP-0|text|515/4||
115026438_SC.txt|MMI|0.50|metastatic qualifier|C1522484|[ftcn]|"secondary"-text-24-"Secondary"-NNP-0|text|922/9||
115026438_SC.txt|MMI|0.50|normal Act Status|C1553386|[inpr]|"normal"-text-60-"Normal"-JJ-0|text|1043/6||
115026438_SC.txt|MMI|0.50|normal Confidentiality|C1550469|[idcn]|"normal"-text-60-"Normal"-JJ-0|text|1043/6||
115026438_SC.txt|MMI|0.50|normal Device Alert Level|C1551394|[fndg]|"Normal"-text-60-"Normal"-JJ-0|text|1043/6||
115026438_SC.txt|MMI|0.50|normal Entity Status|C1553406|[qlco]|"normal"-text-60-"Normal"-JJ-0|text|1043/6||
115026438_SC.txt|MMI|0.50|normal Managed Participation Status|C1553399|[idcn]|"normal"-text-60-"Normal"-JJ-0|text|1043/6||
115026438_SC.txt|MMI|0.50|normal Role Status|C1553402|[idcn]|"normal"-text-60-"Normal"-JJ-0|text|1043/6||
115026438_SC.txt|MMI|0.50|second (number)|C0205436|[qnco]|"Secondary"-text-24-"Secondary"-NNP-0|text|922/9||
