503651854_WGH.txt|MMI|22.18|Patient Discharge|C0030685|[hlca]|"Discharge"-text-30-"DISCHARGE"-NNP-0,"Discharged"-text-136-"Discharged"-VBN-0|text|121/9;388/10|N04.590.233.727.210.125;E02.760.169.125;N02.421.585.169.125;E02.760.400.610;N02.421.585.400.610|
503651854_WGH.txt|MMI|16.18|Wiskott-Aldrich Syndrome|C0043194|[dsyn]|"WAS"-text-12-"was"-VBD-0|text|898/3|C20.673.627.900;C15.378.553.546.605.900;C16.320.798.875;C20.673.795.875;C16.320.322.937;C15.378.463.960;C16.320.099.970;C15.378.100.100.970|
503651854_WGH.txt|MMI|12.62|Primary Care Physicians|C0033131|[prog]|"PCP"-text-86-"PCP"-NNP-0,"PCP"-text-100-"PCP"-NN-0,"PCP"-text-0-"PCP"-NNP-0|text|274/3;302/3;835/3|N02.360.810.795;M01.526.485.810.800|
503651854_WGH.txt|MMI|11.24|Pentachlorophenol|C0030855|[hops, orch]|"PCP"-text-86-"PCP"-NNP-0,"PCP"-text-100-"PCP"-NN-0,"PCP"-text-0-"PCP"-NNP-0|text|274/3;302/3;835/3|D02.455.426.559.389.657.190.633|
503651854_WGH.txt|MMI|5.71|Papillary craniopharyngioma|C0431128|[neop]|"PCP"-text-86-"PCP"-NNP-0,"PCP"-text-100-"PCP"-NN-0,"PCP"-text-0-"PCP"-NNP-0|text|274/3;302/3;835/3|x.x.x.x|
503651854_WGH.txt|MMI|5.71|Phencyclidine|C0031381|[orch, phsu]|"PCP"-text-86-"PCP"-NNP-0,"PCP"-text-100-"PCP"-NN-0,"PCP"-text-0-"PCP"-NNP-0|text|274/3;302/3;835/3|D03.383.621.699|
503651854_WGH.txt|MMI|4.65|Email|C0013849|[inpr]|"E-Mail"-text-98-"E-mail"-NNP-0|text|295/6|L01.559.423.906.377.333;L01.178.847.249|
503651854_WGH.txt|MMI|3.77|Caucasoid Race|C0007457|[popg]|"White"-text-0-"white"-JJ-0,"White"-text-0-"WHITE"-NNP-0|text|672/5;846/5|x.x.x.x|
503651854_WGH.txt|MMI|2.89|Disease|C0012634|[dsyn]|"DIS"-text-18-"DIS"-NNPS-0,"condition"-text-138-"Condition"-NNP-0|text|89/3;399/9|C23.550.288|
503651854_WGH.txt|MMI|2.83|Craniocerebral Trauma|C0018674|[inpo]|"Head Trauma"-text-170-"head trauma"-NN-0|text|480/11|C26.915.300;C10.900.300|
503651854_WGH.txt|MMI|2.37|Headache|C0018681|[sosy]|"Headache"-text-22-"headache"-NN-0|text|773/8|C23.888.592.612.441|
503651854_WGH.txt|MMI|2.34|Name|C0027365|[inpr]|"Name"-text-0-"Name"-NNP-0|text|839/4|L01.559.598.400.556|
503651854_WGH.txt|MMI|1.97|Patients|C0030705|[podg]|"Patient"-text-148-"Patient"-NNP-0,"Patient"-text-2-"Patient"-NNP-0|text|431/7;722/7|M01.643|
503651854_WGH.txt|MMI|1.93|Time|C0040223|[tmco]|"Time"-text-116-"Time"-NNP-0,"Time"-text-0-"time"-NN-0|text|345/4;630/4|G01.910|
503651854_WGH.txt|MMI|1.90|Date Fruit|C2348077|[food]|"Date"-text-58-"DATE"-NNP-0|text|202/4|x.x.x.x|
503651854_WGH.txt|MMI|1.90|Deafness, Sensorineural, And Male Infertility|C1970187|[dsyn]|"DIS"-text-18-"DIS"-NNPS-0|text|89/3|x.x.x.x|
503651854_WGH.txt|MMI|1.90|Motrin|C0699203|[orch, phsu]|"Motrin"-text-0-"motrin"-NN-0|text|615/6|x.x.x.x|
503651854_WGH.txt|MMI|1.90|Nausea|C0027497|[sosy]|"Nausea"-text-14-"nausea"-NN-0|text|753/6|C23.888.821.712|
503651854_WGH.txt|MMI|1.90|Tylenol|C0699142|[orch, phsu]|"Tylenol"-text-202-"tylenol"-NN-0|text|582/7|x.x.x.x|
503651854_WGH.txt|MMI|1.90|WAS protein, human|C1565156|[bacs, aapp]|"WAS"-text-12-"was"-VBD-0|text|898/3|x.x.x.x|
503651854_WGH.txt|MMI|1.88|Patient Monitoring|C0030695|[hlca]|"monitor"-text-6-"monitor"-VB-0|text|732/7|x.x.x.x|
503651854_WGH.txt|MMI|1.88|Vomiting|C0042963|[sosy]|"Vomiting"-text-18-"vomiting"-NN-0|text|762/8|C23.888.821.937|
503651854_WGH.txt|MMI|1.57|PCP - Hallucinogen-Related Disorder|C2919094|[mobd]|"PCP"-text-86-"PCP"-NNP-0,"PCP"-text-100-"PCP"-NN-0,"PCP"-text-0-"PCP"-NNP-0|text|274/3;302/3;835/3||
503651854_WGH.txt|MMI|1.57|PGPEP1 gene|C1422070|[gngm]|"PCP"-text-86-"PCP"-NNP-0,"PCP"-text-100-"PCP"-NN-0,"PCP"-text-0-"PCP"-NNP-0|text|274/3;302/3;835/3||
503651854_WGH.txt|MMI|1.57|PRCP gene|C1418873|[gngm]|"PCP"-text-86-"PCP"-NNP-0,"PCP"-text-100-"PCP"-NN-0,"PCP"-text-0-"PCP"-NNP-0|text|274/3;302/3;835/3||
503651854_WGH.txt|MMI|1.57|Phencyclidine measurement|C0202445|[lbpr]|"PCP"-text-86-"PCP"-NNP-0,"PCP"-text-100-"PCP"-NN-0,"PCP"-text-0-"PCP"-NNP-0|text|274/3;302/3;835/3||
503651854_WGH.txt|MMI|1.57|Pneumocystis jiroveci pneumonia|C1535939|[dsyn]|"PCP"-text-86-"PCP"-NNP-0,"PCP"-text-100-"PCP"-NN-0,"PCP"-text-0-"PCP"-NNP-0|text|274/3;302/3;835/3||
503651854_WGH.txt|MMI|1.57|serine-type Pro-X carboxypeptidase activity|C1744653|[moft]|"PCP"-text-86-"PCP"-NNP-0,"PCP"-text-100-"PCP"-NN-0,"PCP"-text-0-"PCP"-NNP-0|text|274/3;302/3;835/3||
503651854_WGH.txt|MMI|1.44|Andorra|C0002838|[geoa]|"AND"-text-0-"and"-CC-0|text|702/3|Z01.542.049|
503651854_WGH.txt|MMI|1.44|History|C0019664|[ocdi]|"History"-text-182-"history"-NN-0|text|519/7|K01.400;Y27|
503651854_WGH.txt|MMI|1.44|Physical Examination|C0031809|[hlca]|"Physical"-text-186-"physical"-JJ-0|text|529/8|E01.370.600|
503651854_WGH.txt|MMI|1.05|Disabled Person Code - Patient|C1578486|[inpr]|"Patient"-text-148-"Patient"-NNP-0,"Patient"-text-2-"Patient"-NNP-0|text|431/7;722/7||
503651854_WGH.txt|MMI|1.05|Follow-Up Information|C4745114|[inpr]|"Follow Up"-text-0-"Follow up"-VB-0,"Follow Up"-text-0-"Follow up"-VB-0|text|637/9;692/9||
503651854_WGH.txt|MMI|1.05|Follow-up status|C0589120|[fndg]|"follow up"-text-0-"Follow up"-VB-0,"follow up"-text-0-"Follow up"-VB-0|text|637/9;692/9||
503651854_WGH.txt|MMI|1.05|Mail Claim Party - Patient|C1578481|[idcn]|"Patient"-text-148-"Patient"-NNP-0,"Patient"-text-2-"Patient"-NNP-0|text|431/7;722/7||
503651854_WGH.txt|MMI|1.05|Modified vaccinia ankara|C5202641|[imft, aapp, phsu]|"MVA"-text-162-"MVA"-NNP-0,"MVA"-text-174-"mva"-NN-0|text|464/3;494/3||
503651854_WGH.txt|MMI|1.05|Motor vehicle accident|C2939181|[phpr]|"MVA"-text-162-"MVA"-NNP-0,"MVA"-text-174-"mva"-NN-0|text|464/3;494/3||
503651854_WGH.txt|MMI|1.05|Regulatory Report|C3273238|[inpr]|"Report"-text-84-"REPORT"-NNP-0,"Report"-text-10-"report"-NN-0|text|267/6;891/6||
503651854_WGH.txt|MMI|1.05|Relationship modifier - Patient|C1578484|[idcn]|"Patient"-text-148-"Patient"-NNP-0,"Patient"-text-2-"Patient"-NNP-0|text|431/7;722/7||
503651854_WGH.txt|MMI|1.05|Report (document)|C0684224|[inpr]|"Report"-text-84-"REPORT"-NNP-0,"Report"-text-10-"report"-NN-0|text|267/6;891/6||
503651854_WGH.txt|MMI|1.05|Report source - Patient|C1578483|[idcn]|"Patient"-text-148-"Patient"-NNP-0,"Patient"-text-2-"Patient"-NNP-0|text|431/7;722/7||
503651854_WGH.txt|MMI|1.05|Report:Finding:Point in time:{Setting}:Document:{Role}|C4255046|[clna]|"Report"-text-84-"REPORT"-NNP-0,"Report"-text-10-"report"-NN-0|text|267/6;891/6||
503651854_WGH.txt|MMI|1.05|Reporting|C0700287|[hlca]|"report"-text-84-"REPORT"-NNP-0,"report"-text-10-"report"-NN-0|text|267/6;891/6||
503651854_WGH.txt|MMI|1.05|Specimen Source Codes - Patient|C1578485|[inpr]|"Patient"-text-148-"Patient"-NNP-0,"Patient"-text-2-"Patient"-NNP-0|text|431/7;722/7||
503651854_WGH.txt|MMI|1.05|Specimen Type - Patient|C1550655|[bdsu]|"Patient"-text-148-"Patient"-NNP-0,"Patient"-text-2-"Patient"-NNP-0|text|431/7;722/7||
503651854_WGH.txt|MMI|1.05|This (eukaryote)|C1080058|[euka]|"This"-text-0-"this"-DT-0,"This"-text-8-"This"-DT-0|text|625/4;886/4||
503651854_WGH.txt|MMI|1.05|Veterinary Patient|C1705908|[orgm]|"Patient"-text-148-"Patient"-NNP-0,"Patient"-text-2-"Patient"-NNP-0|text|431/7;722/7||
503651854_WGH.txt|MMI|1.05|doxorubicin/mitomycin/vinblastine protocol|C0052712|[topp]|"MVA"-text-162-"MVA"-NNP-0,"MVA"-text-174-"mva"-NN-0|text|464/3;494/3||
503651854_WGH.txt|MMI|1.05|follow-up|C1522577|[hlca]|"Follow Up"-text-0-"Follow up"-VB-0,"Follow Up"-text-0-"Follow up"-VB-0|text|637/9;692/9||
503651854_WGH.txt|MMI|1.01|Caucasians|C0043157|[popg]|"White"-text-0-"white"-JJ-0,"White"-text-0-"WHITE"-NNP-0|text|672/5;846/5||
503651854_WGH.txt|MMI|1.01|Data types - Time|C1547403|[idcn]|"Time"-text-116-"Time"-NNP-0,"Time"-text-0-"time"-NN-0|text|345/4;630/4||
503651854_WGH.txt|MMI|1.01|Time (foundation metadata concept)|C3541383|[tmco]|"Time"-text-116-"Time"-NNP-0,"Time"-text-0-"time"-NN-0|text|345/4;630/4||
503651854_WGH.txt|MMI|1.01|Value type - Time|C1548318|[idcn]|"Time"-text-116-"Time"-NNP-0,"Time"-text-0-"time"-NN-0|text|345/4;630/4||
503651854_WGH.txt|MMI|1.01|White color|C0220938|[qlco]|"White"-text-0-"white"-JJ-0,"White"-text-0-"WHITE"-NNP-0|text|672/5;846/5||
503651854_WGH.txt|MMI|0.98|Diagnosis|C0011900|[diap]|"Diagnosis"-text-164-"Diagnosis"-NNP-0|text|468/9|E01;Y04|
503651854_WGH.txt|MMI|0.52|ActInformationPrivacyReason <service>|C3245478|[idcn]|"service"-text-0-"Service"-NNP-0|text|647/7||
503651854_WGH.txt|MMI|0.52|Administration procedure|C1533734|[topp]|"Treatment"-text-176-"Treatment"-NNP-0|text|498/9||
503651854_WGH.txt|MMI|0.52|And|C1515981|[idcn]|"And"-text-0-"and"-CC-0|text|702/3||
503651854_WGH.txt|MMI|0.52|And - dosing instruction fragment|C1706368|[inpr]|"And"-text-0-"and"-CC-0|text|702/3||
503651854_WGH.txt|MMI|0.52|As needed - Extended Priority Codes|C1547581|[inpr]|"As needed"-text-206-"as needed"-IN-0|text|590/9||
503651854_WGH.txt|MMI|0.52|As needed for (qualifier value)|C1720688|[qlco]|"As needed"-text-206-"as needed"-IN-0|text|590/9||
503651854_WGH.txt|MMI|0.52|Assignment - action|C1516050|[ftcn]|"Assigned"-text-104-"Assigned"-VBN-0|text|315/8||
503651854_WGH.txt|MMI|0.52|Benefit|C0814225|[qnco]|"benefits"-text-102-"Benefits"-VBZ-0|text|306/8||
503651854_WGH.txt|MMI|0.52|Biomaterial Treatment|C1705169|[cnce]|"Treatment"-text-176-"Treatment"-NNP-0|text|498/9||
503651854_WGH.txt|MMI|0.52|Bothered by Nausea|C4085862|[inpr]|"Nausea"-text-14-"nausea"-NN-0|text|753/6||
503651854_WGH.txt|MMI|0.52|Chief complaint (finding)|C0277786|[fndg]|"Complaint"-text-152-"Complaint"-NNP-0|text|446/9||
503651854_WGH.txt|MMI|0.52|Complaint:Find:Pt:^Patient:Nom|C3864418|[clna]|"Complaint"-text-152-"Complaint"-NNP-0|text|446/9||
503651854_WGH.txt|MMI|0.52|Concept History|C1705255|[cnce]|"History"-text-182-"history"-NN-0|text|519/7||
503651854_WGH.txt|MMI|0.52|Condition|C0348080|[qlco]|"Condition"-text-138-"Condition"-NNP-0|text|399/9||
503651854_WGH.txt|MMI|0.52|Condition Domain|C4722256|[inpr]|"CONDITION"-text-138-"Condition"-NNP-0|text|399/9||
503651854_WGH.txt|MMI|0.52|Condition:Find:Pt:^Patient:Nom|C3864998|[clna]|"Condition"-text-138-"Condition"-NNP-0|text|399/9||
503651854_WGH.txt|MMI|0.52|Created By|C1707531|[qlco]|"Created By"-text-16-"created by"-VBN-0|text|902/10||
503651854_WGH.txt|MMI|0.52|Data types - Date|C1547350|[idcn]|"Date"-text-58-"DATE"-NNP-0|text|202/4||
503651854_WGH.txt|MMI|0.52|Date in time|C0011008|[tmco]|"Date"-text-58-"DATE"-NNP-0|text|202/4||
503651854_WGH.txt|MMI|0.52|Diagnosis Classification - Diagnosis|C1546899|[clas]|"Diagnosis"-text-164-"Diagnosis"-NNP-0|text|468/9||
503651854_WGH.txt|MMI|0.52|Diagnosis Code|C1550350|[inpr]|"DIAGNOSIS"-text-164-"Diagnosis"-NNP-0|text|468/9||
503651854_WGH.txt|MMI|0.52|Diagnosis Study|C1704656|[resa]|"DIAGNOSIS"-text-164-"Diagnosis"-NNP-0|text|468/9||
503651854_WGH.txt|MMI|0.52|Diagnosis:Impression/interpretation of study:Point in time:^Patient:Nominal|C0945731|[clna]|"Diagnosis"-text-164-"Diagnosis"-NNP-0|text|468/9||
503651854_WGH.txt|MMI|0.52|Diagnostic interview schedule|C0451119|[inpr]|"DIS"-text-18-"DIS"-NNPS-0|text|89/3||
503651854_WGH.txt|MMI|0.52|Discontinued|C1444662|[fndg]|"DIS"-text-18-"DIS"-NNPS-0|text|89/3||
503651854_WGH.txt|MMI|0.52|Exam|C4284036|[ftcn]|"Exam"-text-192-"exam"-NN-0|text|546/4||
503651854_WGH.txt|MMI|0.52|Facilitated oscillatory release technique|C1562169|[topp]|"FOR"-text-12-"for"-IN-0|text|749/3||
503651854_WGH.txt|MMI|0.52|Feel Nausea|C4552889|[inpr]|"Nausea"-text-14-"nausea"-NN-0|text|753/6||
503651854_WGH.txt|MMI|0.52|From|C1517320|[qlco]|"From"-text-0-"from"-IN-0|text|610/4||
503651854_WGH.txt|MMI|0.52|Geographic state|C1301808|[geoa]|"states"-text-150-"States"-NNP-0|text|439/6||
503651854_WGH.txt|MMI|0.52|Have Nausea|C2984057|[inpr]|"Nausea"-text-14-"nausea"-NN-0|text|753/6||
503651854_WGH.txt|MMI|0.52|Headache, CTCAE|C4553197|[fndg]|"Headache"-text-22-"headache"-NN-0|text|773/8||
503651854_WGH.txt|MMI|0.52|Historical aspects qualifier|C0019665|[ftcn]|"history"-text-182-"history"-NN-0|text|519/7||
503651854_WGH.txt|MMI|0.52|History of present illness|C0262512|[fndg]|"history"-text-182-"history"-NN-0|text|519/7||
503651854_WGH.txt|MMI|0.52|History of previous events|C2004062|[fndg]|"History"-text-182-"history"-NN-0|text|519/7||
503651854_WGH.txt|MMI|0.52|How Much Distress Nausea|C4085222|[inpr]|"Nausea"-text-14-"nausea"-NN-0|text|753/6||
503651854_WGH.txt|MMI|0.52|How Much Nausea During This Period|C3829611|[inpr]|"Nausea"-text-14-"nausea"-NN-0|text|753/6||
503651854_WGH.txt|MMI|0.52|How Often Nausea|C4084796|[inpr]|"Nausea"-text-14-"nausea"-NN-0|text|753/6||
503651854_WGH.txt|MMI|0.52|Image Registration|C2697663|[mcha]|"Registration"-text-56-"REGISTRATION"-NN-0|text|189/12||
503651854_WGH.txt|MMI|0.52|In addition to|C0332287|[ftcn]|"With"-text-0-"with"-IN-0|text|663/4||
503651854_WGH.txt|MMI|0.52|Instruction [Publication Type]|C0302828|[inpr]|"instructions"-text-0-"Instructions"-NNS-0|text|706/12||
503651854_WGH.txt|MMI|0.52|Instructions|C1442085|[inpr]|"Instructions"-text-0-"Instructions"-NNS-0|text|706/12||
503651854_WGH.txt|MMI|0.52|Instructions:Text:Point in time:^Patient:Narrative|C3263700|[clna]|"Instructions"-text-0-"Instructions"-NNS-0|text|706/12||
503651854_WGH.txt|MMI|0.52|Logical Condition|C1705253|[cnce]|"Condition"-text-138-"Condition"-NNP-0|text|399/9||
503651854_WGH.txt|MMI|0.52|Medical Examination|C0582103|[hlca]|"Exam"-text-192-"exam"-NN-0|text|546/4||
503651854_WGH.txt|MMI|0.52|Medical History|C0262926|[fndg]|"History"-text-182-"history"-NN-0|text|519/7||
503651854_WGH.txt|MMI|0.52|Medical record number:ID:Pt:^Patient:Nom|C1717139|[clna]|"MRN"-text-44-"MRN"-NNP-0|text|165/3||
503651854_WGH.txt|MMI|0.52|Mental Status Change|C0856054|[mobd]|"mental status changes"-text-34-"mental status changes"-JJ-0|text|793/21||
503651854_WGH.txt|MMI|0.52|Nausea Subscale|C4761315|[inpr]|"Nausea"-text-14-"nausea"-NN-0|text|753/6||
503651854_WGH.txt|MMI|0.52|Nausea Visual Analogue Scale|C4552888|[inpr]|"Nausea"-text-14-"nausea"-NN-0|text|753/6||
503651854_WGH.txt|MMI|0.52|Nausea, CTCAE 3.0|C1963179|[fndg]|"Nausea"-text-14-"nausea"-NN-0|text|753/6||
503651854_WGH.txt|MMI|0.52|Nausea, CTCAE 5.0|C4553767|[fndg]|"Nausea"-text-14-"nausea"-NN-0|text|753/6||
503651854_WGH.txt|MMI|0.52|Nausea:Presence or Threshold:Point in time:^Patient:Ordinal|C4255480|[clna]|"Nausea"-text-14-"nausea"-NN-0|text|753/6||
503651854_WGH.txt|MMI|0.52|Neurology speciality|C0027855|[bmod]|"NEURO"-text-190-"neuro"-JJ-0|text|540/5||
503651854_WGH.txt|MMI|0.52|Notification|C5203316|[inpr]|"Notification"-text-32-"NOTIFICATION"-NNP-0|text|131/12||
503651854_WGH.txt|MMI|0.52|Notifications (procedure)|C0422202|[hlca]|"notification"-text-32-"NOTIFICATION"-NNP-0|text|131/12||
503651854_WGH.txt|MMI|0.52|PRN (schedule frequency)|C1879745|[qlco]|"As Needed"-text-206-"as needed"-IN-0|text|590/9||
503651854_WGH.txt|MMI|0.52|Patient Condition Code - Stable|C1547311|[inpr]|"Stable"-text-146-"Stable"-JJ-0|text|424/6||
503651854_WGH.txt|MMI|0.52|PersonNameUse - assigned|C1552601|[inpr]|"assigned"-text-104-"Assigned"-VBN-0|text|315/8||
503651854_WGH.txt|MMI|0.52|Physical|C0205485|[ftcn]|"Physical"-text-186-"physical"-JJ-0|text|529/8||
503651854_WGH.txt|MMI|0.52|Physical assessment findings|C1509143|[fndg]|"Physical"-text-186-"physical"-JJ-0|text|529/8||
503651854_WGH.txt|MMI|0.52|Physical or Textual Reference to Actual Test or Parameter|C3272557|[inpr]|"Physical"-text-186-"physical"-JJ-0|text|529/8||
503651854_WGH.txt|MMI|0.52|Physical restraint equipment (device)|C0337184|[medd]|"PHYSICAL"-text-186-"physical"-JJ-0|text|529/8||
503651854_WGH.txt|MMI|0.52|Preliminary|C0439611|[tmco]|"Preliminary"-text-82-"PRELIMINARY"-NNP-0|text|255/11||
503651854_WGH.txt|MMI|0.52|Preposition For|C0521125|[qlco]|"For"-text-12-"for"-IN-0|text|749/3||
503651854_WGH.txt|MMI|0.52|Provider|C1138603|[ftcn]|"Provider"-text-74-"Provider"-NNP-0|text|229/8||
503651854_WGH.txt|MMI|0.52|Provider Domain|C4723819|[inpr]|"PROVIDER"-text-74-"Provider"-NNP-0|text|229/8||
503651854_WGH.txt|MMI|0.52|Provider number|C1549739|[idcn]|"Provider number"-text-2-"Provider Number"-NNP-0|text|862/15||
503651854_WGH.txt|MMI|0.52|Registration|C1514821|[hlca]|"Registration"-text-56-"REGISTRATION"-NN-0|text|189/12||
503651854_WGH.txt|MMI|0.52|RelationshipConjunction - and|C1550557|[inpr]|"and"-text-0-"and"-CC-0|text|702/3||
503651854_WGH.txt|MMI|0.52|Report status (finding)|C0586177|[fndg]|"Report status"-text-22-"Report Status"-NNP-0|text|93/13||
503651854_WGH.txt|MMI|0.52|Report status:Type:Point in time:Report:Nominal|C4760061|[clna]|"Report status"-text-22-"Report Status"-NNP-0|text|93/13||
503651854_WGH.txt|MMI|0.52|Return to (contextual qualifier) (qualifier value)|C0332156|[qlco]|"Return"-text-10-"return"-NN-0|text|742/6||
503651854_WGH.txt|MMI|0.52|Services|C0557854|[ocac]|"service"-text-0-"Service"-NNP-0|text|647/7||
503651854_WGH.txt|MMI|0.52|Software Service|C2825316|[mnob]|"Service"-text-0-"Service"-NNP-0|text|647/7||
503651854_WGH.txt|MMI|0.52|Stable status|C0205360|[qlco]|"Stable"-text-146-"Stable"-JJ-0|text|424/6||
503651854_WGH.txt|MMI|0.52|Summary (document)|C1706244|[inpr]|"Summary"-text-36-"SUMMARY"-NNP-0|text|146/7||
503651854_WGH.txt|MMI|0.52|Therapeutic procedure|C0087111|[topp]|"Treatment"-text-176-"Treatment"-NNP-0|text|498/9||
503651854_WGH.txt|MMI|0.52|Transaction counts and value totals - provider|C1555587|[inpr]|"provider"-text-74-"Provider"-NNP-0|text|229/8||
503651854_WGH.txt|MMI|0.52|Treating|C1522326|[ftcn]|"Treatment"-text-176-"Treatment"-NNP-0|text|498/9||
503651854_WGH.txt|MMI|0.52|Treatment Epoch|C3538994|[resa]|"TREATMENT"-text-176-"Treatment"-NNP-0|text|498/9||
503651854_WGH.txt|MMI|0.52|Treatment Study|C3161471|[resa]|"TREATMENT"-text-176-"Treatment"-NNP-0|text|498/9||
503651854_WGH.txt|MMI|0.52|Usual Severity Nausea|C4085661|[inpr]|"Nausea"-text-14-"nausea"-NN-0|text|753/6||
503651854_WGH.txt|MMI|0.52|Value type - Date|C1548309|[idcn]|"Date"-text-58-"DATE"-NNP-0|text|202/4||
503651854_WGH.txt|MMI|0.52|WAS gene|C1421478|[gngm]|"WAS"-text-12-"was"-VBD-0|text|898/3||
503651854_WGH.txt|MMI|0.52|WWOX gene|C1421525|[gngm]|"FOR"-text-12-"for"-IN-0|text|749/3||
503651854_WGH.txt|MMI|0.52|WWOX wt Allele|C4321252|[gngm]|"FOR"-text-12-"for"-IN-0|text|749/3||
503651854_WGH.txt|MMI|0.52|Washoe language|C1555640|[lang]|"WAS"-text-12-"was"-VBD-0|text|898/3||
503651854_WGH.txt|MMI|0.52|With - dosing instruction fragment|C1705690|[inpr]|"With"-text-0-"with"-IN-0|text|663/4||
503651854_WGH.txt|MMI|0.52|as needed - ActPriority|C1555334|[idcn]|"as needed"-text-206-"as needed"-IN-0|text|590/9||
503651854_WGH.txt|MMI|0.52|date allergenic extract|C2740799|[imft, phsu]|"DATE"-text-58-"DATE"-NNP-0|text|202/4||
503651854_WGH.txt|MMI|0.52|diagnosis aspect|C1704338|[ftcn]|"diagnosis"-text-164-"Diagnosis"-NNP-0|text|468/9||
503651854_WGH.txt|MMI|0.52|registration - ActClass|C1553384|[inpr]|"registration"-text-56-"REGISTRATION"-NN-0|text|189/12||
503651854_WGH.txt|MMI|0.52|summary - ActRelationshipSubset|C1552616|[inpr]|"summary"-text-36-"SUMMARY"-NNP-0|text|146/7||
503651854_WGH.txt|MMI|0.52|therapeutic aspects|C0039798|[ftcn]|"treatment"-text-176-"Treatment"-NNP-0|text|498/9||
503651854_WGH.txt|MMI|0.52|treatment - ActInformationManagementReason|C3887704|[hlca]|"treatment"-text-176-"Treatment"-NNP-0|text|498/9||
503651854_WGH.txt|MMI|0.50|Age|C0001779|[orga]|"Age"-text-50-"Age"-NNP-0|text|179/3||
503651854_WGH.txt|MMI|0.50|Age:Time:Point in time:^Patient:Quantitative|C1114365|[clna]|"Age"-text-50-"Age"-NNP-0|text|179/3||
503651854_WGH.txt|MMI|0.50|Authorization Mode - E-mail|C1547562|[idcn]|"E-mail"-text-98-"E-mail"-NNP-0|text|295/6||
503651854_WGH.txt|MMI|0.50|Body Fluid Discharge|C0012621|[bdsu]|"Discharge"-text-30-"DISCHARGE"-NNP-0|text|121/9||
503651854_WGH.txt|MMI|0.50|Bothered by Vomiting|C4084767|[inpr]|"Vomiting"-text-18-"vomiting"-NN-0|text|762/8||
503651854_WGH.txt|MMI|0.50|Concern|C2699424|[idcn]|"Concerns"-text-40-"concerns"-NNS-0|text|824/8||
503651854_WGH.txt|MMI|0.50|Dioscorea trifida|C1018834|[plnt]|"name"-text-0-"Name"-NNP-0|text|839/4||
503651854_WGH.txt|MMI|0.50|Discharge Status:-:Point in time:^Patient:-|C2706057|[clna]|"Discharge Status"-text-132-"Discharge Status"-NNP-0|text|369/16||
503651854_WGH.txt|MMI|0.50|Discharge date|C2361123|[tmco]|"Discharge date"-text-112-"Discharge Date"-NNP-0|text|328/14||
503651854_WGH.txt|MMI|0.50|Discharge date:Time Stamp -- Date and Time:Point in time:^Patient:Quantitative|C2361122|[clna]|"Discharge date"-text-112-"Discharge Date"-NNP-0|text|328/14||
503651854_WGH.txt|MMI|0.50|Discharge status|C0586514|[fndg]|"Discharge status"-text-132-"Discharge Status"-NNP-0|text|369/16||
503651854_WGH.txt|MMI|0.50|Discharge summarization note:Finding:Point in time:{Setting}:Document:{Provider}|C0801840|[clna]|"Discharge summary"-text-14-"Discharge Summary"-NNP-0|text|62/17||
503651854_WGH.txt|MMI|0.50|Discharge summary|C0743221|[inpr]|"Discharge summary"-text-14-"Discharge Summary"-NNP-0|text|62/17||
503651854_WGH.txt|MMI|0.50|Discharge, Body Substance, Sample|C0600083|[bdsu]|"Discharge"-text-30-"DISCHARGE"-NNP-0|text|121/9||
503651854_WGH.txt|MMI|0.50|Discharge, body substance|C2926602|[sosy]|"Discharge"-text-30-"DISCHARGE"-NNP-0|text|121/9||
503651854_WGH.txt|MMI|0.50|E-mail Address|C1705961|[inpr]|"E-mail"-text-98-"E-mail"-NNP-0|text|295/6||
503651854_WGH.txt|MMI|0.50|Have Been Vomiting|C3898969|[inpr]|"Vomiting"-text-18-"vomiting"-NN-0|text|762/8||
503651854_WGH.txt|MMI|0.50|How Much Distress Vomiting|C4084766|[inpr]|"Vomiting"-text-18-"vomiting"-NN-0|text|762/8||
503651854_WGH.txt|MMI|0.50|How Often Felt Normal question|C4553972|[inpr]|"Normal"-text-194-"normal"-JJ-0|text|551/6||
503651854_WGH.txt|MMI|0.50|How Often Vomiting|C4084769|[inpr]|"Vomiting"-text-18-"vomiting"-NN-0|text|762/8||
503651854_WGH.txt|MMI|0.50|MDF Attribute Type - Name|C1554107|[inpr]|"Name"-text-0-"Name"-NNP-0|text|839/4||
503651854_WGH.txt|MMI|0.50|Medication.discharge|C0806915|[fndg]|"Discharge medications"-text-198-"Discharge Medications"-NNP-0|text|558/21||
503651854_WGH.txt|MMI|0.50|Monitor Device|C0181904|[medd]|"Monitor"-text-6-"monitor"-VB-0|text|732/7||
503651854_WGH.txt|MMI|0.50|Monitor brand of insecticide|C0728873|[hops, orch]|"MONITOR"-text-6-"monitor"-VB-0|text|732/7||
503651854_WGH.txt|MMI|0.50|Monitor, occupation|C1521743|[prog]|"Monitor"-text-6-"monitor"-VB-0|text|732/7||
503651854_WGH.txt|MMI|0.50|Monitoring Device|C0596972|[medd]|"Monitor"-text-6-"monitor"-VB-0|text|732/7||
503651854_WGH.txt|MMI|0.50|Name (property) (qualifier value)|C4522128|[qlco]|"Name"-text-0-"Name"-NNP-0|text|839/4||
503651854_WGH.txt|MMI|0.50|Name:Patient number:Point in time:^Patient:Nominal|C2599456|[clna]|"Name"-text-0-"Name"-NNP-0|text|839/4||
503651854_WGH.txt|MMI|0.50|Normal|C0205307|[qlco]|"Normal"-text-194-"normal"-JJ-0|text|551/6||
503651854_WGH.txt|MMI|0.50|Normal Gait|C5200925|[fndg]|"Normal"-text-194-"normal"-JJ-0|text|551/6||
503651854_WGH.txt|MMI|0.50|Normal Immune Presence|C5202633|[fndg]|"Normal"-text-194-"normal"-JJ-0|text|551/6||
503651854_WGH.txt|MMI|0.50|Normal Observation Interpretation|C1550457|[fndg]|"Normal"-text-194-"normal"-JJ-0|text|551/6||
503651854_WGH.txt|MMI|0.50|Normal Reference Range|C2698497|[inpr]|"Normal"-text-194-"normal"-JJ-0|text|551/6||
503651854_WGH.txt|MMI|0.50|Normal assessment finding|C1873497|[fndg]|"Normal"-text-194-"normal"-JJ-0|text|551/6||
503651854_WGH.txt|MMI|0.50|Normal, Unit of Concentration|C1704701|[qnco]|"Normal"-text-194-"normal"-JJ-0|text|551/6||
503651854_WGH.txt|MMI|0.50|On discharge|C1548175|[tmco]|"On discharge"-text-142-"on Discharge"-IN-0|text|409/12||
503651854_WGH.txt|MMI|0.50|Person Name|C1547383|[inpr]|"Name"-text-0-"Name"-NNP-0|text|839/4||
503651854_WGH.txt|MMI|0.50|Preventive monitoring|C0150369|[hlca]|"monitor"-text-6-"monitor"-VB-0|text|732/7||
503651854_WGH.txt|MMI|0.50|Skin appearance normal (finding)|C0558145|[fndg]|"NORMAL"-text-194-"normal"-JJ-0|text|551/6||
503651854_WGH.txt|MMI|0.50|Specimen Source Codes - Discharge|C1546601|[inpr]|"Discharge"-text-30-"DISCHARGE"-NNP-0|text|121/9||
503651854_WGH.txt|MMI|0.50|Usual Severity Vomiting|C4084768|[inpr]|"Vomiting"-text-18-"vomiting"-NN-0|text|762/8||
503651854_WGH.txt|MMI|0.50|Visual|C0234621|[ftcn]|"Visual"-text-26-"visual"-JJ-0|text|784/6||
503651854_WGH.txt|MMI|0.50|Vomiting, CTCAE|C1963281|[fndg]|"Vomiting"-text-18-"vomiting"-NN-0|text|762/8||
503651854_WGH.txt|MMI|0.50|normal Act Status|C1553386|[inpr]|"normal"-text-194-"normal"-JJ-0|text|551/6||
503651854_WGH.txt|MMI|0.50|normal Confidentiality|C1550469|[idcn]|"normal"-text-194-"normal"-JJ-0|text|551/6||
503651854_WGH.txt|MMI|0.50|normal Device Alert Level|C1551394|[fndg]|"Normal"-text-194-"normal"-JJ-0|text|551/6||
503651854_WGH.txt|MMI|0.50|normal Entity Status|C1553406|[qlco]|"normal"-text-194-"normal"-JJ-0|text|551/6||
503651854_WGH.txt|MMI|0.50|normal Managed Participation Status|C1553399|[idcn]|"normal"-text-194-"normal"-JJ-0|text|551/6||
503651854_WGH.txt|MMI|0.50|normal Role Status|C1553402|[idcn]|"normal"-text-194-"normal"-JJ-0|text|551/6||
