745701560_WGH.txt|MMI|22.18|Patient Discharge|C0030685|[hlca]|"Discharge"-text-30-"DISCHARGE"-NNP-0,"Discharged"-text-138-"Discharged"-VBN-0|text|122/9;418/10|N04.590.233.727.210.125;E02.760.169.125;N02.421.585.169.125;E02.760.400.610;N02.421.585.400.610|
745701560_WGH.txt|MMI|16.18|Wiskott-Aldrich Syndrome|C0043194|[dsyn]|"WAS"-text-10-"was"-VBD-0|text|904/3|C20.673.627.900;C15.378.553.546.605.900;C16.320.798.875;C20.673.795.875;C16.320.322.937;C15.378.463.960;C16.320.099.970;C15.378.100.100.970|
745701560_WGH.txt|MMI|12.62|Primary Care Physicians|C0033131|[prog]|"PCP"-text-86-"PCP"-NNP-0,"PCP"-text-100-"PCP"-NN-0,"PCP"-text-0-"PCP"-NNP-0|text|299/3;327/3;838/3|N02.360.810.795;M01.526.485.810.800|
745701560_WGH.txt|MMI|11.24|Pentachlorophenol|C0030855|[hops, orch]|"PCP"-text-86-"PCP"-NNP-0,"PCP"-text-100-"PCP"-NN-0,"PCP"-text-0-"PCP"-NNP-0|text|299/3;327/3;838/3|D02.455.426.559.389.657.190.633|
745701560_WGH.txt|MMI|5.71|Papillary craniopharyngioma|C0431128|[neop]|"PCP"-text-86-"PCP"-NNP-0,"PCP"-text-100-"PCP"-NN-0,"PCP"-text-0-"PCP"-NNP-0|text|299/3;327/3;838/3|x.x.x.x|
745701560_WGH.txt|MMI|5.71|Phencyclidine|C0031381|[orch, phsu]|"PCP"-text-86-"PCP"-NNP-0,"PCP"-text-100-"PCP"-NN-0,"PCP"-text-0-"PCP"-NNP-0|text|299/3;327/3;838/3|D03.383.621.699|
745701560_WGH.txt|MMI|4.65|Email|C0013849|[inpr]|"E-Mail"-text-98-"E-mail"-NNP-0|text|320/6|L01.559.423.906.377.333;L01.178.847.249|
745701560_WGH.txt|MMI|3.81|Date Fruit|C2348077|[food]|"Date"-text-58-"DATE"-NNP-0,"Date"-text-114-"Date"-NNP-0|text|212/4;368/4|x.x.x.x|
745701560_WGH.txt|MMI|2.89|Disease|C0012634|[dsyn]|"DIS"-text-18-"DIS"-NNPS-0,"condition"-text-140-"Condition"-NNP-0|text|90/3;429/9|C23.550.288|
745701560_WGH.txt|MMI|2.34|Name|C0027365|[inpr]|"Name"-text-0-"Name"-NNP-0|text|842/4|L01.559.598.400.556|
745701560_WGH.txt|MMI|1.97|Patients|C0030705|[podg]|"Patient"-text-150-"Patient"-NNP-0,"Patient"-text-20-"Patient"-NNP-0|text|461/7;732/7|M01.643|
745701560_WGH.txt|MMI|1.90|4-azido-7-phenylpyrazolo-(1,5a)-1,3,5-triazine|C0245203|[bacs, orch]|"APPT"-text-158-"APPT"-NNP-0|text|488/4|x.x.x.x|
745701560_WGH.txt|MMI|1.90|Appointments|C0003629|[tmco]|"Appointments"-text-32-"appointments"-NNS-0|text|765/12|x.x.x.x|
745701560_WGH.txt|MMI|1.90|Deafness, Sensorineural, And Male Infertility|C1970187|[dsyn]|"DIS"-text-18-"DIS"-NNPS-0|text|90/3|x.x.x.x|
745701560_WGH.txt|MMI|1.90|WAS protein, human|C1565156|[bacs, aapp]|"WAS"-text-10-"was"-VBD-0|text|904/3|x.x.x.x|
745701560_WGH.txt|MMI|1.57|PCP - Hallucinogen-Related Disorder|C2919094|[mobd]|"PCP"-text-86-"PCP"-NNP-0,"PCP"-text-100-"PCP"-NN-0,"PCP"-text-0-"PCP"-NNP-0|text|299/3;327/3;838/3||
745701560_WGH.txt|MMI|1.57|PGPEP1 gene|C1422070|[gngm]|"PCP"-text-86-"PCP"-NNP-0,"PCP"-text-100-"PCP"-NN-0,"PCP"-text-0-"PCP"-NNP-0|text|299/3;327/3;838/3||
745701560_WGH.txt|MMI|1.57|PRCP gene|C1418873|[gngm]|"PCP"-text-86-"PCP"-NNP-0,"PCP"-text-100-"PCP"-NN-0,"PCP"-text-0-"PCP"-NNP-0|text|299/3;327/3;838/3||
745701560_WGH.txt|MMI|1.57|Phencyclidine measurement|C0202445|[lbpr]|"PCP"-text-86-"PCP"-NNP-0,"PCP"-text-100-"PCP"-NN-0,"PCP"-text-0-"PCP"-NNP-0|text|299/3;327/3;838/3||
745701560_WGH.txt|MMI|1.57|Pneumocystis jiroveci pneumonia|C1535939|[dsyn]|"PCP"-text-86-"PCP"-NNP-0,"PCP"-text-100-"PCP"-NN-0,"PCP"-text-0-"PCP"-NNP-0|text|299/3;327/3;838/3||
745701560_WGH.txt|MMI|1.57|serine-type Pro-X carboxypeptidase activity|C1744653|[moft]|"PCP"-text-86-"PCP"-NNP-0,"PCP"-text-100-"PCP"-NN-0,"PCP"-text-0-"PCP"-NNP-0|text|299/3;327/3;838/3||
745701560_WGH.txt|MMI|1.44|Andorra|C0002838|[geoa]|"AND"-text-14-"and"-CC-0|text|712/3|Z01.542.049|
745701560_WGH.txt|MMI|1.05|Data types - Date|C1547350|[idcn]|"Date"-text-58-"DATE"-NNP-0,"Date"-text-114-"Date"-NNP-0|text|212/4;368/4||
745701560_WGH.txt|MMI|1.05|Date in time|C0011008|[tmco]|"Date"-text-58-"DATE"-NNP-0,"Date"-text-114-"Date"-NNP-0|text|212/4;368/4||
745701560_WGH.txt|MMI|1.05|Disabled Person Code - Patient|C1578486|[inpr]|"Patient"-text-150-"Patient"-NNP-0,"Patient"-text-20-"Patient"-NNP-0|text|461/7;732/7||
745701560_WGH.txt|MMI|1.05|Follow-Up Information|C4745114|[inpr]|"Follow Up"-text-12-"Follow up"-VB-0,"Follow-Up"-text-28-"follow-up"-VB-0|text|702/9;747/9||
745701560_WGH.txt|MMI|1.05|Follow-up status|C0589120|[fndg]|"follow up"-text-12-"Follow up"-VB-0,"Follow-up"-text-28-"follow-up"-VB-0|text|702/9;747/9||
745701560_WGH.txt|MMI|1.05|MICROCEPHALY, EPILEPSY, AND DIABETES SYNDROME|C3280240|[dsyn]|"MEDS"-text-0-"meds"-NNS-1,"MEDS"-text-0-"meds"-NNS-0|text|640/4;816/4||
745701560_WGH.txt|MMI|1.05|Mail Claim Party - Patient|C1578481|[idcn]|"Patient"-text-150-"Patient"-NNP-0,"Patient"-text-20-"Patient"-NNP-0|text|461/7;732/7||
745701560_WGH.txt|MMI|1.05|Medications|C4284232|[inpr]|"MEDS"-text-0-"meds"-NNS-1,"MEDS"-text-0-"meds"-NNS-0|text|640/4;816/4||
745701560_WGH.txt|MMI|1.05|Regulatory Report|C3273238|[inpr]|"Report"-text-84-"REPORT"-NNP-0,"Report"-text-8-"report"-NN-0|text|292/6;897/6||
745701560_WGH.txt|MMI|1.05|Relationship modifier - Patient|C1578484|[idcn]|"Patient"-text-150-"Patient"-NNP-0,"Patient"-text-20-"Patient"-NNP-0|text|461/7;732/7||
745701560_WGH.txt|MMI|1.05|Report (document)|C0684224|[inpr]|"Report"-text-84-"REPORT"-NNP-0,"Report"-text-8-"report"-NN-0|text|292/6;897/6||
745701560_WGH.txt|MMI|1.05|Report source - Patient|C1578483|[idcn]|"Patient"-text-150-"Patient"-NNP-0,"Patient"-text-20-"Patient"-NNP-0|text|461/7;732/7||
745701560_WGH.txt|MMI|1.05|Report:Finding:Point in time:{Setting}:Document:{Role}|C4255046|[clna]|"Report"-text-84-"REPORT"-NNP-0,"Report"-text-8-"report"-NN-0|text|292/6;897/6||
745701560_WGH.txt|MMI|1.05|Reporting|C0700287|[hlca]|"report"-text-84-"REPORT"-NNP-0,"report"-text-8-"report"-NN-0|text|292/6;897/6||
745701560_WGH.txt|MMI|1.05|Specimen Source Codes - Patient|C1578485|[inpr]|"Patient"-text-150-"Patient"-NNP-0,"Patient"-text-20-"Patient"-NNP-0|text|461/7;732/7||
745701560_WGH.txt|MMI|1.05|Specimen Type - Patient|C1550655|[bdsu]|"Patient"-text-150-"Patient"-NNP-0,"Patient"-text-20-"Patient"-NNP-0|text|461/7;732/7||
745701560_WGH.txt|MMI|1.05|Value type - Date|C1548309|[idcn]|"Date"-text-58-"DATE"-NNP-0,"Date"-text-114-"Date"-NNP-0|text|212/4;368/4||
745701560_WGH.txt|MMI|1.05|Veterinary Patient|C1705908|[orgm]|"Patient"-text-150-"Patient"-NNP-0,"Patient"-text-20-"Patient"-NNP-0|text|461/7;732/7||
745701560_WGH.txt|MMI|1.05|date allergenic extract|C2740799|[imft, phsu]|"DATE"-text-58-"DATE"-NNP-0,"DATE"-text-114-"Date"-NNP-0|text|212/4;368/4||
745701560_WGH.txt|MMI|1.05|follow-up|C1522577|[hlca]|"Follow Up"-text-12-"Follow up"-VB-0,"follow-up"-text-28-"follow-up"-VB-0|text|702/9;747/9||
745701560_WGH.txt|MMI|0.98|Anxiety Disorders|C0003469|[mobd]|"Anxiety NOS"-text-170-"Anxiety NOS"-NNP-0|text|535/11|F03.080|
745701560_WGH.txt|MMI|0.98|Diagnosis|C0011900|[diap]|"Diagnosis"-text-164-"Diagnosis"-NNP-0|text|523/9|E01;Y04|
745701560_WGH.txt|MMI|0.96|Time|C0040223|[tmco]|"Time"-text-118-"Time"-NNP-0|text|375/4|G01.910|
745701560_WGH.txt|MMI|0.52|Act Status - new|C1553390|[idcn]|"new"-text-0-"new"-JJ-1|text|636/3||
745701560_WGH.txt|MMI|0.52|Administration procedure|C1533734|[topp]|"Treatment"-text-172-"Treatment"-NNP-0|text|547/9||
745701560_WGH.txt|MMI|0.52|And|C1515981|[idcn]|"And"-text-14-"and"-CC-0|text|712/3||
745701560_WGH.txt|MMI|0.52|And - dosing instruction fragment|C1706368|[inpr]|"And"-text-14-"and"-CC-0|text|712/3||
745701560_WGH.txt|MMI|0.52|Assignment - action|C1516050|[ftcn]|"Assigned"-text-104-"Assigned"-VBN-0|text|340/8||
745701560_WGH.txt|MMI|0.52|Benefit|C0814225|[qnco]|"benefits"-text-102-"Benefits"-VBZ-0|text|331/8||
745701560_WGH.txt|MMI|0.52|Biomaterial Treatment|C1705169|[cnce]|"Treatment"-text-172-"Treatment"-NNP-0|text|547/9||
745701560_WGH.txt|MMI|0.52|Chief complaint (finding)|C0277786|[fndg]|"Complaint"-text-154-"Complaint"-NNP-0|text|476/9||
745701560_WGH.txt|MMI|0.52|Complaint:Find:Pt:^Patient:Nom|C3864418|[clna]|"Complaint"-text-154-"Complaint"-NNP-0|text|476/9||
745701560_WGH.txt|MMI|0.52|Condition|C0348080|[qlco]|"Condition"-text-140-"Condition"-NNP-0|text|429/9||
745701560_WGH.txt|MMI|0.52|Condition Domain|C4722256|[inpr]|"CONDITION"-text-140-"Condition"-NNP-0|text|429/9||
745701560_WGH.txt|MMI|0.52|Condition:Find:Pt:^Patient:Nom|C3864998|[clna]|"Condition"-text-140-"Condition"-NNP-0|text|429/9||
745701560_WGH.txt|MMI|0.52|Continuous|C0549178|[idcn]|"Continuing"-text-0-"Continuing"-VBG-0|text|798/10||
745701560_WGH.txt|MMI|0.52|Created By|C1707531|[qlco]|"Created By"-text-14-"created by"-VBN-0|text|908/10||
745701560_WGH.txt|MMI|0.52|Diagnosis Classification - Diagnosis|C1546899|[clas]|"Diagnosis"-text-164-"Diagnosis"-NNP-0|text|523/9||
745701560_WGH.txt|MMI|0.52|Diagnosis Code|C1550350|[inpr]|"DIAGNOSIS"-text-164-"Diagnosis"-NNP-0|text|523/9||
745701560_WGH.txt|MMI|0.52|Diagnosis Study|C1704656|[resa]|"DIAGNOSIS"-text-164-"Diagnosis"-NNP-0|text|523/9||
745701560_WGH.txt|MMI|0.52|Diagnosis:Impression/interpretation of study:Point in time:^Patient:Nominal|C0945731|[clna]|"Diagnosis"-text-164-"Diagnosis"-NNP-0|text|523/9||
745701560_WGH.txt|MMI|0.52|Diagnostic interview schedule|C0451119|[inpr]|"DIS"-text-18-"DIS"-NNPS-0|text|90/3||
745701560_WGH.txt|MMI|0.52|Discontinued|C1444662|[fndg]|"DIS"-text-18-"DIS"-NNPS-0|text|90/3||
745701560_WGH.txt|MMI|0.52|Facilitated oscillatory release technique|C1562169|[topp]|"FOR"-text-0-"for"-IN-0|text|645/3||
745701560_WGH.txt|MMI|0.52|Geographic state|C1301808|[geoa]|"states"-text-152-"States"-NNP-0|text|469/6||
745701560_WGH.txt|MMI|0.52|Image Registration|C2697663|[mcha]|"Registration"-text-56-"REGISTRATION"-NN-0|text|199/12||
745701560_WGH.txt|MMI|0.52|In addition to|C0332287|[ftcn]|"With"-text-34-"with"-IN-0|text|778/4||
745701560_WGH.txt|MMI|0.52|Instruction [Publication Type]|C0302828|[inpr]|"instructions"-text-16-"Instructions"-NNS-0|text|716/12||
745701560_WGH.txt|MMI|0.52|Instructions|C1442085|[inpr]|"Instructions"-text-16-"Instructions"-NNS-0|text|716/12||
745701560_WGH.txt|MMI|0.52|Instructions:Text:Point in time:^Patient:Narrative|C3263700|[clna]|"Instructions"-text-16-"Instructions"-NNS-0|text|716/12||
745701560_WGH.txt|MMI|0.52|Logical Condition|C1705253|[cnce]|"Condition"-text-140-"Condition"-NNP-0|text|429/9||
745701560_WGH.txt|MMI|0.52|Medical|C0205476|[ftcn]|"Medical"-text-30-"medical"-JJ-0|text|757/7||
745701560_WGH.txt|MMI|0.52|Medical record number:ID:Pt:^Patient:Nom|C1717139|[clna]|"MRN"-text-44-"MRN"-NNP-0|text|175/3||
745701560_WGH.txt|MMI|0.52|Medical referral type|C1561579|[inpr]|"Medical"-text-30-"medical"-JJ-0|text|757/7||
745701560_WGH.txt|MMI|0.52|Medical school type|C1547184|[idcn]|"Medical"-text-30-"medical"-JJ-0|text|757/7||
745701560_WGH.txt|MMI|0.52|Medical service|C0199168|[hlca]|"Medical"-text-30-"medical"-JJ-0|text|757/7||
745701560_WGH.txt|MMI|0.52|New|C0205314|[qlco]|"New"-text-0-"new"-JJ-1|text|636/3||
745701560_WGH.txt|MMI|0.52|New Lesion Identification|C2986548|[diap]|"NEW"-text-0-"new"-JJ-1|text|636/3||
745701560_WGH.txt|MMI|0.52|Newar Language|C4724144|[lang]|"NEW"-text-0-"new"-JJ-1|text|636/3||
745701560_WGH.txt|MMI|0.52|No Effort|C5202819|[fndg]|"None"-text-2-"None"-NN-0|text|677/4||
745701560_WGH.txt|MMI|0.52|No Hand Mobility|C4050154|[inpr]|"None"-text-2-"None"-NN-0|text|677/4||
745701560_WGH.txt|MMI|0.52|No Support Needed|C4050155|[inpr]|"None"-text-2-"None"-NN-0|text|677/4||
745701560_WGH.txt|MMI|0.52|None|C0549184|[fndg]|"None"-text-2-"None"-NN-0|text|677/4||
745701560_WGH.txt|MMI|0.52|None (no infant feeding)|C5200984|[fndg]|"None"-text-2-"None"-NN-0|text|677/4||
745701560_WGH.txt|MMI|0.52|None - Action Taken in Response to the Event|C1556148|[ftcn]|"None"-text-2-"None"-NN-0|text|677/4||
745701560_WGH.txt|MMI|0.52|None - Additive/Preservative|C1556152|[ftcn]|"None"-text-2-"None"-NN-0|text|677/4||
745701560_WGH.txt|MMI|0.52|None - ContainerSeparator|C1551387|[ftcn]|"None"-text-2-"None"-NN-0|text|677/4||
745701560_WGH.txt|MMI|0.52|None - Eligibility Source|C1556147|[idcn]|"None"-text-2-"None"-NN-0|text|677/4||
745701560_WGH.txt|MMI|0.52|None - Language Proficiency|C1556151|[ftcn]|"None"-text-2-"None"-NN-0|text|677/4||
745701560_WGH.txt|MMI|0.52|None - ObservationValue|C1556150|[idcn]|"None"-text-2-"None"-NN-0|text|677/4||
745701560_WGH.txt|MMI|0.52|None - Relationship|C1556146|[idcn]|"None"-text-2-"None"-NN-0|text|677/4||
745701560_WGH.txt|MMI|0.52|None - Sequencing|C1550437|[ftcn]|"None"-text-2-"None"-NN-0|text|677/4||
745701560_WGH.txt|MMI|0.52|None - Specimen Additive|C1550083|[inpr]|"None"-text-2-"None"-NN-0|text|677/4||
745701560_WGH.txt|MMI|0.52|None Device|C1706277|[mnob]|"None"-text-2-"None"-NN-0|text|677/4||
745701560_WGH.txt|MMI|0.52|Notification|C5203316|[inpr]|"Notification"-text-32-"NOTIFICATION"-NNP-0|text|132/12||
745701560_WGH.txt|MMI|0.52|Notifications (procedure)|C0422202|[hlca]|"notification"-text-32-"NOTIFICATION"-NNP-0|text|132/12||
745701560_WGH.txt|MMI|0.52|Now (cigarettes)|C4760243|[mnob]|"Now"-text-0-"now"-RB-0|text|649/3||
745701560_WGH.txt|MMI|0.52|Now (temporal qualifier)|C1948052|[tmco]|"Now"-text-0-"now"-RB-0|text|649/3||
745701560_WGH.txt|MMI|0.52|Now - dosing instruction fragment|C1720566|[inpr]|"Now"-text-0-"now"-RB-0|text|649/3||
745701560_WGH.txt|MMI|0.52|Null Value|C0456148|[qnco]|"None"-text-2-"None"-NN-0|text|677/4||
745701560_WGH.txt|MMI|0.52|Past medication|C1273865|[fndg]|"Past medication"-text-186-"past medication"-IN-0|text|595/15||
745701560_WGH.txt|MMI|0.52|Patient Condition Code - Stable|C1547311|[inpr]|"Stable"-text-148-"Stable"-JJ-0|text|454/6||
745701560_WGH.txt|MMI|0.52|PersonNameUse - assigned|C1552601|[inpr]|"assigned"-text-104-"Assigned"-VBN-0|text|340/8||
745701560_WGH.txt|MMI|0.52|Preliminary|C0439611|[tmco]|"Preliminary"-text-82-"PRELIMINARY"-NNP-0|text|280/11||
745701560_WGH.txt|MMI|0.52|Preposition For|C0521125|[qlco]|"For"-text-0-"for"-IN-0|text|645/3||
745701560_WGH.txt|MMI|0.52|Prescribed|C0278329|[hlca]|"Prescribed"-text-0-"prescribed"-VBD-0|text|825/10||
745701560_WGH.txt|MMI|0.52|Provider|C1138603|[ftcn]|"Provider"-text-74-"Provider"-NNP-0|text|239/8||
745701560_WGH.txt|MMI|0.52|Provider Domain|C4723819|[inpr]|"PROVIDER"-text-74-"Provider"-NNP-0|text|239/8||
745701560_WGH.txt|MMI|0.52|Provider number|C1549739|[idcn]|"Provider number"-text-0-"Provider Number"-NNP-0|text|868/15||
745701560_WGH.txt|MMI|0.52|Psychological assessment|C0204452|[diap]|"Psychological assessment"-text-180-"psychological assessment"-JJ-0|text|568/24||
745701560_WGH.txt|MMI|0.52|Query Status Code - new|C1578513|[fndg]|"new"-text-0-"new"-JJ-1|text|636/3||
745701560_WGH.txt|MMI|0.52|Registration|C1514821|[hlca]|"Registration"-text-56-"REGISTRATION"-NN-0|text|199/12||
745701560_WGH.txt|MMI|0.52|RelationshipConjunction - and|C1550557|[inpr]|"and"-text-14-"and"-CC-0|text|712/3||
745701560_WGH.txt|MMI|0.52|Report status (finding)|C0586177|[fndg]|"Report status"-text-22-"Report Status"-NNP-0|text|94/13||
745701560_WGH.txt|MMI|0.52|Report status:Type:Point in time:Report:Nominal|C4760061|[clna]|"Report status"-text-22-"Report Status"-NNP-0|text|94/13||
745701560_WGH.txt|MMI|0.52|Response process|C0871261|[orga]|"responses"-text-188-"responses"-NNS-0|text|611/9||
745701560_WGH.txt|MMI|0.52|Retained|C0333118|[ftcn]|"Keep"-text-24-"Keep"-VB-0|text|742/4||
745701560_WGH.txt|MMI|0.52|SHE gene|C1822717|[gngm]|"SHE"-text-0-"she"-PRP-0|text|821/3||
745701560_WGH.txt|MMI|0.52|She Chinese|C4761447|[popg]|"SHE"-text-0-"she"-PRP-0|text|821/3||
745701560_WGH.txt|MMI|0.52|Stable status|C0205360|[qlco]|"Stable"-text-148-"Stable"-JJ-0|text|454/6||
745701560_WGH.txt|MMI|0.52|Summary (document)|C1706244|[inpr]|"Summary"-text-36-"SUMMARY"-NNP-0|text|147/7||
745701560_WGH.txt|MMI|0.52|Therapeutic procedure|C0087111|[topp]|"Treatment"-text-172-"Treatment"-NNP-0|text|547/9||
745701560_WGH.txt|MMI|0.52|This (eukaryote)|C1080058|[euka]|"This"-text-6-"This"-DT-0|text|892/4||
745701560_WGH.txt|MMI|0.52|Today|C0310367|[antb, orch]|"Today"-text-4-"today"-NN-0|text|682/5||
745701560_WGH.txt|MMI|0.52|Today (temporal qualifier)|C0750526|[tmco]|"Today"-text-4-"today"-NN-0|text|682/5||
745701560_WGH.txt|MMI|0.52|Total Amyloid Precursor Protein Measurement|C3887695|[lbpr]|"APPT"-text-158-"APPT"-NNP-0|text|488/4||
745701560_WGH.txt|MMI|0.52|Transaction counts and value totals - provider|C1555587|[inpr]|"provider"-text-74-"Provider"-NNP-0|text|239/8||
745701560_WGH.txt|MMI|0.52|Treating|C1522326|[ftcn]|"Treatment"-text-172-"Treatment"-NNP-0|text|547/9||
745701560_WGH.txt|MMI|0.52|Treatment Epoch|C3538994|[resa]|"TREATMENT"-text-172-"Treatment"-NNP-0|text|547/9||
745701560_WGH.txt|MMI|0.52|Treatment Study|C3161471|[resa]|"TREATMENT"-text-172-"Treatment"-NNP-0|text|547/9||
745701560_WGH.txt|MMI|0.52|WAS gene|C1421478|[gngm]|"WAS"-text-10-"was"-VBD-0|text|904/3||
745701560_WGH.txt|MMI|0.52|WWOX gene|C1421525|[gngm]|"FOR"-text-0-"for"-IN-0|text|645/3||
745701560_WGH.txt|MMI|0.52|WWOX wt Allele|C4321252|[gngm]|"FOR"-text-0-"for"-IN-0|text|645/3||
745701560_WGH.txt|MMI|0.52|Washoe language|C1555640|[lang]|"WAS"-text-10-"was"-VBD-0|text|904/3||
745701560_WGH.txt|MMI|0.52|With - dosing instruction fragment|C1705690|[inpr]|"With"-text-34-"with"-IN-0|text|778/4||
745701560_WGH.txt|MMI|0.52|diagnosis aspect|C1704338|[ftcn]|"diagnosis"-text-164-"Diagnosis"-NNP-0|text|523/9||
745701560_WGH.txt|MMI|0.52|none - ResponseLevel|C1547191|[qlco]|"none"-text-2-"None"-NN-0|text|677/4||
745701560_WGH.txt|MMI|0.52|none - SubstanceAdminSubstitution|C1553523|[fndg]|"none"-text-2-"None"-NN-0|text|677/4||
745701560_WGH.txt|MMI|0.52|none - TableRules|C1546509|[qnco]|"none"-text-2-"None"-NN-0|text|677/4||
745701560_WGH.txt|MMI|0.52|registration - ActClass|C1553384|[inpr]|"registration"-text-56-"REGISTRATION"-NN-0|text|199/12||
745701560_WGH.txt|MMI|0.52|summary - ActRelationshipSubset|C1552616|[inpr]|"summary"-text-36-"SUMMARY"-NNP-0|text|147/7||
745701560_WGH.txt|MMI|0.52|therapeutic aspects|C0039798|[ftcn]|"treatment"-text-172-"Treatment"-NNP-0|text|547/9||
745701560_WGH.txt|MMI|0.52|treatment - ActInformationManagementReason|C3887704|[hlca]|"treatment"-text-172-"Treatment"-NNP-0|text|547/9||
745701560_WGH.txt|MMI|0.50|Age|C0001779|[orga]|"Age"-text-50-"Age"-NNP-0|text|189/3||
745701560_WGH.txt|MMI|0.50|Age:Time:Point in time:^Patient:Quantitative|C1114365|[clna]|"Age"-text-50-"Age"-NNP-0|text|189/3||
745701560_WGH.txt|MMI|0.50|Authorization Mode - E-mail|C1547562|[idcn]|"E-mail"-text-98-"E-mail"-NNP-0|text|320/6||
745701560_WGH.txt|MMI|0.50|Body Fluid Discharge|C0012621|[bdsu]|"Discharge"-text-30-"DISCHARGE"-NNP-0|text|122/9||
745701560_WGH.txt|MMI|0.50|Clinical Study Follow-up|C3274571|[hlca]|"FOLLOW-UP"-text-28-"follow-up"-VB-0|text|747/9||
745701560_WGH.txt|MMI|0.50|Data types - Time|C1547403|[idcn]|"Time"-text-118-"Time"-NNP-0|text|375/4||
745701560_WGH.txt|MMI|0.50|Dioscorea trifida|C1018834|[plnt]|"name"-text-0-"Name"-NNP-0|text|842/4||
745701560_WGH.txt|MMI|0.50|Discharge Status:-:Point in time:^Patient:-|C2706057|[clna]|"Discharge Status"-text-134-"Discharge Status"-NNP-0|text|399/16||
745701560_WGH.txt|MMI|0.50|Discharge note|C0552421|[inpr]|"Discharge note"-text-112-"Discharge Note"-NNP-0|text|353/14||
745701560_WGH.txt|MMI|0.50|Discharge status|C0586514|[fndg]|"Discharge status"-text-134-"Discharge Status"-NNP-0|text|399/16||
745701560_WGH.txt|MMI|0.50|Discharge summarization note:Finding:Point in time:{Setting}:Document:{Provider}|C0801840|[clna]|"Discharge summary"-text-14-"Discharge Summary"-NNP-0|text|63/17||
745701560_WGH.txt|MMI|0.50|Discharge summary|C0743221|[inpr]|"Discharge summary"-text-14-"Discharge Summary"-NNP-0|text|63/17||
745701560_WGH.txt|MMI|0.50|Discharge, Body Substance, Sample|C0600083|[bdsu]|"Discharge"-text-30-"DISCHARGE"-NNP-0|text|122/9||
745701560_WGH.txt|MMI|0.50|Discharge, body substance|C2926602|[sosy]|"Discharge"-text-30-"DISCHARGE"-NNP-0|text|122/9||
745701560_WGH.txt|MMI|0.50|E-mail Address|C1705961|[inpr]|"E-mail"-text-98-"E-mail"-NNP-0|text|320/6||
745701560_WGH.txt|MMI|0.50|Follow-Up Report|C1704685|[inpr]|"Follow-Up"-text-28-"follow-up"-VB-0|text|747/9||
745701560_WGH.txt|MMI|0.50|MDF Attribute Type - Name|C1554107|[inpr]|"Name"-text-0-"Name"-NNP-0|text|842/4||
745701560_WGH.txt|MMI|0.50|Medication.discharge|C0806915|[fndg]|"Discharge medications"-text-0-"Discharge Medications"-JJ-1|text|653/21||
745701560_WGH.txt|MMI|0.50|Name (property) (qualifier value)|C4522128|[qlco]|"Name"-text-0-"Name"-NNP-0|text|842/4||
745701560_WGH.txt|MMI|0.50|Name:Patient number:Point in time:^Patient:Nominal|C2599456|[clna]|"Name"-text-0-"Name"-NNP-0|text|842/4||
745701560_WGH.txt|MMI|0.50|On discharge|C1548175|[tmco]|"On discharge"-text-144-"on Discharge"-IN-0|text|439/12||
745701560_WGH.txt|MMI|0.50|Person Name|C1547383|[inpr]|"Name"-text-0-"Name"-NNP-0|text|842/4||
745701560_WGH.txt|MMI|0.50|Specimen Source Codes - Discharge|C1546601|[inpr]|"Discharge"-text-30-"DISCHARGE"-NNP-0|text|122/9||
745701560_WGH.txt|MMI|0.50|Time (foundation metadata concept)|C3541383|[tmco]|"Time"-text-118-"Time"-NNP-0|text|375/4||
745701560_WGH.txt|MMI|0.50|Value type - Time|C1548318|[idcn]|"Time"-text-118-"Time"-NNP-0|text|375/4||
