917989835_RWH.txt|MMI|22.18|Patient Discharge|C0030685|[hlca]|"Discharge"-text-30-"DISCHARGE"-NNP-0,"Discharged"-text-146-"Discharged"-VBN-0|text|122/9;434/10|N04.590.233.727.210.125;E02.760.169.125;N02.421.585.169.125;E02.760.400.610;N02.421.585.400.610|
917989835_RWH.txt|MMI|16.83|Primary Care Physicians|C0033131|[prog]|"PCP"-text-86-"PCP"-NNP-0,"PCP"-text-108-"PCP"-NNP-0,"PCP"-text-0-"PCP"-NNP-0,"PCP"-text-16-"PCP"-NN-0|text|281/3;341/3;731/3;1043/3|N02.360.810.795;M01.526.485.810.800|
917989835_RWH.txt|MMI|16.18|Wiskott-Aldrich Syndrome|C0043194|[dsyn]|"WAS"-text-42-"was"-VBD-0|text|1107/3|C20.673.627.900;C15.378.553.546.605.900;C16.320.798.875;C20.673.795.875;C16.320.322.937;C15.378.463.960;C16.320.099.970;C15.378.100.100.970|
917989835_RWH.txt|MMI|14.99|Pentachlorophenol|C0030855|[hops, orch]|"PCP"-text-86-"PCP"-NNP-0,"PCP"-text-108-"PCP"-NNP-0,"PCP"-text-0-"PCP"-NNP-0,"PCP"-text-16-"PCP"-NN-0|text|281/3;341/3;731/3;1043/3|D02.455.426.559.389.657.190.633|
917989835_RWH.txt|MMI|7.62|Papillary craniopharyngioma|C0431128|[neop]|"PCP"-text-86-"PCP"-NNP-0,"PCP"-text-108-"PCP"-NNP-0,"PCP"-text-0-"PCP"-NNP-0,"PCP"-text-16-"PCP"-NN-0|text|281/3;341/3;731/3;1043/3|x.x.x.x|
917989835_RWH.txt|MMI|7.62|Phencyclidine|C0031381|[orch, phsu]|"PCP"-text-86-"PCP"-NNP-0,"PCP"-text-108-"PCP"-NNP-0,"PCP"-text-0-"PCP"-NNP-0,"PCP"-text-16-"PCP"-NN-0|text|281/3;341/3;731/3;1043/3|D03.383.621.699|
917989835_RWH.txt|MMI|6.51|Answering Service|C1136314|[ocac]|"Answering Service"-text-104-"answering service"-VBG-0|text|320/17|L01.178.847.698.249;N04.590.374.034.500;N05.300.049.500|
917989835_RWH.txt|MMI|3.81|Appointments|C0003629|[tmco]|"Appointment"-text-182-"appointment"-NN-0,"Appointment"-text-10-"appointment"-NN-0|text|578/11;686/11|x.x.x.x|
917989835_RWH.txt|MMI|2.89|Disease|C0012634|[dsyn]|"DIS"-text-18-"DIS"-NNPS-0,"condition"-text-148-"Condition"-NNP-0|text|90/3;445/9|C23.550.288|
917989835_RWH.txt|MMI|2.34|Name|C0027365|[inpr]|"Name"-text-18-"Name"-NN-0|text|1047/4|L01.559.598.400.556|
917989835_RWH.txt|MMI|2.09|PCP - Hallucinogen-Related Disorder|C2919094|[mobd]|"PCP"-text-86-"PCP"-NNP-0,"PCP"-text-108-"PCP"-NNP-0,"PCP"-text-0-"PCP"-NNP-0,"PCP"-text-16-"PCP"-NN-0|text|281/3;341/3;731/3;1043/3||
917989835_RWH.txt|MMI|2.09|PGPEP1 gene|C1422070|[gngm]|"PCP"-text-86-"PCP"-NNP-0,"PCP"-text-108-"PCP"-NNP-0,"PCP"-text-0-"PCP"-NNP-0,"PCP"-text-16-"PCP"-NN-0|text|281/3;341/3;731/3;1043/3||
917989835_RWH.txt|MMI|2.09|PRCP gene|C1418873|[gngm]|"PCP"-text-86-"PCP"-NNP-0,"PCP"-text-108-"PCP"-NNP-0,"PCP"-text-0-"PCP"-NNP-0,"PCP"-text-16-"PCP"-NN-0|text|281/3;341/3;731/3;1043/3||
917989835_RWH.txt|MMI|2.09|Phencyclidine measurement|C0202445|[lbpr]|"PCP"-text-86-"PCP"-NNP-0,"PCP"-text-108-"PCP"-NNP-0,"PCP"-text-0-"PCP"-NNP-0,"PCP"-text-16-"PCP"-NN-0|text|281/3;341/3;731/3;1043/3||
917989835_RWH.txt|MMI|2.09|Pneumocystis jiroveci pneumonia|C1535939|[dsyn]|"PCP"-text-86-"PCP"-NNP-0,"PCP"-text-108-"PCP"-NNP-0,"PCP"-text-0-"PCP"-NNP-0,"PCP"-text-16-"PCP"-NN-0|text|281/3;341/3;731/3;1043/3||
917989835_RWH.txt|MMI|2.09|serine-type Pro-X carboxypeptidase activity|C1744653|[moft]|"PCP"-text-86-"PCP"-NNP-0,"PCP"-text-108-"PCP"-NNP-0,"PCP"-text-0-"PCP"-NNP-0,"PCP"-text-16-"PCP"-NN-0|text|281/3;341/3;731/3;1043/3||
917989835_RWH.txt|MMI|1.90|Date Fruit|C2348077|[food]|"Date"-text-58-"DATE"-NNP-0|text|208/4|x.x.x.x|
917989835_RWH.txt|MMI|1.90|Deafness, Sensorineural, And Male Infertility|C1970187|[dsyn]|"DIS"-text-18-"DIS"-NNPS-0|text|90/3|x.x.x.x|
917989835_RWH.txt|MMI|1.90|Health Care|C0086388|[hlca]|"Health Care"-text-0-"HEALTH CARE"-NNP-0|text|653/11|x.x.x.x|
917989835_RWH.txt|MMI|1.90|Post-Traumatic Stress Disorder|C0038436|[mobd]|"PTSD"-text-11-"PTSD"-NNP-0|text|775/4|F03.950.750.500|
917989835_RWH.txt|MMI|1.90|Symptoms|C1457887|[sosy]|"Symptoms"-text-0-"symptoms"-NNS-0|text|971/8|x.x.x.x|
917989835_RWH.txt|MMI|1.90|WAS protein, human|C1565156|[bacs, aapp]|"WAS"-text-42-"was"-VBD-0|text|1107/3|x.x.x.x|
917989835_RWH.txt|MMI|1.88|Needs|C0027552|[qlco]|"Needs"-text-0-"Needs"-NNS-0|text|713/5|x.x.x.x|
917989835_RWH.txt|MMI|1.44|Outpatients|C0029921|[podg]|"Outpatient"-text-178-"outpatient"-NNP-0|text|556/10|M01.643.630|
917989835_RWH.txt|MMI|1.05|Provider|C1138603|[ftcn]|"Provider"-text-74-"Provider"-NNP-0,"Provider"-text-5-"provider"-NN-0|text|235/8;754/8||
917989835_RWH.txt|MMI|1.05|Provider Domain|C4723819|[inpr]|"PROVIDER"-text-74-"Provider"-NNP-0,"PROVIDER"-text-5-"provider"-NN-0|text|235/8;754/8||
917989835_RWH.txt|MMI|1.05|Regulatory Report|C3273238|[inpr]|"Report"-text-84-"REPORT"-NNP-0,"Report"-text-40-"report"-NN-0|text|274/6;1100/6||
917989835_RWH.txt|MMI|1.05|Report (document)|C0684224|[inpr]|"Report"-text-84-"REPORT"-NNP-0,"Report"-text-40-"report"-NN-0|text|274/6;1100/6||
917989835_RWH.txt|MMI|1.05|Report:Finding:Point in time:{Setting}:Document:{Role}|C4255046|[clna]|"Report"-text-84-"REPORT"-NNP-0,"Report"-text-40-"report"-NN-0|text|274/6;1100/6||
917989835_RWH.txt|MMI|1.05|Reporting|C0700287|[hlca]|"report"-text-84-"REPORT"-NNP-0,"report"-text-40-"report"-NN-0|text|274/6;1100/6||
917989835_RWH.txt|MMI|1.05|Transaction counts and value totals - provider|C1555587|[inpr]|"provider"-text-74-"Provider"-NNP-0,"provider"-text-5-"provider"-NN-0|text|235/8;754/8||
917989835_RWH.txt|MMI|0.98|Diagnosis|C0011900|[diap]|"Diagnosis"-text-7-"Diagnosis"-NNP-0|text|763/9|E01;Y04|
917989835_RWH.txt|MMI|0.98|Patients|C0030705|[podg]|"Patient"-text-158-"Patient"-NNP-0|text|477/7|M01.643|
917989835_RWH.txt|MMI|0.96|Time|C0040223|[tmco]|"Time"-text-126-"Time"-NNP-0|text|391/4|G01.910|
917989835_RWH.txt|MMI|0.52|Address type - Office|C1549636|[idcn]|"Office"-text-110-"office"-NN-0|text|345/6||
917989835_RWH.txt|MMI|0.52|Assignment - action|C1516050|[ftcn]|"Assigned"-text-114-"Assigned"-NNP-0|text|361/8||
917989835_RWH.txt|MMI|0.52|Benefit|C0814225|[qnco]|"benefits"-text-112-"Benefits"-IN-0|text|352/8||
917989835_RWH.txt|MMI|0.52|CDISC SDTM Evaluator Terminology|C2698624|[inpr]|"EVAL"-text-166-"EVAL"-NNP-0|text|504/4||
917989835_RWH.txt|MMI|0.52|CHL1 gene|C1413393|[gngm]|"CALL"-text-6-"call"-VB-0|text|1023/4||
917989835_RWH.txt|MMI|0.52|Call (Instruction)|C1947967|[ftcn]|"Call"-text-6-"call"-VB-0|text|1023/4||
917989835_RWH.txt|MMI|0.52|Call - dosing instruction fragment|C1720420|[inpr]|"Call"-text-6-"call"-VB-0|text|1023/4||
917989835_RWH.txt|MMI|0.52|Chief complaint (finding)|C0277786|[fndg]|"Complaint"-text-162-"Complaint"-NNP-0|text|492/9||
917989835_RWH.txt|MMI|0.52|Communication Contact|C1705415|[idcn]|"Contact"-text-0-"Contact"-NN-0|text|625/7||
917989835_RWH.txt|MMI|0.52|Complaint:Find:Pt:^Patient:Nom|C3864418|[clna]|"Complaint"-text-162-"Complaint"-NNP-0|text|492/9||
917989835_RWH.txt|MMI|0.52|Condition|C0348080|[qlco]|"Condition"-text-148-"Condition"-NNP-0|text|445/9||
917989835_RWH.txt|MMI|0.52|Condition Domain|C4722256|[inpr]|"CONDITION"-text-148-"Condition"-NNP-0|text|445/9||
917989835_RWH.txt|MMI|0.52|Condition:Find:Pt:^Patient:Nom|C3864998|[clna]|"Condition"-text-148-"Condition"-NNP-0|text|445/9||
917989835_RWH.txt|MMI|0.52|Contact - HL7 Attribution|C3245509|[inpr]|"Contact"-text-0-"Contact"-NN-0|text|625/7||
917989835_RWH.txt|MMI|0.52|Contact with|C0332158|[ftcn]|"contact"-text-0-"Contact"-NN-0|text|625/7||
917989835_RWH.txt|MMI|0.52|Continuous|C0549178|[idcn]|"Continue"-text-0-"continue"-VBP-0|text|980/8||
917989835_RWH.txt|MMI|0.52|Created By|C1707531|[qlco]|"Created By"-text-46-"created by"-VBN-0|text|1111/10||
917989835_RWH.txt|MMI|0.52|Data types - Date|C1547350|[idcn]|"Date"-text-58-"DATE"-NNP-0|text|208/4||
917989835_RWH.txt|MMI|0.52|Date in time|C0011008|[tmco]|"Date"-text-58-"DATE"-NNP-0|text|208/4||
917989835_RWH.txt|MMI|0.52|Decision|C0679006|[menp]|"Call"-text-6-"call"-VB-0|text|1023/4||
917989835_RWH.txt|MMI|0.52|Diagnosis Classification - Diagnosis|C1546899|[clas]|"Diagnosis"-text-7-"Diagnosis"-NNP-0|text|763/9||
917989835_RWH.txt|MMI|0.52|Diagnosis Code|C1550350|[inpr]|"DIAGNOSIS"-text-7-"Diagnosis"-NNP-0|text|763/9||
917989835_RWH.txt|MMI|0.52|Diagnosis Study|C1704656|[resa]|"DIAGNOSIS"-text-7-"Diagnosis"-NNP-0|text|763/9||
917989835_RWH.txt|MMI|0.52|Diagnosis:Impression/interpretation of study:Point in time:^Patient:Nominal|C0945731|[clna]|"Diagnosis"-text-7-"Diagnosis"-NNP-0|text|763/9||
917989835_RWH.txt|MMI|0.52|Diagnostic interview schedule|C0451119|[inpr]|"DIS"-text-18-"DIS"-NNPS-0|text|90/3||
917989835_RWH.txt|MMI|0.52|Disabled Person Code - Patient|C1578486|[inpr]|"Patient"-text-158-"Patient"-NNP-0|text|477/7||
917989835_RWH.txt|MMI|0.52|Discontinued|C1444662|[fndg]|"DIS"-text-18-"DIS"-NNPS-0|text|90/3||
917989835_RWH.txt|MMI|0.52|Does speak|C0600116|[fndg]|"speak"-text-0-"speak"-VB-0|text|722/5||
917989835_RWH.txt|MMI|0.52|Evaluator - personnel|C1707957|[prog]|"EVAL"-text-166-"EVAL"-NNP-0|text|504/4||
917989835_RWH.txt|MMI|0.52|Facilitated oscillatory release technique|C1562169|[topp]|"FOR"-text-8-"for"-IN-0|text|682/3||
917989835_RWH.txt|MMI|0.52|Geographic state|C1301808|[geoa]|"states"-text-160-"States"-NNP-0|text|485/6||
917989835_RWH.txt|MMI|0.52|Image Registration|C2697663|[mcha]|"Registration"-text-56-"REGISTRATION"-NN-0|text|195/12||
917989835_RWH.txt|MMI|0.52|In addition to|C0332287|[ftcn]|"With"-text-100-"with"-IN-0|text|315/4||
917989835_RWH.txt|MMI|0.52|Logical Condition|C1705253|[cnce]|"Condition"-text-148-"Condition"-NNP-0|text|445/9||
917989835_RWH.txt|MMI|0.52|Mail Claim Party - Patient|C1578481|[idcn]|"Patient"-text-158-"Patient"-NNP-0|text|477/7||
917989835_RWH.txt|MMI|0.52|Medical record number:ID:Pt:^Patient:Nom|C1717139|[clna]|"MRN"-text-44-"MRN"-NNP-0|text|171/3||
917989835_RWH.txt|MMI|0.52|Message|C0470166|[inpr]|"Message"-text-98-"message"-NN-0|text|307/7||
917989835_RWH.txt|MMI|0.52|Notification|C5203316|[inpr]|"Notification"-text-32-"NOTIFICATION"-NNP-0|text|132/12||
917989835_RWH.txt|MMI|0.52|Notifications (procedure)|C0422202|[hlca]|"notification"-text-32-"NOTIFICATION"-NNP-0|text|132/12||
917989835_RWH.txt|MMI|0.52|Office|C0442603|[mnob]|"Office"-text-110-"office"-NN-0|text|345/6||
917989835_RWH.txt|MMI|0.52|Order (action)|C1705178|[acty]|"Order"-text-0-"order"-NN-0|text|738/5||
917989835_RWH.txt|MMI|0.52|Order (arrangement)|C1705176|[qlco]|"Order"-text-0-"order"-NN-0|text|738/5||
917989835_RWH.txt|MMI|0.52|Order (document)|C1705175|[inpr]|"Order"-text-0-"order"-NN-0|text|738/5||
917989835_RWH.txt|MMI|0.52|Order (record artifact)|C4284072|[inpr]|"Order"-text-0-"order"-NN-0|text|738/5||
917989835_RWH.txt|MMI|0.52|Order (taxonomic)|C1705177|[clas]|"Order"-text-0-"order"-NN-0|text|738/5||
917989835_RWH.txt|MMI|0.52|Order [PK]|C1373200|[npop]|"Order"-text-0-"order"-NN-0|text|738/5||
917989835_RWH.txt|MMI|0.52|Organization unit type - Office|C1547198|[orgt]|"Office"-text-110-"office"-NN-0|text|345/6||
917989835_RWH.txt|MMI|0.52|Patient Class - Outpatient|C1549405|[clas]|"Outpatient"-text-178-"outpatient"-NNP-0|text|556/10||
917989835_RWH.txt|MMI|0.52|Patient Condition Code - Stable|C1547311|[inpr]|"Stable"-text-156-"Stable"-JJ-0|text|470/6||
917989835_RWH.txt|MMI|0.52|Permutation|C1882348|[qlco]|"Order"-text-0-"order"-NN-0|text|738/5||
917989835_RWH.txt|MMI|0.52|PersonNameUse - assigned|C1552601|[inpr]|"assigned"-text-114-"Assigned"-NNP-0|text|361/8||
917989835_RWH.txt|MMI|0.52|Personal Contact|C3812666|[acty]|"Contact"-text-0-"Contact"-NN-0|text|625/7||
917989835_RWH.txt|MMI|0.52|Physical contact|C0392367|[phpr]|"Contact"-text-0-"Contact"-NN-0|text|625/7||
917989835_RWH.txt|MMI|0.52|Preliminary|C0439611|[tmco]|"Preliminary"-text-82-"PRELIMINARY"-NNP-0|text|262/11||
917989835_RWH.txt|MMI|0.52|Preposition For|C0521125|[qlco]|"For"-text-8-"for"-IN-0|text|682/3||
917989835_RWH.txt|MMI|0.52|Provider number|C1549739|[idcn]|"Provider number"-text-32-"Provider Number"-NNP-0|text|1071/15||
917989835_RWH.txt|MMI|0.52|Psychiatry Specialty|C0033873|[bmod]|"Psychiatry"-text-180-"psychiatry"-NN-0|text|567/10||
917989835_RWH.txt|MMI|0.52|Referral category - Outpatient|C1548439|[idcn]|"Outpatient"-text-178-"outpatient"-NNP-0|text|556/10||
917989835_RWH.txt|MMI|0.52|Registration|C1514821|[hlca]|"Registration"-text-56-"REGISTRATION"-NN-0|text|195/12||
917989835_RWH.txt|MMI|0.52|Relationship modifier - Patient|C1578484|[idcn]|"Patient"-text-158-"Patient"-NNP-0|text|477/7||
917989835_RWH.txt|MMI|0.52|Report source - Patient|C1578483|[idcn]|"Patient"-text-158-"Patient"-NNP-0|text|477/7||
917989835_RWH.txt|MMI|0.52|Report status (finding)|C0586177|[fndg]|"Report status"-text-22-"Report Status"-NNP-0|text|94/13||
917989835_RWH.txt|MMI|0.52|Report status:Type:Point in time:Report:Nominal|C4760061|[clna]|"Report status"-text-22-"Report Status"-NNP-0|text|94/13||
917989835_RWH.txt|MMI|0.52|Return to (contextual qualifier) (qualifier value)|C0332156|[qlco]|"Return to"-text-0-"return to"-NN-0|text|1008/9||
917989835_RWH.txt|MMI|0.52|Schedule (document type)|C0086960|[inpr]|"Schedule"-text-176-"Schedule"-NNP-0|text|547/8||
917989835_RWH.txt|MMI|0.52|Schedule of Activities|C4319111|[inpr]|"SoA"-text-26-"SOA"-NNP-0|text|1065/3||
917989835_RWH.txt|MMI|0.52|Sequence of Planned Assessment Schedule|C3889825|[inpr]|"ORDER"-text-0-"order"-NN-0|text|738/5||
917989835_RWH.txt|MMI|0.52|Soa <Lepidopsocidae>|C1898571|[euka]|"Soa"-text-26-"SOA"-NNP-0|text|1065/3||
917989835_RWH.txt|MMI|0.52|Speak - language ability|C1547187|[idcn]|"Speak"-text-0-"speak"-VB-0|text|722/5||
917989835_RWH.txt|MMI|0.52|Speaking (activity)|C0234856|[dora]|"speak"-text-0-"speak"-VB-0|text|722/5||
917989835_RWH.txt|MMI|0.52|Specimen Source Codes - Patient|C1578485|[inpr]|"Patient"-text-158-"Patient"-NNP-0|text|477/7||
917989835_RWH.txt|MMI|0.52|Specimen Type - Patient|C1550655|[bdsu]|"Patient"-text-158-"Patient"-NNP-0|text|477/7||
917989835_RWH.txt|MMI|0.52|Stable status|C0205360|[qlco]|"Stable"-text-156-"Stable"-JJ-0|text|470/6||
917989835_RWH.txt|MMI|0.52|Summary (document)|C1706244|[inpr]|"Summary"-text-36-"SUMMARY"-NNP-0|text|147/7||
917989835_RWH.txt|MMI|0.52|Switch Device|C1707719|[mnob]|"Switch"-text-3-"switch"-VB-0|text|747/6||
917989835_RWH.txt|MMI|0.52|Symptoms aspect|C0683368|[ftcn]|"symptoms"-text-0-"symptoms"-NNS-0|text|971/8||
917989835_RWH.txt|MMI|0.52|Telecommunication Address Use - answering service|C1550703|[idcn]|"answering service"-text-104-"answering service"-VBG-0|text|320/17||
917989835_RWH.txt|MMI|0.52|This (eukaryote)|C1080058|[euka]|"This"-text-38-"This"-DT-0|text|1095/4||
917989835_RWH.txt|MMI|0.52|Value type - Date|C1548309|[idcn]|"Date"-text-58-"DATE"-NNP-0|text|208/4||
917989835_RWH.txt|MMI|0.52|Veterinary Patient|C1705908|[orgm]|"Patient"-text-158-"Patient"-NNP-0|text|477/7||
917989835_RWH.txt|MMI|0.52|WAS gene|C1421478|[gngm]|"WAS"-text-42-"was"-VBD-0|text|1107/3||
917989835_RWH.txt|MMI|0.52|WWOX gene|C1421525|[gngm]|"FOR"-text-8-"for"-IN-0|text|682/3||
917989835_RWH.txt|MMI|0.52|WWOX wt Allele|C4321252|[gngm]|"FOR"-text-8-"for"-IN-0|text|682/3||
917989835_RWH.txt|MMI|0.52|Washoe language|C1555640|[lang]|"WAS"-text-42-"was"-VBD-0|text|1107/3||
917989835_RWH.txt|MMI|0.52|What subject filter - Order|C1546465|[idcn]|"Order"-text-0-"order"-NN-0|text|738/5||
917989835_RWH.txt|MMI|0.52|With - dosing instruction fragment|C1705690|[inpr]|"With"-text-100-"with"-IN-0|text|315/4||
917989835_RWH.txt|MMI|0.52|contact person|C0337611|[popg]|"Contact"-text-0-"Contact"-NN-0|text|625/7||
917989835_RWH.txt|MMI|0.52|date allergenic extract|C2740799|[imft, phsu]|"DATE"-text-58-"DATE"-NNP-0|text|208/4||
917989835_RWH.txt|MMI|0.52|diagnosis aspect|C1704338|[ftcn]|"diagnosis"-text-7-"Diagnosis"-NNP-0|text|763/9||
917989835_RWH.txt|MMI|0.52|registration - ActClass|C1553384|[inpr]|"registration"-text-56-"REGISTRATION"-NN-0|text|195/12||
917989835_RWH.txt|MMI|0.52|summary - ActRelationshipSubset|C1552616|[inpr]|"summary"-text-36-"SUMMARY"-NNP-0|text|147/7||
917989835_RWH.txt|MMI|0.52|therapist|C0871525|[prog]|"therapist"-text-15-"therapist"-NN-0|text|701/9||
917989835_RWH.txt|MMI|0.50|263|C4517671|[qnco]|"263"-text-12-"263"-CD-0|text|1034/3||
917989835_RWH.txt|MMI|0.50|Age|C0001779|[orga]|"Age"-text-50-"Age"-NNP-0|text|185/3||
917989835_RWH.txt|MMI|0.50|Age:Time:Point in time:^Patient:Quantitative|C1114365|[clna]|"Age"-text-50-"Age"-NNP-0|text|185/3||
917989835_RWH.txt|MMI|0.50|Body Fluid Discharge|C0012621|[bdsu]|"Discharge"-text-30-"DISCHARGE"-NNP-0|text|122/9||
917989835_RWH.txt|MMI|0.50|Data types - Time|C1547403|[idcn]|"Time"-text-126-"Time"-NNP-0|text|391/4||
917989835_RWH.txt|MMI|0.50|Dioscorea trifida|C1018834|[plnt]|"name"-text-18-"Name"-NN-0|text|1047/4||
917989835_RWH.txt|MMI|0.50|Discharge Status:-:Point in time:^Patient:-|C2706057|[clna]|"Discharge Status"-text-142-"Discharge Status"-NNP-0|text|415/16||
917989835_RWH.txt|MMI|0.50|Discharge date|C2361123|[tmco]|"Discharge date"-text-122-"Discharge Date"-NNP-0|text|374/14||
917989835_RWH.txt|MMI|0.50|Discharge date:Time Stamp -- Date and Time:Point in time:^Patient:Quantitative|C2361122|[clna]|"Discharge date"-text-122-"Discharge Date"-NNP-0|text|374/14||
917989835_RWH.txt|MMI|0.50|Discharge instructions|C4282220|[inpr]|"Discharge instructions"-text-172-"Discharge Instructions"-NNP-0|text|522/22||
917989835_RWH.txt|MMI|0.50|Discharge instructions:Find:Pt:{Setting}:Doc:{Provider}|C3669312|[clna]|"Discharge instructions"-text-172-"Discharge Instructions"-NNP-0|text|522/22||
917989835_RWH.txt|MMI|0.50|Discharge status|C0586514|[fndg]|"Discharge status"-text-142-"Discharge Status"-NNP-0|text|415/16||
917989835_RWH.txt|MMI|0.50|Discharge summarization note:Finding:Point in time:{Setting}:Document:{Provider}|C0801840|[clna]|"Discharge summary"-text-14-"Discharge Summary"-NNP-0|text|63/17||
917989835_RWH.txt|MMI|0.50|Discharge summary|C0743221|[inpr]|"Discharge summary"-text-14-"Discharge Summary"-NNP-0|text|63/17||
917989835_RWH.txt|MMI|0.50|Discharge, Body Substance, Sample|C0600083|[bdsu]|"Discharge"-text-30-"DISCHARGE"-NNP-0|text|122/9||
917989835_RWH.txt|MMI|0.50|Discharge, body substance|C2926602|[sosy]|"Discharge"-text-30-"DISCHARGE"-NNP-0|text|122/9||
917989835_RWH.txt|MMI|0.50|Left|C0205091|[spco]|"Left"-text-96-"Left"-VBN-0|text|302/4||
917989835_RWH.txt|MMI|0.50|Left sided|C0443246|[spco]|"Left"-text-96-"Left"-VBN-0|text|302/4||
917989835_RWH.txt|MMI|0.50|MDF Attribute Type - Name|C1554107|[inpr]|"Name"-text-18-"Name"-NN-0|text|1047/4||
917989835_RWH.txt|MMI|0.50|Medical center|C0565990|[mnob, hcro]|"Medical center"-text-188-"Medical Center"-NNP-0|text|608/14||
917989835_RWH.txt|MMI|0.50|Medication.discharge|C0806915|[fndg]|"Discharge medications"-text-15-"Discharge Medications"-NNP-0|text|780/21||
917989835_RWH.txt|MMI|0.50|Name (property) (qualifier value)|C4522128|[qlco]|"Name"-text-18-"Name"-NN-0|text|1047/4||
917989835_RWH.txt|MMI|0.50|Name:Patient number:Point in time:^Patient:Nominal|C2599456|[clna]|"Name"-text-18-"Name"-NN-0|text|1047/4||
917989835_RWH.txt|MMI|0.50|On discharge|C1548175|[tmco]|"On discharge"-text-152-"on Discharge"-IN-0|text|455/12||
917989835_RWH.txt|MMI|0.50|Patient need for (contextual qualifier)|C0686904|[ftcn]|"needs"-text-0-"Needs"-NNS-0|text|713/5||
917989835_RWH.txt|MMI|0.50|Person Name|C1547383|[inpr]|"Name"-text-18-"Name"-NN-0|text|1047/4||
917989835_RWH.txt|MMI|0.50|Specimen Source Codes - Discharge|C1546601|[inpr]|"Discharge"-text-30-"DISCHARGE"-NNP-0|text|122/9||
917989835_RWH.txt|MMI|0.50|Table Cell Horizontal Align - left|C1552822|[ftcn]|"left"-text-96-"Left"-VBN-0|text|302/4||
917989835_RWH.txt|MMI|0.50|Time (foundation metadata concept)|C3541383|[tmco]|"Time"-text-126-"Time"-NNP-0|text|391/4||
917989835_RWH.txt|MMI|0.50|Value type - Time|C1548318|[idcn]|"Time"-text-126-"Time"-NNP-0|text|391/4||
