0037.txt|MMI|291.23|Wiskott-Aldrich Syndrome|C0043194|[dsyn]|"WAS"-text-0-"was"-VBD-0,"WAS"-text-0-"was"-VBD-0,"WAS"-text-0-"was"-VBD-0,"WAS"-text-0-"was"-VBD-0,"WAS"-text-0-"was"-VBD-0,"WAS"-text-0-"was"-VBD-0,"WAS"-text-0-"was"-VBD-0,"WAS"-text-6-"was"-VBD-0,"WAS"-text-0-"was"-VBD-0,"WAS"-text-0-"was"-VBD-0,"WAS"-text-0-"was"-VBD-0,"WAS"-text-0-"was"-VBD-0,"WAS"-text-30-"Was"-VBD-0,"WAS"-text-0-"was"-VBD-0,"WAS"-text-0-"was"-VBD-0,"WAS"-text-0-"was"-VBD-0,"WAS"-text-0-"was"-VBD-0,"WAS"-text-6-"was"-VBD-0|text|730/3;748/3;995/3;1089/3;1133/3;1273/3;1583/3;1628/3;1693/3;1783/3;1823/3;1874/3;2451/3;4510/3;4837/3;4934/3;5277/3;5331/3|C20.673.627.900;C15.378.553.546.605.900;C16.320.798.875;C20.673.795.875;C16.320.322.937;C15.378.463.960;C16.320.099.970;C15.378.100.100.970|
0037.txt|MMI|34.29|WAS protein, human|C1565156|[bacs, aapp]|"WAS"-text-0-"was"-VBD-0,"WAS"-text-0-"was"-VBD-0,"WAS"-text-0-"was"-VBD-0,"WAS"-text-0-"was"-VBD-0,"WAS"-text-0-"was"-VBD-0,"WAS"-text-0-"was"-VBD-0,"WAS"-text-0-"was"-VBD-0,"WAS"-text-6-"was"-VBD-0,"WAS"-text-0-"was"-VBD-0,"WAS"-text-0-"was"-VBD-0,"WAS"-text-0-"was"-VBD-0,"WAS"-text-0-"was"-VBD-0,"WAS"-text-30-"Was"-VBD-0,"WAS"-text-0-"was"-VBD-0,"WAS"-text-0-"was"-VBD-0,"WAS"-text-0-"was"-VBD-0,"WAS"-text-0-"was"-VBD-0,"WAS"-text-6-"was"-VBD-0|text|730/3;748/3;995/3;1089/3;1133/3;1273/3;1583/3;1628/3;1693/3;1783/3;1823/3;1874/3;2451/3;4510/3;4837/3;4934/3;5277/3;5331/3|x.x.x.x|
0037.txt|MMI|26.00|Andorra|C0002838|[geoa]|"AND"-text-2-"and"-CC-0,"AND"-text-6-"and"-CC-0,"AND"-text-0-"and"-CC-0,"AND"-text-0-"and"-CC-0,"AND"-text-0-"and"-CC-0,"AND"-text-8-"and"-CC-0,"AND"-text-0-"and"-CC-0,"AND"-text-18-"and"-CC-0,"AND"-text-0-"and"-CC-0,"AND"-text-0-"and"-CC-0,"AND"-text-34-"and"-CC-0,"AND"-text-46-"and"-CC-0,"AND"-text-12-"and"-CC-0,"AND"-text-0-"and"-CC-0,"AND"-text-0-"and"-CC-0,"AND"-text-2-"and"-CC-0,"AND"-text-0-"and"-CC-0,"AND"-text-0-"and"-CC-0|text|868/3;1022/3;1391/3;1904/3;2053/3;2091/3;3500/3;3786/3;4018/3;4222/3;4405/3;4442/3;4558/3;4638/3;4889/3;5057/3;5235/3;5306/3|Z01.542.049|
0037.txt|MMI|23.15|Sick Sinus Syndrome|C0037052|[dsyn]|"SSS"-text-14-"SSS"-NNP-0,"SSS"-text-14-"SSS"-NNP-0|text|1046/3;2203/3|C14.280.123.500.536;C23.550.073.425.440;C14.280.067.093.249;C23.550.073.093.249;C14.280.067.558.536|
0037.txt|MMI|19.40|Chorionic Villi Sampling|C0008509|[diap]|"CVS"-text-0-"CVS"-NNP-0|text|3029/3|E05.200.500.384.100.149;E04.074.149;E01.370.225.998.054.149;E01.370.225.500.384.100.149;E05.242.384.100.149;E05.200.998.054.149;E01.370.388.100.150;E01.370.378.630.150|
0037.txt|MMI|15.26|racepinephrine|C0205758|[orch, phsu]|"Racemic Epinephrine"-text-0-"racemic epinephrine"-JJ-0|text|1884/19|D02.092.063.291.310.500;D02.033.100.291.310.500;D02.092.311.461.825;D02.455.426.559.389.657.166.175.461.825;D02.092.211.215.454.700|
0037.txt|MMI|14.80|methionine|C0025646|[bacs, aapp, phsu]|"Met"-text-6-"met"-VBD-0|text|5068/3|D12.125.166.676;D12.125.154.549;D12.125.142.557;D02.886.030.676;D12.125.166.676;D12.125.154.549;D12.125.142.557;D02.886.030.676|
0037.txt|MMI|12.49|Hereditary Multiple Exostoses|C0015306|[cgab]|"EXT"-text-9-"Ext"-NNP-0|text|3146/3|C05.116.099.708.670.615.325;C04.700.330;C16.320.700.330;C05.116.540.310.500;C04.557.450.565.575.610.615.325|
0037.txt|MMI|11.24|histidine|C0019602|[bacs, aapp, phsu]|"HIS"-text-0-"his"-PRP$-0,"HIS"-text-6-"his"-PRP$-0,"HIS"-text-0-"his"-PRP$-0|text|1144/3;1749/3;4893/3|D12.125.072.329;D12.125.142.308|
0037.txt|MMI|11.09|Patient Discharge|C0030685|[hlca]|"Discharge"-text-2-"Discharge"-NNP-0|text|5527/9|N04.590.233.727.210.125;E02.760.169.125;N02.421.585.169.125;E02.760.400.610;N02.421.585.400.610|
0037.txt|MMI|10.65|Myalgia|C0231528|[sosy]|"MYALGIAS"-text-2-"myalgias"-NNS-0|text|1259/8|C05.651.542;C10.668.491.525;F02.830.816.353.500;C23.888.592.612.547.249;G11.561.790.353.500|
0037.txt|MMI|10.65|morphine|C0026549|[orch, phsu]|"morphine"-text-0-"morphine"-NN-0|text|5292/8|D04.615.723.795.576.571;D03.132.577.249.562.571;D03.605.497.607.587;D03.633.400.686.607.587|
0037.txt|MMI|9.42|And|C1515981|[idcn]|"And"-text-2-"and"-CC-0,"And"-text-6-"and"-CC-0,"And"-text-0-"and"-CC-0,"And"-text-0-"and"-CC-0,"And"-text-0-"and"-CC-0,"And"-text-8-"and"-CC-0,"And"-text-0-"and"-CC-0,"And"-text-18-"and"-CC-0,"And"-text-0-"and"-CC-0,"And"-text-0-"and"-CC-0,"And"-text-34-"and"-CC-0,"And"-text-46-"and"-CC-0,"And"-text-12-"and"-CC-0,"And"-text-0-"and"-CC-0,"And"-text-0-"and"-CC-0,"And"-text-2-"and"-CC-0,"And"-text-0-"and"-CC-0,"And"-text-0-"and"-CC-0|text|868/3;1022/3;1391/3;1904/3;2053/3;2091/3;3500/3;3786/3;4018/3;4222/3;4405/3;4442/3;4558/3;4638/3;4889/3;5057/3;5235/3;5306/3||
0037.txt|MMI|9.42|And - dosing instruction fragment|C1706368|[inpr]|"And"-text-2-"and"-CC-0,"And"-text-6-"and"-CC-0,"And"-text-0-"and"-CC-0,"And"-text-0-"and"-CC-0,"And"-text-0-"and"-CC-0,"And"-text-8-"and"-CC-0,"And"-text-0-"and"-CC-0,"And"-text-18-"and"-CC-0,"And"-text-0-"and"-CC-0,"And"-text-0-"and"-CC-0,"And"-text-34-"and"-CC-0,"And"-text-46-"and"-CC-0,"And"-text-12-"and"-CC-0,"And"-text-0-"and"-CC-0,"And"-text-0-"and"-CC-0,"And"-text-2-"and"-CC-0,"And"-text-0-"and"-CC-0,"And"-text-0-"and"-CC-0|text|868/3;1022/3;1391/3;1904/3;2053/3;2091/3;3500/3;3786/3;4018/3;4222/3;4405/3;4442/3;4558/3;4638/3;4889/3;5057/3;5235/3;5306/3||
0037.txt|MMI|9.42|RelationshipConjunction - and|C1550557|[inpr]|"and"-text-2-"and"-CC-0,"and"-text-6-"and"-CC-0,"and"-text-0-"and"-CC-0,"and"-text-0-"and"-CC-0,"and"-text-0-"and"-CC-0,"and"-text-8-"and"-CC-0,"and"-text-0-"and"-CC-0,"and"-text-18-"and"-CC-0,"and"-text-0-"and"-CC-0,"and"-text-0-"and"-CC-0,"and"-text-34-"and"-CC-0,"and"-text-46-"and"-CC-0,"and"-text-12-"and"-CC-0,"and"-text-0-"and"-CC-0,"and"-text-0-"and"-CC-0,"and"-text-2-"and"-CC-0,"and"-text-0-"and"-CC-0,"and"-text-0-"and"-CC-0|text|868/3;1022/3;1391/3;1904/3;2053/3;2091/3;3500/3;3786/3;4018/3;4222/3;4405/3;4442/3;4558/3;4638/3;4889/3;5057/3;5235/3;5306/3||
0037.txt|MMI|9.42|WAS gene|C1421478|[gngm]|"WAS"-text-0-"was"-VBD-0,"WAS"-text-0-"was"-VBD-0,"WAS"-text-0-"was"-VBD-0,"WAS"-text-0-"was"-VBD-0,"WAS"-text-0-"was"-VBD-0,"WAS"-text-0-"was"-VBD-0,"WAS"-text-0-"was"-VBD-0,"WAS"-text-6-"was"-VBD-0,"WAS"-text-0-"was"-VBD-0,"WAS"-text-0-"was"-VBD-0,"WAS"-text-0-"was"-VBD-0,"WAS"-text-0-"was"-VBD-0,"WAS"-text-30-"Was"-VBD-0,"WAS"-text-0-"was"-VBD-0,"WAS"-text-0-"was"-VBD-0,"WAS"-text-0-"was"-VBD-0,"WAS"-text-0-"was"-VBD-0,"WAS"-text-6-"was"-VBD-0|text|730/3;748/3;995/3;1089/3;1133/3;1273/3;1583/3;1628/3;1693/3;1783/3;1823/3;1874/3;2451/3;4510/3;4837/3;4934/3;5277/3;5331/3||
0037.txt|MMI|9.42|Washoe language|C1555640|[lang]|"WAS"-text-0-"was"-VBD-0,"WAS"-text-0-"was"-VBD-0,"WAS"-text-0-"was"-VBD-0,"WAS"-text-0-"was"-VBD-0,"WAS"-text-0-"was"-VBD-0,"WAS"-text-0-"was"-VBD-0,"WAS"-text-0-"was"-VBD-0,"WAS"-text-6-"was"-VBD-0,"WAS"-text-0-"was"-VBD-0,"WAS"-text-0-"was"-VBD-0,"WAS"-text-0-"was"-VBD-0,"WAS"-text-0-"was"-VBD-0,"WAS"-text-30-"Was"-VBD-0,"WAS"-text-0-"was"-VBD-0,"WAS"-text-0-"was"-VBD-0,"WAS"-text-0-"was"-VBD-0,"WAS"-text-0-"was"-VBD-0,"WAS"-text-6-"was"-VBD-0|text|730/3;748/3;995/3;1089/3;1133/3;1273/3;1583/3;1628/3;1693/3;1783/3;1823/3;1874/3;2451/3;4510/3;4837/3;4934/3;5277/3;5331/3||
0037.txt|MMI|8.81|Truncus Arteriosus, Persistent|C0041207|[cgab]|"PTA"-text-30-"PTA"-NNP-0|text|1376/3|C16.131.240.400.560.098.500;C14.240.400.560.098.500;C14.280.400.560.098.500|
0037.txt|MMI|8.79|Breast Feeding|C0006147|[orgf]|"Nursing"-text-0-"nursing"-NN-0|text|1962/7|F01.145.407.199;G07.203.650.353.199;G07.203.650.220.500.500;G07.203.650.195|
0037.txt|MMI|7.43|Factor XI|C0015522|[bacs, aapp]|"PTA"-text-30-"PTA"-NNP-0|text|1376/3|D08.622.490;D12.776.811.243.490;D12.776.124.125.425;D23.119.425|
0037.txt|MMI|7.43|Tomography, Optical Coherence|C0920367|[diap]|"OCT"-text-0-"Oct"-NNP-0|text|991/3|E05.642.249.500;E01.370.350.589.249.500;E01.370.350.825.805.500|
0037.txt|MMI|7.43|melanoma|C0025202|[neop]|"melanoma"-text-0-"melanoma"-NN-0|text|4213/8|C04.557.580.625.650.510;C04.557.465.625.650.510;C04.557.665.510|
0037.txt|MMI|7.10|Angola|C0003023|[geoa]|"AGO"-text-0-"ago"-IN-0,"AGO"-text-8-"ago"-RB-0,"AGO"-text-43-"ago"-RB-0|text|1074/3;1169/3;2277/3|Z01.058.290.175.095|
0037.txt|MMI|6.97|Blood|C0005767|[bdsu]|"Blood"-text-0-"blood"-NN-0|text|1499/5|A12.207.152;A15.145;Y01.010;Y08.040.020;Y01.010;Y08.040.020|
0037.txt|MMI|6.57|Family|C0015576|[famg]|"Family"-text-4-"family"-NN-0,"Family"-text-0-"family"-NN-0|text|5061/6;5239/6|I01.880.853.150;F01.829.263|
0037.txt|MMI|6.51|Cell Adhesion Molecules|C0007578|[bacs, aapp]|"CAM"-text-0-"CAM"-NNP-0|text|4022/3|D12.776.395.550.200;D12.776.543.550.200;D23.050.301.350|
0037.txt|MMI|6.51|penicillins|C0030842|[antb, orch]|"penicillins"-text-40-"Penicillins"-NNP-0|text|122/11|D03.633.100.300.750;D02.065.589.099.750;D02.886.108.750|
0037.txt|MMI|6.28|In addition to|C0332287|[ftcn]|"With"-text-20-"with"-IN-0,"With"-text-14-"with"-IN-0,"With"-text-0-"with"-IN-0,"With"-text-0-"with"-IN-0,"With"-text-0-"with"-IN-0,"With"-text-0-"with"-IN-0,"With"-text-0-"with"-IN-0,"With"-text-0-"with"-IN-0,"With"-text-22-"with"-IN-0,"With"-text-0-"with"-IN-0,"With"-text-8-"with"-IN-0,"With"-text-10-"with"-IN-0|text|1197/4;1649/4;1837/4;2483/4;2698/4;2721/4;2746/4;2771/4;3947/4;4727/4;5072/4;5345/4||
0037.txt|MMI|6.28|With - dosing instruction fragment|C1705690|[inpr]|"With"-text-20-"with"-IN-0,"With"-text-14-"with"-IN-0,"With"-text-0-"with"-IN-0,"With"-text-0-"with"-IN-0,"With"-text-0-"with"-IN-0,"With"-text-0-"with"-IN-0,"With"-text-0-"with"-IN-0,"With"-text-0-"with"-IN-0,"With"-text-22-"with"-IN-0,"With"-text-0-"with"-IN-0,"With"-text-8-"with"-IN-0,"With"-text-10-"with"-IN-0|text|1197/4;1649/4;1837/4;2483/4;2698/4;2721/4;2746/4;2771/4;3947/4;4727/4;5072/4;5345/4||
0037.txt|MMI|6.05|Salivary Gland Neoplasms|C0036095|[neop]|"Salivary Gland Neoplasms"-text-54-"salivary gland neoplasms"-NN-0|text|4456/24|C07.465.530.824;C07.465.815.718;C04.588.443.591.824|
0037.txt|MMI|6.05|Syncope|C0039070|[sosy]|"Syncope"-text-4-"syncope"-NN-0|text|1014/7|C10.597.606.358.800.600;C23.888.592.604.359.800.600|
0037.txt|MMI|5.59|Pharyngitis|C0031350|[dsyn]|"Sore Throat"-text-0-"sore throat"-JJ-1|text|1245/11|C08.730.561;C01.748.561;C09.775.649;C07.550.781|
0037.txt|MMI|5.59|Thrombospondin 1|C0147139|[bacs, aapp]|"TSP"-text-0-"tsp"-NN-0|text|1492/3|D12.776.543.550.895.800;D12.776.395.550.895.800|
0037.txt|MMI|5.13|Data Compression|C1257972|[mcha]|"Compression"-text-0-"compression"-NN-0|text|4652/11|L01.470.500;L01.224.800.500;L01.224.308.189|
0037.txt|MMI|5.13|Hemoptysis|C0019079|[sosy]|"Hemoptysis"-text-20-"hemoptysis"-NN-0|text|1457/10|C08.381.348;C23.550.414.896;C23.888.852.430|
0037.txt|MMI|5.13|Lymphoma|C0024299|[neop]|"Lymphoma"-text-2-"lymphoma"-NN-0|text|3504/8|C20.683.515.761;C15.604.515.569;C04.557.386|
0037.txt|MMI|4.73|Pathology|C0030664|[bmod]|"Pathology"-text-0-"Pathology"-NNP-0,"Pathology"-text-18-"pathology"-NN-0|text|3834/9;4798/9|H02.403.650;Y02.050|
0037.txt|MMI|4.73|World Health Organization|C0043237|[hcro]|"WHO"-text-0-"who"-WP-0,"WHO"-text-16-"who"-WP-0|text|4956/3;5107/3|N03.540.514.718.800|
0037.txt|MMI|4.67|Nicotiana|C0086707|[plnt]|"Tobacco"-text-0-"tobacco"-NN-0|text|2583/7|B01.650.940.800.575.912.250.908.500.900|
0037.txt|MMI|4.67|Thrombospondins|C0076560|[bacs, aapp]|"TSP"-text-0-"tsp"-NN-0|text|1492/3|D12.776.395.550.895;D12.776.543.550.895|
0037.txt|MMI|4.67|Tobacco|C0040329|[hops, orch]|"Tobacco"-text-0-"tobacco"-NN-0|text|2583/7|B01.650.940.800.575.912.250.908.500.900|
0037.txt|MMI|4.67|chorioallantoic membrane|C0178551|[emst]|"CAM"-text-0-"CAM"-NNP-0|text|4022/3|A13.350.575;A10.615.284.375;A16.331.400|
0037.txt|MMI|4.21|Cerebrovascular accident|C0038454|[dsyn]|"Stroke"-text-0-"stroke"-NN-0|text|2776/6|C14.907.253.855;C10.228.140.300.775|
0037.txt|MMI|4.21|Home Health Aides|C0242797|[prog]|"Home Health Aide"-text-0-"home health aide"-NN-0|text|2527/16|M01.526.485.067.350;N02.360.067.350|
0037.txt|MMI|4.19|Facilitated oscillatory release technique|C1562169|[topp]|"FOR"-text-0-"for"-IN-0,"FOR"-text-12-"for"-IN-0,"FOR"-text-0-"for"-IN-0,"FOR"-text-14-"for"-IN-0,"FOR"-text-2-"for"-IN-0,"FOR"-text-0-"for"-IN-0,"FOR"-text-2-"for"-IN-0,"FOR"-text-14-"for"-IN-0|text|976/3;1042/3;1101/3;2107/3;3740/3;3996/3;4531/3;5000/3||
0037.txt|MMI|4.19|Preposition For|C0521125|[qlco]|"For"-text-0-"for"-IN-0,"For"-text-12-"for"-IN-0,"For"-text-0-"for"-IN-0,"For"-text-14-"for"-IN-0,"For"-text-2-"for"-IN-0,"For"-text-0-"for"-IN-0,"For"-text-2-"for"-IN-0,"For"-text-14-"for"-IN-0|text|976/3;1042/3;1101/3;2107/3;3740/3;3996/3;4531/3;5000/3||
0037.txt|MMI|4.19|WWOX gene|C1421525|[gngm]|"FOR"-text-0-"for"-IN-0,"FOR"-text-12-"for"-IN-0,"FOR"-text-0-"for"-IN-0,"FOR"-text-14-"for"-IN-0,"FOR"-text-2-"for"-IN-0,"FOR"-text-0-"for"-IN-0,"FOR"-text-2-"for"-IN-0,"FOR"-text-14-"for"-IN-0|text|976/3;1042/3;1101/3;2107/3;3740/3;3996/3;4531/3;5000/3||
0037.txt|MMI|4.19|WWOX wt Allele|C4321252|[gngm]|"FOR"-text-0-"for"-IN-0,"FOR"-text-12-"for"-IN-0,"FOR"-text-0-"for"-IN-0,"FOR"-text-14-"for"-IN-0,"FOR"-text-2-"for"-IN-0,"FOR"-text-0-"for"-IN-0,"FOR"-text-2-"for"-IN-0,"FOR"-text-14-"for"-IN-0|text|976/3;1042/3;1101/3;2107/3;3740/3;3996/3;4531/3;5000/3||
0037.txt|MMI|3.81|Chronic multifocal osteomyelitis|C0410422|[dsyn]|"CMO"-text-10-"CMO"-NNP-0,"CMO"-text-4-"CMO"-NNP-0|text|5263/3;5448/3|x.x.x.x|
0037.txt|MMI|3.81|PROGRESSIVE ENCEPHALOMYELITIS WITH RIGIDITY|C1861457|[dsyn]|"PER"-text-0-"Per"-IN-0,"PER"-text-0-"per"-IN-0|text|1384/3;1958/3|x.x.x.x|
0037.txt|MMI|3.81|Peru|C0031238|[geoa]|"PER"-text-0-"Per"-IN-0,"PER"-text-0-"per"-IN-0|text|1384/3;1958/3|Z01.107.757.702|
0037.txt|MMI|3.81|Sister|C0337514|[famg]|"Sister"-text-0-"Sister"-NN-0,"Sister"-text-0-"sister"-NN-0|text|2691/6;2739/6|x.x.x.x|
0037.txt|MMI|3.81|Upper Respiratory Infections|C0041912|[dsyn]|"URI"-text-0-"URI"-NN-0,"URI"-text-18-"URI"-NNP-0|text|1084/3;1193/3|x.x.x.x|
0037.txt|MMI|3.77|Fever|C0015967|[sosy]|"Fever"-text-0-"fever"-NN-1,"Fever"-text-0-"fever"-NN-1|text|1228/5;2047/5|C23.888.119.344|
0037.txt|MMI|3.75|Atrial Fibrillation|C0004238|[dsyn]|"AFib"-text-0-"Afib"-NNP-0|text|2347/4|C23.550.073.198;C14.280.067.198|
0037.txt|MMI|3.75|Coitus|C0009253|[orgf]|"Sex"-text-24-"Sex"-NN-0|text|83/3|G08.686.784.041;F01.145.802.188|
0037.txt|MMI|3.75|Hospice and Palliative Care Nursing|C0557533|[bmod]|"Palliative care"-text-2-"palliative care"-JJ-0|text|5310/15|H02.478.676.350;N02.421.533.390|
0037.txt|MMI|3.29|Antibiotics, Antitubercular|C0003237|[antb]|"Antibiotics"-text-2-"antibiotics"-NNS-0|text|1303/11|D27.505.954.122.085.255.135|
0037.txt|MMI|3.29|Electromagnetic Radiation|C0034519|[npop]|"Radiation"-text-0-"radiation"-NN-0|text|5037/9|G01.750.250;G01.358.500.505|
0037.txt|MMI|3.29|O(6)-Methylguanine-DNA Methyltransferase|C0069197|[enzy, aapp]|"MGMT"-text-6-"mgmt"-NN-0|text|4543/4|D08.811.913.555.500.800.650|
0037.txt|MMI|3.29|Palliative Care|C0030231|[topp]|"Palliative Care"-text-2-"palliative care"-JJ-0|text|5310/15|E02.760.666;N02.421.585.666|
0037.txt|MMI|3.29|histone acetyltransferase|C0062773|[enzy, aapp]|"HAT"-text-0-"hat"-NN-0|text|2624/3|D08.811.913.050.134.415.500|
0037.txt|MMI|3.14|Neoplasms|C0027651|[neop]|"Tumors"-text-14-"tumors"-NNS-0,"Tumor"-text-0-"tumor"-NN-0,"Tumor"-text-0-"tumor"-NN-0,"Tumor"-text-2-"tumor"-NN-0,"Tumor"-text-24-"tumor"-NN-0,"Tumor"-text-40-"tumor"-NN-0|text|797/6;3850/5;4632/5;4761/5;4826/5;5176/5|C04|
0037.txt|MMI|2.95|Lung|C0024109|[bpoc]|"Lung"-text-0-"lung"-NN-0,"Lungs"-text-10-"Lungs"-NNP-0,"pulmonary"-text-12-"pulmonary"-JJ-0|text|2703/4;3061/5;5092/9|A04.411|
0037.txt|MMI|2.95|Patients|C0030705|[podg]|"Patient"-text-0-"patient"-NN-0,"Patient"-text-0-"patient"-NN-0,"Patient"-text-0-"Patient"-NNP-0|text|5049/7;5227/7;5269/7|M01.643|
0037.txt|MMI|2.95|Trachea|C0040578|[bpoc]|"Tracheal"-text-0-"tracheal"-JJ-0,"Trachea"-text-8-"trachea"-NN-0,"Trachea"-text-46-"trachea"-NN-0|text|1944/8;4676/7;5191/7|A04.889|
0037.txt|MMI|2.89|Physical Examination|C0031809|[hlca]|"Physical Exam"-text-0-"Physical Exam"-JJ-0,"Assessment"-text-8-"assessment"-NN-0|text|2785/13;3758/10|E01.370.600|
0037.txt|MMI|2.89|Thyroid Gland|C0040132|[bpoc]|"Thyroid Gland"-text-0-"thyroid gland"-NN-0,"Thyroid"-text-0-"thyroid"-JJ-0|text|2998/13;3423/7|A06.300.900|
0037.txt|MMI|2.83|Metencephalon|C0376353|[bpoc]|"Met"-text-6-"met"-VBD-0|text|5068/3|A08.186.211.132.810.428|
0037.txt|MMI|2.83|ORNITHINE CARBAMOYLTRANSFERASE|C0029279|[enzy, aapp]|"OCT"-text-0-"Oct"-NNP-0|text|991/3|D08.811.913.555.275.600|
0037.txt|MMI|2.83|ethanol|C0001962|[orch, phsu]|"ETOH"-text-0-"etoh"-JJ-0|text|2593/4|D02.033.375;D02.033.375|
0037.txt|MMI|2.83|methamphetamine|C0025611|[hops, orch, phsu]|"Crystal"-text-46-"Crystal"-NNP-0|text|146/7|D02.092.471.683.152.619|
0037.txt|MMI|2.62|Specimen Source Codes - tumor|C1578706|[inpr]|"Tumor"-text-0-"tumor"-NN-0,"Tumor"-text-0-"tumor"-NN-0,"Tumor"-text-2-"tumor"-NN-0,"Tumor"-text-24-"tumor"-NN-0,"Tumor"-text-40-"tumor"-NN-0|text|3850/5;4632/5;4761/5;4826/5;5176/5||
0037.txt|MMI|2.62|Tumor Mass|C3273930|[fndg]|"Tumor"-text-0-"tumor"-NN-0,"Tumor"-text-0-"tumor"-NN-0,"Tumor"-text-2-"tumor"-NN-0,"Tumor"-text-24-"tumor"-NN-0,"Tumor"-text-40-"tumor"-NN-0|text|3850/5;4632/5;4761/5;4826/5;5176/5||
0037.txt|MMI|2.37|Anaplastic thyroid carcinoma|C0238461|[neop]|"Anaplastic thyroid carcinoma"-text-40-"anaplastic thyroid carcinoma"-JJ-0|text|4409/28|C04.557.470.200.725|
0037.txt|MMI|2.37|New England|C0027965|[geoa]|"New England"-text-0-"New England"-NNP-0|text|1712/11|Z01.107.567.875.550|
0037.txt|MMI|2.37|Peptide Nucleic Acids|C0600500|[nnon]|"PNA"-text-0-"pna"-VBD-0|text|1410/3|D13.695.578.424.550|
0037.txt|MMI|2.37|United Arab Emirates|C0041698|[geoa]|"ARE"-text-0-"are"-VBP-0|text|4912/3|Z01.252.245.500.900|
0037.txt|MMI|2.09|FBN1 gene|C1414542|[gngm]|"MASS"-text-0-"mass"-NN-0,"MASS"-text-0-"mass"-NN-0,"MASS"-text-0-"mass"-NN-0,"MASS"-text-0-"mass"-NN-0|text|663/4;832/4;1953/4;3404/4||
0037.txt|MMI|2.09|FBN1 wt Allele|C2700045|[gngm]|"MASS"-text-0-"mass"-NN-0,"MASS"-text-0-"mass"-NN-0,"MASS"-text-0-"mass"-NN-0,"MASS"-text-0-"mass"-NN-0|text|663/4;832/4;1953/4;3404/4||
0037.txt|MMI|2.09|Mass of body region|C0577573|[sosy]|"Mass"-text-0-"mass"-NN-0,"Mass"-text-0-"mass"-NN-0,"Mass"-text-0-"mass"-NN-0,"Mass"-text-0-"mass"-NN-0|text|663/4;832/4;1953/4;3404/4||
0037.txt|MMI|2.09|Mass of body structure|C0577559|[fndg]|"Mass"-text-0-"mass"-NN-0,"Mass"-text-0-"mass"-NN-0,"Mass"-text-0-"mass"-NN-0,"Mass"-text-0-"mass"-NN-0|text|663/4;832/4;1953/4;3404/4||
0037.txt|MMI|2.09|Mass, a measure of quantity of matter|C1306372|[qnco]|"Mass"-text-0-"mass"-NN-0,"Mass"-text-0-"mass"-NN-0,"Mass"-text-0-"mass"-NN-0,"Mass"-text-0-"mass"-NN-0|text|663/4;832/4;1953/4;3404/4||
0037.txt|MMI|2.09|Molecular Mass|C3152252|[qnco]|"Mass"-text-0-"mass"-NN-0,"Mass"-text-0-"mass"-NN-0,"Mass"-text-0-"mass"-NN-0,"Mass"-text-0-"mass"-NN-0|text|663/4;832/4;1953/4;3404/4||
0037.txt|MMI|2.09|Morphology, Attenuation, Size, and Structure Criteria|C4283905|[inpr]|"MASS"-text-0-"mass"-NN-0,"MASS"-text-0-"mass"-NN-0,"MASS"-text-0-"mass"-NN-0,"MASS"-text-0-"mass"-NN-0|text|663/4;832/4;1953/4;3404/4||
0037.txt|MMI|2.09|Specimen Source Codes - Mass|C1546709|[inpr]|"Mass"-text-0-"mass"-NN-0,"Mass"-text-0-"mass"-NN-0,"Mass"-text-0-"mass"-NN-0,"Mass"-text-0-"mass"-NN-0|text|663/4;832/4;1953/4;3404/4||
0037.txt|MMI|1.97|Differential Diagnosis|C0011906|[diap]|"Differential Diagnosis"-text-0-"Differential diagnosis"-JJ-0,"Differential Diagnosis"-text-0-"differential diagnosis"-JJ-0|text|3443/22;4256/22|E01.171|
0037.txt|MMI|1.97|Radiation|C0851346|[npop]|"RAD"-text-0-"Rad"-NNP-0,"Radiation"-text-0-"radiation"-NN-0|text|4946/3;5037/9|G01.750|
0037.txt|MMI|1.97|Thyroid Diseases|C0040128|[dsyn]|"THYROID DISEASE"-text-0-"thyroid disease"-JJ-1,"Thyroid"-text-0-"thyroid"-JJ-0|text|2673/15;3423/7|C19.874|
0037.txt|MMI|1.97|Tracheal Diseases|C0040580|[dsyn]|"Trachea"-text-8-"trachea"-NN-0,"Trachea"-text-46-"trachea"-NN-0|text|4676/7;5191/7|C08.907|
0037.txt|MMI|1.90|ALF protein, human|C1431931|[bacs, aapp]|"ALF"-text-38-"ALF"-NNP-0|text|2471/3|x.x.x.x|
0037.txt|MMI|1.90|Ability|C0085732|[orga]|"Able"-text-0-"Able"-JJ-0|text|2497/4|x.x.x.x|
0037.txt|MMI|1.90|Antibiotics|C0003232|[antb]|"Antibiotics"-text-2-"antibiotics"-NNS-0|text|1303/11|x.x.x.x|
0037.txt|MMI|1.90|Baptist Church|C0337728|[idcn]|"Baptist"-text-0-"Baptist"-NNP-0|text|1724/7|x.x.x.x|
0037.txt|MMI|1.90|Baptists|C0425343|[popg]|"Baptist"-text-0-"Baptist"-NNP-0|text|1724/7|x.x.x.x|
0037.txt|MMI|1.90|Brothers|C0337527|[famg]|"brother"-text-0-"Brother"-NNP-0|text|2713/7|x.x.x.x|
0037.txt|MMI|1.90|CATARACT, MARNER TYPE|C1861821|[dsyn]|"CAM"-text-0-"CAM"-NNP-0|text|4022/3|x.x.x.x|
0037.txt|MMI|1.90|Cancer of Neck|C0746787|[neop]|"Neck Cancer"-text-0-"neck cancer"-NN-0|text|3488/11|x.x.x.x|
0037.txt|MMI|1.90|Carcinoma|C0007097|[neop]|"Carcinomas"-text-16-"carcinomas"-NNS-0|text|4337/10|C04.557.470.200|
0037.txt|MMI|1.90|Carcinoma, Spindle-Cell|C0205697|[neop]|"Sarcomatoid carcinoma"-text-22-"sarcomatoid carcinoma"-JJ-0|text|4350/21|x.x.x.x|
0037.txt|MMI|1.90|Cavernous Hemangioma of Brain|C2919945|[anab]|"CAM"-text-0-"CAM"-NNP-0|text|4022/3|x.x.x.x|
0037.txt|MMI|1.90|Consultation|C0009818|[hlca]|"consulted"-text-8-"consulted"-VBN-0|text|5335/9|x.x.x.x|
0037.txt|MMI|1.90|Costa Rica|C0010182|[geoa]|"CRI"-text-10-"CRI"-NNP-0|text|2195/3|Z01.107.169.238|
0037.txt|MMI|1.90|Gender|C0079399|[orga]|"sex"-text-24-"Sex"-NN-0|text|83/3|x.x.x.x|
0037.txt|MMI|1.90|HAC protocol|C0062074|[topp]|"HAD"-text-0-"had"-VBN-0|text|2043/3|x.x.x.x|
0037.txt|MMI|1.90|Hematopoietic Neoplasms|C0376544|[neop]|"Hematopoietic Neoplasms"-text-0-"hematopoietic neoplasms"-JJ-0|text|4226/23|x.x.x.x|
0037.txt|MMI|1.90|Infantile Neuroaxonal Dystrophy|C0270724|[dsyn]|"PLAN"-text-0-"Plan"-NNP-0|text|971/4|x.x.x.x|
0037.txt|MMI|1.90|KRIT1 protein, human|C0665301|[bacs, aapp]|"CAM"-text-0-"CAM"-NNP-0|text|4022/3|x.x.x.x|
0037.txt|MMI|1.90|Levaquin|C0721336|[orch, phsu]|"Levaquin"-text-20-"levaquin"-NN-0|text|1348/8|x.x.x.x|
0037.txt|MMI|1.90|Negative Surgical Margin|C1709157|[fndg]|"Clear"-text-0-"clear"-JJ-0|text|3113/5|x.x.x.x|
0037.txt|MMI|1.90|Nicotiana tabacum|C0740009|[plnt]|"Tobacco"-text-0-"tobacco"-NN-0|text|2583/7|x.x.x.x|
0037.txt|MMI|1.90|RRAD protein, human|C1505125|[bacs, aapp]|"RAD"-text-0-"Rad"-NNP-0|text|4946/3|x.x.x.x|
0037.txt|MMI|1.90|Sarcoma|C1261473|[neop]|"Sarcoma"-text-8-"sarcoma"-NN-1|text|4314/7|C04.557.450.795|
0037.txt|MMI|1.90|Sore Throat|C0242429|[sosy]|"Sore Throat"-text-0-"sore throat"-JJ-1|text|1245/11|x.x.x.x|
0037.txt|MMI|1.90|Stomach|C0038351|[bpoc]|"Gastric"-text-0-"gastric"-NNP-0|text|2726/7|A03.556.875.875|
0037.txt|MMI|1.90|Stridor|C0038450|[sosy]|"Stridor"-text-20-"stridor"-NN-0|text|3094/7|x.x.x.x|
0037.txt|MMI|1.90|Symptoms|C1457887|[sosy]|"Symptoms"-text-22-"symptoms"-NNS-0|text|1202/8|x.x.x.x|
0037.txt|MMI|1.90|Theses|C0039828|[inpr]|"these"-text-0-"These"-DT-0|text|4186/5|x.x.x.x|
0037.txt|MMI|1.90|Tracheal Extubation|C0553891|[topp]|"Extubated"-text-0-"extubated"-VBN-0|text|4879/9|x.x.x.x|
0037.txt|MMI|1.90|Walkers|C0043016|[medd]|"Walker"-text-0-"walker"-NN-0|text|2488/6|E07.858.442.980|
0037.txt|MMI|1.90|nucleus of the pretectal area|C0175358|[bpoc]|"PTA"-text-30-"PTA"-NNP-0|text|1376/3|x.x.x.x|
0037.txt|MMI|1.90|thyroid (USP)|C0040134|[horm, aapp, phsu]|"THYROID"-text-0-"thyroid"-JJ-0|text|3423/7|D06.472.931.669|
0037.txt|MMI|1.88|antineoplaston A10|C0052080|[orch, phsu]|"A 10"-text-12-"a 10"-DT-0|text|1329/4|x.x.x.x|
0037.txt|MMI|1.57|AKR1B10 gene|C1412323|[gngm]|"HIS"-text-0-"his"-PRP$-0,"HIS"-text-6-"his"-PRP$-0,"HIS"-text-0-"his"-PRP$-0|text|1144/3;1749/3;4893/3||
0037.txt|MMI|1.57|Butting|C0233535|[mobd]|"but"-text-0-"but"-CC-0,"but"-text-2-"but"-CC-1,"but"-text-0-"but"-CC-0|text|744/3;2070/3;4290/3||
0037.txt|MMI|1.57|Disabled Person Code - Patient|C1578486|[inpr]|"Patient"-text-0-"patient"-NN-0,"Patient"-text-0-"patient"-NN-0,"Patient"-text-0-"Patient"-NNP-0|text|5049/7;5227/7;5269/7||
0037.txt|MMI|1.57|FBXW7 gene|C1333533|[gngm]|"AGO"-text-0-"ago"-IN-0,"AGO"-text-8-"ago"-RB-0,"AGO"-text-43-"ago"-RB-0|text|1074/3;1169/3;2277/3||
0037.txt|MMI|1.57|FBXW7 wt Allele|C1704938|[gngm]|"AGO"-text-0-"ago"-IN-0,"AGO"-text-8-"ago"-RB-0,"AGO"-text-43-"ago"-RB-0|text|1074/3;1169/3;2277/3||
0037.txt|MMI|1.57|Have|C3539897|[qlco]|"Has"-text-4-"has"-VBZ-0,"Has"-text-0-"has"-VBZ-0,"Had"-text-0-"had"-VBN-0|text|872/3;2035/3;2043/3||
0037.txt|MMI|1.57|Histidine measurement|C0523697|[lbpr]|"HIS"-text-0-"his"-PRP$-0,"HIS"-text-6-"his"-PRP$-0,"HIS"-text-0-"his"-PRP$-0|text|1144/3;1749/3;4893/3||
0037.txt|MMI|1.57|Mail Claim Party - Patient|C1578481|[idcn]|"Patient"-text-0-"patient"-NN-0,"Patient"-text-0-"patient"-NN-0,"Patient"-text-0-"Patient"-NNP-0|text|5049/7;5227/7;5269/7||
0037.txt|MMI|1.57|Now (cigarettes)|C4760243|[mnob]|"Now"-text-0-"Now"-RB-0,"Now"-text-0-"now"-RB-0,"Now"-text-0-"now"-RB-0|text|945/3;1999/3;4916/3||
0037.txt|MMI|1.57|Now (temporal qualifier)|C1948052|[tmco]|"Now"-text-0-"Now"-RB-0,"Now"-text-0-"now"-RB-0,"Now"-text-0-"now"-RB-0|text|945/3;1999/3;4916/3||
0037.txt|MMI|1.57|Now - dosing instruction fragment|C1720566|[inpr]|"Now"-text-0-"Now"-RB-0,"Now"-text-0-"now"-RB-0,"Now"-text-0-"now"-RB-0|text|945/3;1999/3;4916/3||
0037.txt|MMI|1.57|Numerous|C0439064|[qnco]|"More"-text-0-"more"-RBR-0,"Several"-text-16-"several"-JJ-0,"More"-text-4-"more"-RBR-0|text|2013/4;2111/7;3744/4||
0037.txt|MMI|1.57|PACERR gene|C3890506|[gngm]|"PACER"-text-8-"pacer"-NN-0,"PACER"-text-22-"pacer"-NN-0,"PACER"-text-12-"pacer"-NN-0|text|1026/5;2213/5;2402/5||
0037.txt|MMI|1.57|Post|C0687676|[tmco]|"After"-text-0-"After"-IN-0,"After"-text-0-"After"-IN-0,"After"-text-0-"after"-IN-0|text|4702/5;5201/5;5427/5||
0037.txt|MMI|1.57|RUBCNL gene|C3470541|[gngm]|"PACER"-text-8-"pacer"-NN-0,"PACER"-text-22-"pacer"-NN-0,"PACER"-text-12-"pacer"-NN-0|text|1026/5;2213/5;2402/5||
0037.txt|MMI|1.57|Relationship modifier - Patient|C1578484|[idcn]|"Patient"-text-0-"patient"-NN-0,"Patient"-text-0-"patient"-NN-0,"Patient"-text-0-"Patient"-NNP-0|text|5049/7;5227/7;5269/7||
0037.txt|MMI|1.57|Report (document)|C0684224|[inpr]|"reports"-text-0-"reports"-NNS-0,"reports"-text-4-"reports"-VBZ-0,"Report"-text-17-"Report"-NNP-0|text|602/7;2074/7;5768/6||
0037.txt|MMI|1.57|Report source - Patient|C1578483|[idcn]|"Patient"-text-0-"patient"-NN-0,"Patient"-text-0-"patient"-NN-0,"Patient"-text-0-"Patient"-NNP-0|text|5049/7;5227/7;5269/7||
0037.txt|MMI|1.57|Reporting|C0700287|[hlca]|"reports"-text-0-"reports"-NNS-0,"reports"-text-4-"reports"-VBZ-0,"report"-text-17-"Report"-NNP-0|text|602/7;2074/7;5768/6||
0037.txt|MMI|1.57|Specimen Source Codes - Patient|C1578485|[inpr]|"Patient"-text-0-"patient"-NN-0,"Patient"-text-0-"patient"-NN-0,"Patient"-text-0-"Patient"-NNP-0|text|5049/7;5227/7;5269/7||
0037.txt|MMI|1.57|Specimen Type - Patient|C1550655|[bdsu]|"Patient"-text-0-"patient"-NN-0,"Patient"-text-0-"patient"-NN-0,"Patient"-text-0-"Patient"-NNP-0|text|5049/7;5227/7;5269/7||
0037.txt|MMI|1.57|Status post|C0231290|[tmco]|"After"-text-0-"After"-IN-0,"After"-text-0-"After"-IN-0,"After"-text-0-"after"-IN-0|text|4702/5;5201/5;5427/5||
0037.txt|MMI|1.57|Structure of hippocampal fissure|C0228251|[bsoj]|"his"-text-0-"his"-PRP$-0,"his"-text-6-"his"-PRP$-0,"his"-text-0-"his"-PRP$-0|text|1144/3;1749/3;4893/3||
0037.txt|MMI|1.57|Veterinary Patient|C1705908|[orgm]|"Patient"-text-0-"patient"-NN-0,"Patient"-text-0-"patient"-NN-0,"Patient"-text-0-"Patient"-NNP-0|text|5049/7;5227/7;5269/7||
0037.txt|MMI|1.51|Negation|C1518422|[ftcn]|"Non"-text-2-"non"-FW-0,"Not"-text-0-"not"-RB-0,"Not"-text-0-"not"-RB-0|text|752/3;2039/3;4297/3||
0037.txt|MMI|1.44|Abdomen|C0000726|[blor]|"abd"-text-0-"Abd"-NNP-0|text|3119/3|A01.923.047|
0037.txt|MMI|1.44|Anemia|C0002871|[dsyn]|"Anemia"-text-0-"anemia"-NN-0|text|2340/6|C15.378.071|
0037.txt|MMI|1.44|Chills|C0085593|[sosy]|"Chills"-text-0-"chills"-NNS-1|text|1236/6|C23.888.208|
0037.txt|MMI|1.44|Disease|C0012634|[dsyn]|"condition"-text-4-"Condition"-NNP-0|text|5537/9|C23.550.288|
0037.txt|MMI|1.44|Edema|C0013604|[patf]|"Edema"-text-15-"edema"-NN-1|text|3155/5|C23.888.277|
0037.txt|MMI|1.44|Goiter|C0018021|[dsyn]|"Goiter"-text-8-"Goiter"-NNP-0|text|2188/6|C19.874.283|
0037.txt|MMI|1.44|Hospitals|C0019994|[mnob, hcro]|"Hospital"-text-0-"Hospital"-NNP-0|text|1732/8|N02.278.421|
0037.txt|MMI|1.44|Lymphadenopathy|C0497156|[dsyn]|"Lymphadenopathy"-text-20-"lymphadenopathy"-NN-0|text|3790/15|C15.604.338|
0037.txt|MMI|1.44|Necrosis|C0027540|[ortf]|"Necrotic"-text-22-"necrotic"-JJ-0|text|815/8|C23.550.717|
0037.txt|MMI|1.44|Sex Behavior|C0036864|[bhvr]|"Sex"-text-24-"Sex"-NN-0|text|83/3|F01.145.802|
0037.txt|MMI|1.44|Steroids|C0038317|[orch, phsu]|"Steroids"-text-10-"steroids"-NNS-0|text|1638/8|D04.210.500|
0037.txt|MMI|1.44|sex|C1522384|[orga]|"sex"-text-24-"Sex"-NN-0|text|83/3|G08.686.810|
0037.txt|MMI|1.42|Respiration|C0035203|[phsf]|"Breathing"-text-0-"breathing"-VBG-0|text|2003/9|G09.772.705|
0037.txt|MMI|1.05|Bilateral|C0238767|[spco]|"Bilateral"-text-35-"bilateral"-JJ-0,"Both"-text-0-"both"-DT-0|text|3193/9;4208/4||
0037.txt|MMI|1.05|CDISC SDTM Size Terminology|C1879945|[inpr]|"SIZE"-text-0-"size"-NN-0,"SIZE"-text-0-"size"-NN-0|text|689/4;949/4||
0037.txt|MMI|1.05|Cessation of life|C0011065|[orgf]|"Died"-text-0-"died"-VBD-0,"EXPIRED"-text-0-"Expired"-VBN-0|text|5399/4;5494/7||
0037.txt|MMI|1.05|Clinical Trial Final Report|C3889645|[inpr]|"Reports"-text-0-"reports"-NNS-0,"Reports"-text-4-"reports"-VBZ-0|text|602/7;2074/7||
0037.txt|MMI|1.05|Computed Tomography (CT) of Neck|C0412604|[diap]|"ct neck"-text-0-"CT neck"-NNP-0,"ct neck"-text-0-"CT Neck"-NNP-0|text|1929/7;3260/7||
0037.txt|MMI|1.05|Coverage level - Family|C3244301|[inpr]|"Family"-text-4-"family"-NN-0,"Family"-text-0-"family"-NN-0|text|5061/6;5239/6||
0037.txt|MMI|1.05|Cyst of thyroid|C0162299|[dsyn]|"THYROID CYST"-text-0-"Thyroid cyst"-NNP-0,"THYROID CYST"-text-0-"thyroid cyst"-NN-0|text|1810/12;2162/12||
0037.txt|MMI|1.05|Deferred|C0205421|[tmco]|"Deferred"-text-0-"deferred"-VBN-0,"Deferred"-text-0-"deferred"-VBN-0|text|999/8;1057/8||
0037.txt|MMI|1.05|Differential diagnosis:Finding:Point in time:^Patient:Nominal|C4760371|[clna]|"Differential diagnosis"-text-0-"Differential diagnosis"-JJ-0,"Differential diagnosis"-text-0-"differential diagnosis"-JJ-0|text|3443/22;4256/22||
0037.txt|MMI|1.05|Endotracheal Route of Drug Administration|C1522653|[ftcn]|"ENDOTRACHEAL"-text-0-"endotracheal"-NN-0,"Intratracheal"-text-0-"intratracheal"-JJ-0|text|4607/12;4747/13||
0037.txt|MMI|1.05|Entire trachea|C1278905|[bpoc]|"Trachea"-text-8-"trachea"-NN-0,"Trachea"-text-46-"trachea"-NN-0|text|4676/7;5191/7||
0037.txt|MMI|1.05|Entity Name Part Type - family|C1546847|[idcn]|"family"-text-4-"family"-NN-0,"family"-text-0-"family"-NN-0|text|5061/6;5239/6||
0037.txt|MMI|1.05|Entity Name Part Type - given|C1550718|[idcn]|"given"-text-8-"given"-VBN-0,"given"-text-0-"given"-VBN-0|text|1632/5;1878/5||
0037.txt|MMI|1.05|Excision|C0728940|[topp]|"Removal"-text-0-"removal"-NN-0,"Removal"-text-0-"removal"-NN-0|text|1842/7;4732/7||
0037.txt|MMI|1.05|Extraction|C0185115|[topp]|"REMOVAL"-text-0-"removal"-NN-0,"REMOVAL"-text-0-"removal"-NN-0|text|1842/7;4732/7||
0037.txt|MMI|1.05|Family (taxonomic)|C1704727|[cnce]|"Family"-text-4-"family"-NN-0,"Family"-text-0-"family"-NN-0|text|5061/6;5239/6||
0037.txt|MMI|1.05|Family Collection|C2700055|[clas]|"Family"-text-4-"family"-NN-0,"Family"-text-0-"family"-NN-0|text|5061/6;5239/6||
0037.txt|MMI|1.05|Follow|C4281991|[ftcn]|"Per"-text-0-"Per"-IN-0,"Per"-text-0-"per"-IN-0|text|1384/3;1958/3||
0037.txt|MMI|1.05|GIVEN|C1442162|[ftcn]|"GIVEN"-text-8-"given"-VBN-0,"GIVEN"-text-0-"given"-VBN-0|text|1632/5;1878/5||
0037.txt|MMI|1.05|General surgery specialty|C1274039|[bmod]|"Surgery"-text-0-"surgery"-NN-0,"Surgery"-text-0-"surgery"-NN-0|text|980/7;1105/7||
0037.txt|MMI|1.05|Give - dosing instruction imperative|C1947971|[ftcn]|"Given"-text-8-"given"-VBN-0,"Given"-text-0-"given"-VBN-0|text|1632/5;1878/5||
0037.txt|MMI|1.05|Given name|C3244317|[inpr]|"given"-text-8-"given"-VBN-0,"given"-text-0-"given"-VBN-0|text|1632/5;1878/5||
0037.txt|MMI|1.05|Including (qualifier)|C0332257|[ftcn]|"Includes"-text-0-"includes"-VBZ-0,"Includes"-text-0-"includes"-VBZ-0|text|3466/8;4279/8||
0037.txt|MMI|1.05|Last Name|C1301584|[inpr]|"family"-text-4-"family"-NN-0,"family"-text-0-"family"-NN-0|text|5061/6;5239/6||
0037.txt|MMI|1.05|Level of Care - Surgery|C1547138|[idcn]|"Surgery"-text-0-"surgery"-NN-0,"Surgery"-text-0-"surgery"-NN-0|text|980/7;1105/7||
0037.txt|MMI|1.05|Living Arrangement - Family|C1563343|[idcn]|"Family"-text-4-"family"-NN-0,"Family"-text-0-"family"-NN-0|text|5061/6;5239/6||
0037.txt|MMI|1.05|Mass of neck|C0149736|[fndg]|"NECK MASS"-text-2-"neck mass"-NN-0,"NECK MASS"-text-16-"neck mass"-NN-0|text|634/9;3776/9||
0037.txt|MMI|1.05|Mass of thyroid gland|C0349453|[neop]|"Thyroid mass"-text-18-"thyroid mass"-JJ-0,"Thyroid mass"-text-14-"thyroid mass"-JJ-0|text|4568/12;4687/12||
0037.txt|MMI|1.05|Medical History|C0262926|[fndg]|"Past Medical History"-text-0-"Past Medical History"-NNP-0,"History of"-text-0-"history of"-NN-1|text|2137/20;2572/10||
0037.txt|MMI|1.05|More|C0205172|[qnco]|"More"-text-0-"more"-RBR-0,"More"-text-4-"more"-RBR-0|text|2013/4;3744/4||
0037.txt|MMI|1.05|Multisection:Finding:Point in time:Neck:Narrative:Computerized Tomography|C1527063|[clna]|"CT Neck"-text-0-"CT neck"-NNP-0,"CT Neck"-text-0-"CT Neck"-NNP-0|text|1929/7;3260/7||
0037.txt|MMI|1.05|NR4A2 gene|C1417836|[gngm]|"NOT"-text-0-"not"-RB-0,"NOT"-text-0-"not"-RB-0|text|2039/3;4297/3||
0037.txt|MMI|1.05|Operative Surgical Procedures|C0543467|[topp]|"Surgery"-text-0-"surgery"-NN-0,"Surgery"-text-0-"surgery"-NN-0|text|980/7;1105/7|E04|
0037.txt|MMI|1.05|PER tumor staging notation|C0449201|[blor]|"PER"-text-0-"Per"-IN-0,"PER"-text-0-"per"-IN-0|text|1384/3;1958/3||
0037.txt|MMI|1.05|PER1 gene|C1418464|[gngm]|"PER"-text-0-"Per"-IN-0,"PER"-text-0-"per"-IN-0|text|1384/3;1958/3||
0037.txt|MMI|1.05|PER1 wt Allele|C3273590|[gngm]|"PER"-text-0-"Per"-IN-0,"PER"-text-0-"per"-IN-0|text|1384/3;1958/3||
0037.txt|MMI|1.05|Pathological aspects|C0205469|[ftcn]|"pathology"-text-0-"Pathology"-NNP-0,"pathology"-text-18-"pathology"-NN-0|text|3834/9;4798/9||
0037.txt|MMI|1.05|Pathology procedure|C0919386|[lbpr]|"Pathology"-text-0-"Pathology"-NNP-0,"Pathology"-text-18-"pathology"-NN-0|text|3834/9;4798/9||
0037.txt|MMI|1.05|Pathology processes|C0677042|[patf]|"pathology"-text-0-"Pathology"-NNP-0,"pathology"-text-18-"pathology"-NN-0|text|3834/9;4798/9||
0037.txt|MMI|1.05|Per (qualifier)|C3887962|[qlco]|"Per"-text-0-"Per"-IN-0,"Per"-text-0-"per"-IN-0|text|1384/3;1958/3||
0037.txt|MMI|1.05|Per - dosing instruction fragment|C1704764|[inpr]|"Per"-text-0-"Per"-IN-0,"Per"-text-0-"per"-IN-0|text|1384/3;1958/3||
0037.txt|MMI|1.05|Pharmaceutical Preparations|C0013227|[phsu]|"Medicine"-text-34-"MEDICINE"-NNP-0,"Drugs"-text-0-"drugs"-NNS-0|text|101/8;2600/5|D26|
0037.txt|MMI|1.05|Planned|C1301732|[ftcn]|"Plan"-text-0-"Plan"-NNP-0,"Planned"-text-0-"planned"-VBN-0|text|971/4;1093/7||
0037.txt|MMI|1.05|Prominent|C0205402|[qlco]|"Prominent"-text-0-"prominent"-JJ-0,"Prominent"-text-26-"prominent"-JJ-0|text|3017/9;3954/9||
0037.txt|MMI|1.05|Protocol Deferred|C2347710|[ftcn]|"Deferred"-text-0-"deferred"-VBN-0,"Deferred"-text-0-"deferred"-VBN-0|text|999/8;1057/8||
0037.txt|MMI|1.05|Pulmonary aspiration|C0700198|[patf]|"aspirated"-text-8-"aspirated"-VBN-0,"aspirated"-text-0-"aspirated"-VBN-0|text|881/9;1827/9||
0037.txt|MMI|1.05|Query Priority - Deferred|C1554180|[inpr]|"Deferred"-text-0-"deferred"-VBN-0,"Deferred"-text-0-"deferred"-VBN-0|text|999/8;1057/8||
0037.txt|MMI|1.05|Recent|C0332185|[tmco]|"Recently"-text-20-"recently"-RB-0,"Recently"-text-0-"recently"-RB-0|text|2126/8;2329/8||
0037.txt|MMI|1.05|Recommendation|C0034866|[idcn]|"Recommended"-text-2-"recommended"-VBD-0,"recommendations"-text-12-"recommendations"-NNS-0|text|4960/11;5350/15||
0037.txt|MMI|1.05|Relationship - Sister|C1546515|[cnce]|"Sister"-text-0-"Sister"-NN-0,"Sister"-text-0-"sister"-NN-0|text|2691/6;2739/6||
0037.txt|MMI|1.05|Removing (action)|C1883720|[acty]|"Removal"-text-0-"removal"-NN-0,"Removal"-text-0-"removal"-NN-0|text|1842/7;4732/7||
0037.txt|MMI|1.05|SSS|C0723181|[phsu]|"SSS"-text-14-"SSS"-NNP-0,"SSS"-text-14-"SSS"-NNP-0|text|1046/3;2203/3||
0037.txt|MMI|1.05|Sister - courtesy title|C1704647|[cnce]|"Sister"-text-0-"Sister"-NN-0,"Sister"-text-0-"sister"-NN-0|text|2691/6;2739/6||
0037.txt|MMI|1.05|Surgery specialty|C0038894|[bmod]|"Surgery"-text-0-"surgery"-NN-0,"Surgery"-text-0-"surgery"-NN-0|text|980/7;1105/7||
0037.txt|MMI|1.05|Surgical aspects|C0038895|[ftcn]|"surgery"-text-0-"surgery"-NN-0,"surgery"-text-0-"surgery"-NN-0|text|980/7;1105/7||
0037.txt|MMI|1.05|Surgical transfer - action|C0348011|[ftcn]|"transferred"-text-0-"transferred"-VBN-0,"Transfer"-text-4-"transfer"-NN-0|text|4514/11;4972/8||
0037.txt|MMI|1.05|Team|C0871489|[grup]|"Team"-text-26-"team"-NN-0,"Team"-text-14-"team"-NN-0|text|4591/4;5102/4||
0037.txt|MMI|1.05|Trachea (moth)|C3146235|[euka]|"Trachea"-text-8-"trachea"-NN-0,"Trachea"-text-46-"trachea"-NN-0|text|4676/7;5191/7||
0037.txt|MMI|1.05|Transfer Technique|C1705822|[ftcn]|"Transferred"-text-0-"transferred"-VBN-0,"Transfer"-text-4-"transfer"-NN-0|text|4514/11;4972/8||
0037.txt|MMI|1.05|URI1 gene|C1421895|[gngm]|"URI"-text-0-"URI"-NN-0,"URI"-text-18-"URI"-NNP-0|text|1084/3;1193/3||
0037.txt|MMI|1.05|URI1 wt Allele|C3272713|[gngm]|"URI"-text-0-"URI"-NN-0,"URI"-text-18-"URI"-NNP-0|text|1084/3;1193/3||
0037.txt|MMI|1.05|Undifferentiated|C0205618|[qlco]|"Anaplastic"-text-12-"anaplastic"-JJ-0,"Anaplastic"-text-22-"anaplastic"-JJ-0|text|786/10;4815/10||
0037.txt|MMI|1.05|Uniform Resource Identifier|C1548524|[inpr]|"URI"-text-0-"URI"-NN-0,"URI"-text-18-"URI"-NNP-0|text|1084/3;1193/3||
0037.txt|MMI|1.05|WHO Temperature/Humidity Storage Condition|C3272598|[qlco]|"WHO"-text-0-"who"-WP-0,"WHO"-text-16-"who"-WP-0|text|4956/3;5107/3||
0037.txt|MMI|1.05|deferred - ResponseMode|C1697785|[ftcn]|"deferred"-text-0-"deferred"-VBN-0,"deferred"-text-0-"deferred"-VBN-0|text|999/8;1057/8||
0037.txt|MMI|1.05|removal technique|C0015252|[topp]|"Removal"-text-0-"removal"-NN-0,"Removal"-text-0-"removal"-NN-0|text|1842/7;4732/7||
0037.txt|MMI|1.05|seen|C0205397|[qlco]|"seen"-text-0-"seen"-VBN-0,"seen"-text-0-"seen"-VBN-0|text|1597/4;4938/4||
0037.txt|MMI|1.05|size|C0456389|[spco]|"size"-text-0-"size"-NN-0,"size"-text-0-"size"-NN-0|text|689/4;949/4||
0037.txt|MMI|1.05|size - solid dosage form|C1552077|[qnco]|"size"-text-0-"size"-NN-0,"size"-text-0-"size"-NN-0|text|689/4;949/4||
0037.txt|MMI|1.01|2 Days|C1442455|[tmco]|"2 Days"-text-28-"2 days"-CD-0,"2 Days"-text-6-"2 days"-CD-0|text|1369/6;1416/6||
0037.txt|MMI|1.01|Complete|C0205197|[qlco]|"COMPLETED"-text-24-"completed"-VBN-0,"Complete"-text-6-"complete"-JJ-0|text|1359/9;3749/8||
0037.txt|MMI|1.01|Fever symptoms (finding)|C0424755|[fndg]|"Fever"-text-0-"fever"-NN-1,"Fever"-text-0-"fever"-NN-1|text|1228/5;2047/5||
0037.txt|MMI|1.01|Fever, CTCAE|C4552740|[fndg]|"Fever"-text-0-"fever"-NN-1,"Fever"-text-0-"fever"-NN-1|text|1228/5;2047/5||
0037.txt|MMI|1.01|Further|C1517331|[spco]|"Further"-text-4-"further"-JJ-0,"Further"-text-32-"further"-JJR-0|text|4535/7;5152/7||
0037.txt|MMI|0.98|Blood Vessel|C0005847|[bpoc]|"Vascular"-text-28-"vascular"-JJ-0|text|3964/8|A07.015|
0037.txt|MMI|0.98|Body Fluids|C0005889|[bdsu]|"FLUID"-text-4-"fluid"-NN-0|text|1862/5|A12.207|
0037.txt|MMI|0.98|Head|C0018670|[blor]|"Head"-text-0-"head"-NN-0|text|3483/4|A01.456|
0037.txt|MMI|0.98|Hypersensitivity|C0020517|[patf]|"Allergies"-text-36-"Allergies"-NNP-0|text|110/9|C20.543|
0037.txt|MMI|0.98|Lung diseases|C0024115|[dsyn]|"Lung"-text-0-"lung"-NN-0|text|2703/4|C08.381|
0037.txt|MMI|0.98|Medicine|C0025118|[bmod]|"Medicine"-text-34-"MEDICINE"-NNP-0|text|101/8|H02.403|
0037.txt|MMI|0.98|Nature|C0349590|[idcn]|"Nature"-text-0-"nature"-NN-0|text|861/6|K01.637|
0037.txt|MMI|0.98|Neck|C0027530|[blor]|"Neck"-text-0-"neck"-NN-0|text|3720/4|A01.598|
0037.txt|MMI|0.96|Diagnosis|C0011900|[diap]|"Diagnostic"-text-4-"diagnostic"-JJ-0|text|756/10|E01;Y04|
0037.txt|MMI|0.96|Time|C0040223|[tmco]|"Time"-text-30-"time"-NN-0|text|938/4|G01.910|
0037.txt|MMI|0.96|Work|C0043227|[ocac]|"Work"-text-0-"work"-VB-0|text|2616/4|I03.946|
0037.txt|MMI|0.72|Admission date:Time Stamp -- Date and Time:Point in time:^Patient:Quantitative|C2598112|[clna]|"Admission date"-text-0-"Admission Date"-NNP-0|text|0/14||
0037.txt|MMI|0.72|Date of admission|C1302393|[tmco]|"Admission date"-text-0-"Admission Date"-NNP-0|text|0/14||
0037.txt|MMI|0.52|ABD tumor staging notation|C0449202|[inpr]|"ABD"-text-0-"Abd"-NNP-0|text|3119/3||
0037.txt|MMI|0.52|AKT1S1 gene|C1428707|[gngm]|"Lobe"-text-0-"lobe"-NN-0|text|2986/4||
0037.txt|MMI|0.52|AKT1S1 wt Allele|C3539671|[gngm]|"Lobe"-text-0-"lobe"-NN-0|text|2986/4||
0037.txt|MMI|0.52|Able (finding)|C1299581|[fndg]|"Able"-text-0-"Able"-JJ-0|text|2497/4||
0037.txt|MMI|0.52|Absence of Biallelic TCRgamma Deletion|C3811055|[comd]|"ABD"-text-0-"Abd"-NNP-0|text|3119/3||
0037.txt|MMI|0.52|ActClass - transfer|C3244299|[idcn]|"transfer"-text-4-"transfer"-NN-0|text|4972/8||
0037.txt|MMI|0.52|ActInformationPrivacyReason <service>|C3245478|[idcn]|"service"-text-30-"Service"-NNP-0|text|91/7||
0037.txt|MMI|0.52|Admission Level of Care Code - Improved|C1561611|[inpr]|"Improved"-text-2-"improved"-VBN-0|text|4920/8||
0037.txt|MMI|0.52|Admission activity|C0809949|[hlca]|"Admission"-text-12-"admission"-NN-0|text|1432/9||
0037.txt|MMI|0.52|Admitted to|C4482331|[hlca]|"Admitted to"-text-0-"admitted to"-VBN-0|text|1787/11||
0037.txt|MMI|0.52|Adult Lymphoma|C1332206|[neop]|"Lymphoma"-text-2-"lymphoma"-NN-0|text|3504/8||
0037.txt|MMI|0.52|Adverse Event Associated with Vascular|C1558950|[fndg]|"VASCULAR"-text-28-"vascular"-JJ-0|text|3964/8||
0037.txt|MMI|0.52|Airway structure|C0458827|[bpoc]|"Airway"-text-10-"airway"-NN-0|text|4551/6||
0037.txt|MMI|0.52|Androgen Response Element|C1515984|[nusq]|"ARE"-text-0-"are"-VBP-0|text|4912/3||
0037.txt|MMI|0.52|Anemia, CTCAE|C4554633|[fndg]|"Anemia"-text-0-"anemia"-NN-0|text|2340/6||
0037.txt|MMI|0.52|Antibiotic throat preparations|C3540706|[antb]|"Antibiotics"-text-2-"antibiotics"-NNS-0|text|1303/11||
0037.txt|MMI|0.52|Antibiotics FOR TREATMENT OF HEMORRHOIDS AND ANAL FISSURES FOR TOPICAL USE|C3540707|[antb]|"Antibiotics"-text-2-"antibiotics"-NNS-0|text|1303/11||
0037.txt|MMI|0.52|Antibiotics for systemic use|C3540704|[antb]|"Antibiotics"-text-2-"antibiotics"-NNS-0|text|1303/11||
0037.txt|MMI|0.52|Antibiotics, Gynecological|C3540708|[antb]|"Antibiotics"-text-2-"antibiotics"-NNS-0|text|1303/11||
0037.txt|MMI|0.52|Antibiotics, ophthalmologic|C3540710|[antb]|"Antibiotics"-text-2-"antibiotics"-NNS-0|text|1303/11||
0037.txt|MMI|0.52|Antifungal Antibiotics, Topical|C3540705|[antb]|"Antibiotics"-text-2-"antibiotics"-NNS-0|text|1303/11||
0037.txt|MMI|0.52|Approximate|C0332232|[qlco]|"Approximately"-text-0-"approximately"-RB-0|text|5404/13||
0037.txt|MMI|0.52|Artificial Airways|C0178987|[medd]|"airway"-text-10-"airway"-NN-0|text|4551/6||
0037.txt|MMI|0.52|Assessed|C1516048|[acty]|"Assessment"-text-8-"assessment"-NN-0|text|3758/10||
0037.txt|MMI|0.52|Atrial Fibrillation by ECG Finding|C0344434|[lbtr]|"AFib"-text-0-"Afib"-NNP-0|text|2347/4||
0037.txt|MMI|0.52|Attending (action)|C1999232|[ftcn]|"attending"-text-42-"Attending"-NNP-0|text|134/9||
0037.txt|MMI|0.52|Attending (provider role)|C1547429|[prog]|"Attending"-text-42-"Attending"-NNP-0|text|134/9||
0037.txt|MMI|0.52|BRCA1 wt Allele|C1704743|[gngm]|"IRIS"-text-28-"Iris"-NNP-0|text|5612/4||
0037.txt|MMI|0.52|BRIEF Health Literacy Screening Tool|C4724718|[inpr]|"BRIEF"-text-0-"Brief"-NNP-0|text|4483/5||
0037.txt|MMI|0.52|Baseball Game|C0004795|[dora]|"Baseball"-text-6-"baseball"-NN-0|text|699/8||
0037.txt|MMI|0.52|Before|C0332152|[tmco]|"Prior to"-text-10-"prior to"-RB-0|text|1423/8||
0037.txt|MMI|0.52|Beginning|C0439659|[tmco]|"Origin"-text-0-"origin"-NN-0|text|3434/6||
0037.txt|MMI|0.52|Behavior Rating Inventory of Executive Function|C4050216|[inpr]|"BRIEF"-text-0-"Brief"-NNP-0|text|4483/5||
0037.txt|MMI|0.52|Better|C0332272|[qlco]|"Improved"-text-2-"improved"-VBN-0|text|4920/8||
0037.txt|MMI|0.52|Bladder Cancer pTa TNM Finding v8|C4682912|[fndg]|"pTa"-text-30-"PTA"-NNP-0|text|1376/3||
0037.txt|MMI|0.52|Both|C1706086|[qlco]|"Both"-text-0-"both"-DT-0|text|4208/4||
0037.txt|MMI|0.52|Brief|C1879313|[tmco]|"Brief"-text-0-"Brief"-NNP-0|text|4483/5||
0037.txt|MMI|0.52|Brother - courtesy title|C1704648|[cnce]|"Brother"-text-0-"Brother"-NNP-0|text|2713/7||
0037.txt|MMI|0.52|Brought on by|C0332302|[ftcn]|"brought"-text-8-"brought"-VBN-0|text|1979/7||
0037.txt|MMI|0.52|CALM1 wt Allele|C1707070|[gngm]|"caM"-text-0-"CAM"-NNP-0|text|4022/3||
0037.txt|MMI|0.52|CDISC SDTM Sex of Individual Terminology|C1879943|[inpr]|"SEX"-text-24-"Sex"-NN-0|text|83/3||
0037.txt|MMI|0.52|CORONAVIRUS 229E SUSCEPTIBILITY|C1852539|[fndg]|"CVS"-text-0-"CVS"-NNP-0|text|3029/3||
0037.txt|MMI|0.52|Calmodulin 1|C1366910|[bacs, aapp]|"CAM"-text-0-"CAM"-NNP-0|text|4022/3||
0037.txt|MMI|0.52|Care team|C4321315|[fndg]|"Care team"-text-4-"care team"-NN-0|text|5321/9||
0037.txt|MMI|0.52|Care team:Type:Pt:^Patient:Nom|C4321316|[clna]|"Care team"-text-4-"care team"-NN-0|text|5321/9||
0037.txt|MMI|0.52|Cell Invasion|C2699153|[patf]|"Invasion"-text-34-"invasion"-NN-0|text|5160/8||
0037.txt|MMI|0.52|Cell Response Index|C4084731|[resa]|"CRI"-text-10-"CRI"-NNP-0|text|2195/3||
0037.txt|MMI|0.52|Childhood Immunization|C1456647|[topp]|"Shots"-text-0-"shots"-NNS-0|text|2299/5||
0037.txt|MMI|0.52|Childhood Lymphoma|C1332979|[neop]|"Lymphoma"-text-2-"lymphoma"-NN-0|text|3504/8||
0037.txt|MMI|0.52|Chills, CTCAE|C4553185|[fndg]|"Chills"-text-0-"chills"-NNS-1|text|1236/6||
0037.txt|MMI|0.52|Clear|C2963144|[qlco]|"Clear"-text-0-"clear"-JJ-0|text|3113/5||
0037.txt|MMI|0.52|Clinical act of insertion|C0441587|[hlca]|"placement"-text-10-"placement"-NN-0|text|1032/9||
0037.txt|MMI|0.52|Cognitive Regulation Index|C4722015|[inpr]|"CRI"-text-10-"CRI"-NNP-0|text|2195/3||
0037.txt|MMI|0.52|Comfort|C1331418|[menp]|"Comfort"-text-18-"comfort"-NN-0|text|5376/7||
0037.txt|MMI|0.52|Comfort brand of hydroxyethyl cellulose|C1310585|[orch, phsu]|"comfort"-text-18-"comfort"-NN-0|text|5376/7||
0037.txt|MMI|0.52|Complementary and alternative medicine|C1148475|[topp]|"CAM"-text-0-"CAM"-NNP-0|text|4022/3||
0037.txt|MMI|0.52|Complete Response with Incomplete Bone Marrow Recovery|C3538993|[fndg]|"CRi"-text-10-"CRI"-NNP-0|text|2195/3||
0037.txt|MMI|0.52|Completion Status|C0805732|[fndg]|"STAT"-text-16-"stat"-NN-0|text|4793/4||
0037.txt|MMI|0.52|Component (part)|C1705248|[cnce]|"Component"-text-4-"component"-NN-0|text|4767/9||
0037.txt|MMI|0.52|Component object|C0449432|[mnob]|"Component"-text-4-"component"-NN-0|text|4767/9||
0037.txt|MMI|0.52|Component, LOINC Axis 1|C1524073|[inpr]|"Component"-text-4-"component"-NN-0|text|4767/9||
0037.txt|MMI|0.52|Compressed structure|C0332459|[ftcn]|"Compression"-text-0-"compression"-NN-0|text|4652/11||
0037.txt|MMI|0.52|Compression|C0728907|[npop]|"Compression"-text-0-"compression"-NN-0|text|4652/11||
0037.txt|MMI|0.52|Compression - action|C4551657|[ftcn]|"Compression"-text-0-"compression"-NN-0|text|4652/11||
0037.txt|MMI|0.52|Condition|C0348080|[qlco]|"Condition"-text-4-"Condition"-NNP-0|text|5537/9||
0037.txt|MMI|0.52|Condition Domain|C4722256|[inpr]|"CONDITION"-text-4-"Condition"-NNP-0|text|5537/9||
0037.txt|MMI|0.52|Condition:Find:Pt:^Patient:Nom|C3864998|[clna]|"Condition"-text-4-"Condition"-NNP-0|text|5537/9||
0037.txt|MMI|0.52|Course|C0750729|[tmco]|"Course"-text-16-"course"-NN-0|text|1338/6||
0037.txt|MMI|0.52|Cranial Rhythmic Impulse|C1704519|[phsf]|"CRI"-text-10-"CRI"-NNP-0|text|2195/3||
0037.txt|MMI|0.52|Crystal - body material|C1533132|[bdsu]|"Crystal"-text-46-"Crystal"-NNP-0|text|146/7||
0037.txt|MMI|0.52|Crystal - human material|C0427896|[bdsu]|"Crystal"-text-46-"Crystal"-NNP-0|text|146/7||
0037.txt|MMI|0.52|Crystal - natural material|C4551577|[chvs]|"Crystal"-text-46-"Crystal"-NNP-0|text|146/7||
0037.txt|MMI|0.52|Crystal Device|C1704641|[mnob]|"Crystal"-text-46-"Crystal"-NNP-0|text|146/7||
0037.txt|MMI|0.52|Crystal Pharmaceuticals|C0332050|[hcro]|"Crystal"-text-46-"Crystal"-NNP-0|text|146/7||
0037.txt|MMI|0.52|Crystal Structure|C0444626|[chvs]|"Crystal"-text-46-"Crystal"-NNP-0|text|146/7||
0037.txt|MMI|0.52|Crystals|C1378554|[bodm]|"Crystal"-text-46-"Crystal"-NNP-0|text|146/7||
0037.txt|MMI|0.52|Cyclical vomiting syndrome (disorder)|C0152164|[dsyn]|"CVS"-text-0-"CVS"-NNP-0|text|3029/3||
0037.txt|MMI|0.52|Cystic|C0205207|[qlco]|"Cystic"-text-0-"cystic"-JJ-0|text|851/6||
0037.txt|MMI|0.52|Daily|C0332173|[tmco]|"Day"-text-14-"day"-NN-0|text|1334/3||
0037.txt|MMI|0.52|Death (finding)|C1306577|[fndg]|"Died"-text-0-"died"-VBD-0|text|5399/4||
0037.txt|MMI|0.52|Decadron|C0740057|[orch, phsu]|"Decadron"-text-0-"Decadron"-NNP-0|text|1908/8||
0037.txt|MMI|0.52|Decision|C0679006|[menp]|"Decision"-text-0-"decision"-NN-0|text|5433/8||
0037.txt|MMI|0.52|Decrease in size since previous mammogram|C1268653|[fndg]|"Decrease in size"-text-26-"decrease in size"-NN-0|text|916/16||
0037.txt|MMI|0.52|Device Status Unkown|C5203193|[fndg]|"Unknown"-text-0-"unknown"-JJ-0|text|2751/7||
0037.txt|MMI|0.52|Discontinued|C1444662|[fndg]|"Discontinued"-text-0-"discontinued"-VBN-0|text|2316/12||
0037.txt|MMI|0.52|Discussion (communication)|C2584313|[socb]|"Discussion"-text-0-"discussion"-NN-0|text|5214/10||
0037.txt|MMI|0.52|Discussion (procedure)|C0557061|[topp]|"Discussion"-text-0-"discussion"-NN-0|text|5214/10||
0037.txt|MMI|0.52|Diver (occupation)|C0403082|[prog]|"divers"-text-50-"Divers"-NNP-0|text|157/6||
0037.txt|MMI|0.52|Document completion status - Documented|C1609436|[inpr]|"documented"-text-8-"documented"-VBN-0|text|2388/10||
0037.txt|MMI|0.52|Documented|C1301725|[hlca]|"Documented"-text-8-"documented"-VBN-0|text|2388/10||
0037.txt|MMI|0.52|Drop - Unit of Volume|C4048603|[qnco]|"Drip"-text-0-"drip"-NN-0|text|5301/4||
0037.txt|MMI|0.52|Drugs - dental services|C3687832|[topp]|"Drugs"-text-0-"drugs"-NNS-0|text|2600/5||
0037.txt|MMI|0.52|ENG gene|C1366583|[gngm]|"END"-text-13-"End"-NN-0|text|5761/3||
0037.txt|MMI|0.52|ENG wt Allele|C1704837|[gngm]|"END"-text-13-"End"-NN-0|text|5761/3||
0037.txt|MMI|0.52|EXT1 gene|C0694878|[gngm]|"EXT"-text-9-"Ext"-NNP-0|text|3146/3||
0037.txt|MMI|0.52|EXT1 wt Allele|C1707871|[gngm]|"EXT"-text-9-"Ext"-NNP-0|text|3146/3||
0037.txt|MMI|0.52|Each (qualifier value)|C1457900|[qnco]|"Each"-text-28-"each"-DT-0|text|933/4||
0037.txt|MMI|0.52|East|C1707877|[spco]|"East"-text-10-"East"-NNP-0|text|4988/4||
0037.txt|MMI|0.52|Edema:Finding:Point in time:^Patient:Ordinal|C1717255|[clna]|"Edema"-text-15-"edema"-NN-1|text|3155/5||
0037.txt|MMI|0.52|End|C0444930|[spco]|"End"-text-13-"End"-NN-0|text|5761/3||
0037.txt|MMI|0.52|Endoglin, human|C0082420|[imft, aapp]|"END"-text-13-"End"-NN-0|text|5761/3||
0037.txt|MMI|0.52|Ensure (product)|C0218063|[food]|"ENSURE"-text-16-"ensure"-VB-0|text|5369/6||
0037.txt|MMI|0.52|Entire head|C1281590|[bpoc]|"Head"-text-0-"head"-NN-0|text|3483/4||
0037.txt|MMI|0.52|Entire iris|C1278891|[bpoc]|"Iris"-text-28-"Iris"-NNP-0|text|5612/4||
0037.txt|MMI|0.52|Entire lung|C1278908|[bpoc]|"Lung"-text-0-"lung"-NN-0|text|2703/4||
0037.txt|MMI|0.52|Entire neck|C1281592|[bpoc]|"Neck"-text-0-"neck"-NN-0|text|3720/4||
0037.txt|MMI|0.52|Entire thyroid gland|C1278878|[bpoc]|"Thyroid gland"-text-0-"thyroid gland"-NN-0|text|2998/13||
0037.txt|MMI|0.52|Epidermal cGVHD Score 0|C4761489|[inpr]|"Clear"-text-0-"clear"-JJ-0|text|3113/5||
0037.txt|MMI|0.52|Episode of|C0332189|[tmco]|"Episodes"-text-0-"episodes"-NNS-0|text|2357/8||
0037.txt|MMI|0.52|Evaluation procedure|C1261322|[hlca]|"Assessment"-text-8-"assessment"-NN-0|text|3758/10||
0037.txt|MMI|0.52|Event Reported To - Manufacturer|C1546933|[fndg]|"Manufacturer"-text-0-"manufacturer"-NN-0|text|2628/12||
0037.txt|MMI|0.52|Exclude|C0332196|[ftcn]|"Exclude"-text-0-"exclude"-VBP-0|text|4200/7||
0037.txt|MMI|0.52|Exclusion|C2828389|[acty]|"Exclude"-text-0-"exclude"-VBP-0|text|4200/7||
0037.txt|MMI|0.52|Extended Priority Codes - Stat|C1547583|[inpr]|"Stat"-text-16-"stat"-NN-0|text|4793/4||
0037.txt|MMI|0.52|Facility type - Manufacturer|C1548599|[idcn]|"Manufacturer"-text-0-"manufacturer"-NN-0|text|2628/12||
0037.txt|MMI|0.52|Family history|C0241889|[fndg]|"Family history"-text-0-"Family History"-NNP-0|text|2643/14||
0037.txt|MMI|0.52|Father (person)|C0015671|[famg]|"Father"-text-0-"Father"-NNP-0|text|2764/6||
0037.txt|MMI|0.52|Father - courtesy title|C2348513|[cnce]|"Father"-text-0-"Father"-NNP-0|text|2764/6||
0037.txt|MMI|0.52|Fibrovascular|C0392759|[ftcn]|"Vascular"-text-28-"vascular"-JJ-0|text|3964/8||
0037.txt|MMI|0.52|Fine needle aspiration biopsy|C1510483|[diap]|"FNA"-text-0-"FNA"-NNP-0|text|726/3||
0037.txt|MMI|0.52|Fluid Specimen Code|C1546638|[inpr]|"Fluid"-text-4-"fluid"-NN-0|text|1862/5||
0037.txt|MMI|0.52|Fluid behavior|C0444611|[qlco]|"Fluid"-text-4-"fluid"-NN-0|text|1862/5||
0037.txt|MMI|0.52|Followed by|C0332283|[tmco]|"Followed by"-text-8-"followed by"-VBN-0|text|1317/11||
0037.txt|MMI|0.52|Following|C0332282|[tmco]|"Followed By"-text-8-"followed by"-VBN-0|text|1317/11||
0037.txt|MMI|0.52|Fulfill|C1550543|[phpr]|"Met"-text-6-"met"-VBD-0|text|5068/3||
0037.txt|MMI|0.52|GTF2A1L gene|C1332077|[gngm]|"ALF"-text-38-"ALF"-NNP-0|text|2471/3||
0037.txt|MMI|0.52|GTF2A1L wt Allele|C1704942|[gngm]|"ALF"-text-38-"ALF"-NNP-0|text|2471/3||
0037.txt|MMI|0.52|Gastric (qualifier value)|C1704242|[qlco]|"Gastric"-text-0-"gastric"-NNP-0|text|2726/7||
0037.txt|MMI|0.52|Gender Status - Intact|C1554187|[fndg]|"Intact"-text-27-"intact"-JJ-1|text|3178/6||
0037.txt|MMI|0.52|Gender:Type:Point in time:^Patient:Nominal|C0804628|[clna]|"Sex"-text-24-"Sex"-NN-0|text|83/3||
0037.txt|MMI|0.52|Genus Anemia|C1000483|[plnt]|"Anemia"-text-0-"anemia"-NN-0|text|2340/6||
0037.txt|MMI|0.52|Geographic state|C1301808|[geoa]|"states"-text-0-"states"-NNS-0|text|1469/6||
0037.txt|MMI|0.52|Greater|C1704243|[qnco]|"Larger"-text-0-"larger"-JJR-0|text|673/6||
0037.txt|MMI|0.52|HADH gene|C1415458|[gngm]|"HAD"-text-0-"had"-VBN-0|text|2043/3||
0037.txt|MMI|0.52|Haitian Creole Language|C4724758|[lang]|"HAT"-text-0-"hat"-NN-0|text|2624/3||
0037.txt|MMI|0.52|Hat - Headwear|C0444765|[mnob]|"Hat"-text-0-"hat"-NN-0|text|2624/3||
0037.txt|MMI|0.52|Have Weight Loss|C4084774|[inpr]|"Weight loss"-text-12-"weight loss"-NN-0|text|2095/11||
0037.txt|MMI|0.52|Head - Component of Device|C1706305|[mnob]|"Head"-text-0-"head"-NN-0|text|3483/4||
0037.txt|MMI|0.52|Helpful|C3898897|[qlco]|"Helpful"-text-0-"helpful"-JJ-0|text|3732/7||
0037.txt|MMI|0.52|History of present illness|C0262512|[fndg]|"History of"-text-0-"history of"-NN-1|text|2572/10||
0037.txt|MMI|0.52|Hospital admission|C0184666|[hlca]|"Admission"-text-12-"admission"-NN-0|text|1432/9||
0037.txt|MMI|0.52|Hospital course|C0489547|[fndg]|"Hospital course"-text-0-"Hospital Course"-NNP-0|text|4489/15||
0037.txt|MMI|0.52|Hospital course:Finding:Point in time:^Patient:Narrative|C0488549|[clna]|"Hospital course"-text-0-"Hospital Course"-NNP-0|text|4489/15||
0037.txt|MMI|0.52|Hospital environment|C1510665|[qlco]|"Hospital"-text-0-"Hospital"-NNP-0|text|1732/8||
0037.txt|MMI|0.52|How Much Distress Weight Loss|C4084777|[inpr]|"Weight loss"-text-12-"weight loss"-NN-0|text|2095/11||
0037.txt|MMI|0.52|How Often Weight Loss|C4084776|[inpr]|"Weight loss"-text-12-"weight loss"-NN-0|text|2095/11||
0037.txt|MMI|0.52|Hypertensive disease|C0020538|[dsyn]|"HTN"-text-12-"HTN"-NNP-0|text|2199/3||
0037.txt|MMI|0.52|Implantation procedure|C0021107|[topp]|"Placement"-text-10-"placement"-NN-0|text|1032/9||
0037.txt|MMI|0.52|Impression|C1998467|[qlco]|"Impression"-text-0-"IMPRESSION"-NN-0|text|3270/10||
0037.txt|MMI|0.52|Improved|C0184511|[fndg]|"Improved"-text-2-"improved"-VBN-0|text|4920/8||
0037.txt|MMI|0.52|Improved - answer to question|C4084203|[fndg]|"Improved"-text-2-"improved"-VBN-0|text|4920/8||
0037.txt|MMI|0.52|Improvement|C2986411|[cnce]|"Improvement"-text-16-"improvement"-NN-0|text|1654/11||
0037.txt|MMI|0.52|In Blood|C0005768|[bdsu]|"blood"-text-0-"blood"-NN-0|text|1499/5||
0037.txt|MMI|0.52|Indirect exposure mechanism - Father|C1547005|[idcn]|"Father"-text-0-"Father"-NNP-0|text|2764/6||
0037.txt|MMI|0.52|Initially|C0205265|[tmco]|"Initially"-text-0-"initially"-RB-0|text|1587/9||
0037.txt|MMI|0.52|Instruction [Publication Type]|C0302828|[inpr]|"instructions"-text-20-"Instructions"-NNP-0|text|5589/12||
0037.txt|MMI|0.52|Instructions|C1442085|[inpr]|"Instructions"-text-20-"Instructions"-NNP-0|text|5589/12||
0037.txt|MMI|0.52|Instructions:Text:Point in time:^Patient:Narrative|C3263700|[clna]|"Instructions"-text-20-"Instructions"-NNP-0|text|5589/12||
0037.txt|MMI|0.52|Intact|C0205266|[qlco]|"Intact"-text-27-"intact"-JJ-1|text|3178/6||
0037.txt|MMI|0.52|Interventional Study|C3274035|[resa]|"INTERVENTIONAL"-text-10-"interventional"-JJ-0|text|5077/14||
0037.txt|MMI|0.52|Interventional procedure|C0184661|[topp]|"Interventional"-text-10-"interventional"-JJ-0|text|5077/14||
0037.txt|MMI|0.52|Into|C0332286|[ftcn]|"Into"-text-42-"into"-IN-0|text|5182/4||
0037.txt|MMI|0.52|Iris (Eye)|C0022077|[bpoc]|"Iris"-text-28-"Iris"-NNP-0|text|5612/4||
0037.txt|MMI|0.52|Iris <angiosperm>|C1001362|[plnt]|"Iris"-text-28-"Iris"-NNP-0|text|5612/4||
0037.txt|MMI|0.52|Iris <mantid>|C2314880|[euka]|"Iris"-text-28-"Iris"-NNP-0|text|5612/4||
0037.txt|MMI|0.52|Iris douglasiana, flower essence|C1256254|[phsu]|"iris"-text-28-"Iris"-NNP-0|text|5612/4||
0037.txt|MMI|0.52|KRIT1 gene|C1537503|[gngm]|"CAM"-text-0-"CAM"-NNP-0|text|4022/3||
0037.txt|MMI|0.52|KRIT1 wt Allele|C1706432|[gngm]|"CAM"-text-0-"CAM"-NNP-0|text|4022/3||
0037.txt|MMI|0.52|Knowledge acquisition using a method of assessment|C0679207|[inpr]|"assessment"-text-8-"assessment"-NN-0|text|3758/10||
0037.txt|MMI|0.52|Large|C0549177|[qnco]|"Larger"-text-0-"larger"-JJR-0|text|673/6||
0037.txt|MMI|0.52|Last|C1517741|[qlco]|"Last"-text-4-"last"-JJ-0|text|644/4||
0037.txt|MMI|0.52|Liquid substance|C0302908|[sbst]|"fluid"-text-4-"fluid"-NN-0|text|1862/5||
0037.txt|MMI|0.52|Logical Condition|C1705253|[cnce]|"Condition"-text-4-"Condition"-NNP-0|text|5537/9||
0037.txt|MMI|0.52|MET - answer|C4760039|[ftcn]|"MET"-text-6-"met"-VBD-0|text|5068/3||
0037.txt|MMI|0.52|MET gene|C1417123|[gngm]|"MET"-text-6-"met"-VBD-0|text|5068/3||
0037.txt|MMI|0.52|MET wt Allele|C1704823|[gngm]|"MET"-text-6-"met"-VBD-0|text|5068/3||
0037.txt|MMI|0.52|MGMT gene|C1334505|[gngm]|"MGMT"-text-6-"mgmt"-NN-0|text|4543/4||
0037.txt|MMI|0.52|Malignant - descriptor|C0205282|[qlco]|"Malignant"-text-48-"malignant"-JJ-0|text|4446/9||
0037.txt|MMI|0.52|Malignant neoplasm of prostate|C0376358|[neop]|"Prostate Cancer"-text-34-"prostate cancer"-NN-0|text|2248/15||
0037.txt|MMI|0.52|Malignant neoplasm of soft tissue|C4551686|[neop]|"sarcoma"-text-8-"sarcoma"-NN-1|text|4314/7||
0037.txt|MMI|0.52|Manufactured Baseball|C0004796|[mnob]|"Baseball"-text-6-"baseball"-NN-0|text|699/8||
0037.txt|MMI|0.52|Manufacturer Name|C0947322|[inpr]|"Manufacturer"-text-0-"manufacturer"-NN-0|text|2628/12||
0037.txt|MMI|0.52|Marital Status - Unknown|C1549115|[fndg]|"Unknown"-text-0-"unknown"-JJ-0|text|2751/7||
0037.txt|MMI|0.52|Measured weight loss (observable entity)|C5203233|[qnco]|"Weight loss"-text-12-"weight loss"-NN-0|text|2095/11||
0037.txt|MMI|0.52|Melanoma Pathway|C2984289|[ftcn]|"Melanoma"-text-0-"melanoma"-NN-0|text|4213/8||
0037.txt|MMI|0.52|Melanoma vaccine|C0796561|[imft, phsu]|"melanoma"-text-0-"melanoma"-NN-0|text|4213/8||
0037.txt|MMI|0.52|Metabolic Equivalent of Task|C2983100|[qnco]|"MET"-text-6-"met"-VBD-0|text|5068/3||
0037.txt|MMI|0.52|Metabolic Equivalent of Task Unit|C4317104|[qnco]|"MET"-text-6-"met"-VBD-0|text|5068/3||
0037.txt|MMI|0.52|Methionine measurement|C0428210|[lbpr]|"MET"-text-6-"met"-VBD-0|text|5068/3||
0037.txt|MMI|0.52|Month of May|C3812381|[tmco]|"May"-text-0-"may"-MD-0|text|3725/3||
0037.txt|MMI|0.52|Monthly (qualifier value)|C0332177|[tmco]|"Monthly"-text-0-"monthly"-JJ-0|text|2291/7||
0037.txt|MMI|0.52|Morning|C0332170|[tmco]|"Morning"-text-0-"morning"-NN-0|text|5017/7||
0037.txt|MMI|0.52|Morphine Measurement|C2698261|[lbpr]|"Morphine"-text-0-"morphine"-NN-0|text|5292/8||
0037.txt|MMI|0.52|Most Recent|C1513491|[tmco]|"Most Recent"-text-26-"most recent"-RBS-0|text|5130/11||
0037.txt|MMI|0.52|NCI CTEP SDC Melanoma Sub-Category Terminology|C3539018|[inpr]|"Melanoma"-text-0-"melanoma"-NN-0|text|4213/8||
0037.txt|MMI|0.52|NCI CTEP SDC Prostate Cancer Sub-Category Terminology|C3541264|[inpr]|"Prostate Cancer"-text-34-"prostate cancer"-NN-0|text|2248/15||
0037.txt|MMI|0.52|National origin|C0079946|[clas]|"origin"-text-0-"origin"-NN-0|text|3434/6||
0037.txt|MMI|0.52|Natures|C1262865|[ftcn]|"Nature"-text-0-"nature"-NN-0|text|861/6||
0037.txt|MMI|0.52|Neck of pancreas|C0447556|[blor]|"Neck"-text-0-"neck"-NN-0|text|3720/4||
0037.txt|MMI|0.52|Neck of urinary bladder|C0227716|[bpoc]|"Neck"-text-0-"neck"-NN-0|text|3720/4||
0037.txt|MMI|0.52|Neurology speciality|C0027855|[bmod]|"NEURO"-text-17-"Neuro"-NNP-0|text|3161/5||
0037.txt|MMI|0.52|No history of|C0332122|[qlco]|"No history of"-text-0-"No history of"-DT-0|text|2659/13||
0037.txt|MMI|0.52|October|C3828732|[tmco]|"October"-text-6-"October"-NNP-0|text|649/7||
0037.txt|MMI|0.52|Once a week|C0558293|[tmco]|"Once a week"-text-0-"once a week"-RB-0|text|2551/11||
0037.txt|MMI|0.52|Optimal Cutting Temperature Compound|C1882161|[irda]|"OCT"-text-0-"Oct"-NNP-0|text|991/3||
0037.txt|MMI|0.52|Organization unit type - Hospital|C1547192|[idcn]|"Hospital"-text-0-"Hospital"-NNP-0|text|1732/8||
0037.txt|MMI|0.52|PLXNA2 gene|C1418661|[gngm]|"OCT"-text-0-"Oct"-NNP-0|text|991/3||
0037.txt|MMI|0.52|PLXNA3 gene|C1418662|[gngm]|"SEX"-text-24-"Sex"-NN-0|text|83/3||
0037.txt|MMI|0.52|PMH - past medical history|C0455458|[fndg]|"Past medical history"-text-0-"Past Medical History"-NNP-0|text|2137/20||
0037.txt|MMI|0.52|PTCRA gene|C1427472|[gngm]|"PTA"-text-30-"PTA"-NNP-0|text|1376/3||
0037.txt|MMI|0.52|Parent Teacher Association|C0876953|[orgt]|"pta"-text-30-"PTA"-NNP-0|text|1376/3||
0037.txt|MMI|0.52|Participation Type - origin|C1550512|[inpr]|"origin"-text-0-"origin"-NN-0|text|3434/6||
0037.txt|MMI|0.52|Past history of|C0332119|[fndg]|"History of"-text-0-"history of"-NN-1|text|2572/10||
0037.txt|MMI|0.52|Patient Outcome - Died|C1546956|[fndg]|"Died"-text-0-"died"-VBD-0|text|5399/4||
0037.txt|MMI|0.52|Patient Visit|C1512346|[hlca]|"Visits"-text-0-"visits"-NNS-0|text|2544/6||
0037.txt|MMI|0.52|Patient date of birth|C0421451|[tmco]|"Date of birth"-text-14-"Date of Birth"-NNP-0|text|56/13||
0037.txt|MMI|0.52|Patricia|C1646907|[euka]|"Patricia"-text-42-"Patricia"-NNP-0|text|5642/8||
0037.txt|MMI|0.52|Patterns|C0449774|[spco]|"Pattern"-text-30-"pattern"-NN-0|text|3973/7||
0037.txt|MMI|0.52|Performed|C0884358|[ftcn]|"Performed"-text-0-"performed"-VBN-0|text|734/9||
0037.txt|MMI|0.52|Pharmaceutical Strength|C1705922|[qnco]|"Strength"-text-45-"strength"-NN-0|text|3229/8||
0037.txt|MMI|0.52|Physical Strength|C0237897|[qnco]|"Strength"-text-45-"strength"-NN-0|text|3229/8||
0037.txt|MMI|0.52|Placement|C1524072|[qlco]|"Placement"-text-10-"placement"-NN-0|text|1032/9||
0037.txt|MMI|0.52|Placement action|C1533810|[hlca]|"Placement"-text-10-"placement"-NN-0|text|1032/9||
0037.txt|MMI|0.52|Poisoning by, adverse effect of and underdosing of penicillins|C2876539|[inpo]|"Penicillins"-text-40-"Penicillins"-NNP-0|text|122/11||
0037.txt|MMI|0.52|Precision - day|C1561539|[idcn]|"day"-text-14-"day"-NN-0|text|1334/3||
0037.txt|MMI|0.52|Present|C0150312|[fndg]|"Found"-text-0-"found"-VBD-0|text|4601/5||
0037.txt|MMI|0.52|Probable diagnosis|C0332148|[fndg]|"Probably"-text-8-"probably"-RB-0|text|769/8||
0037.txt|MMI|0.52|Probably|C0750492|[idcn]|"Probably"-text-8-"probably"-RB-0|text|769/8||
0037.txt|MMI|0.52|Proliferation of spindle cells|C3550350|[fndg]|"Proliferation of spindle cells"-text-12-"proliferation of spindle cells"-NN-0|text|3895/30||
0037.txt|MMI|0.52|Prostate Cancer Pathway|C2984325|[cnce]|"Prostate cancer"-text-34-"prostate cancer"-NN-0|text|2248/15||
0037.txt|MMI|0.52|Prostate carcinoma|C0600139|[neop]|"Prostate cancer"-text-34-"prostate cancer"-NN-0|text|2248/15||
0037.txt|MMI|0.52|Protein Component|C1179435|[bacs, aapp]|"Component"-text-4-"component"-NN-0|text|4767/9||
0037.txt|MMI|0.52|Prothrombin Activity Measurement|C3274435|[lbpr]|"PTA"-text-30-"PTA"-NNP-0|text|1376/3||
0037.txt|MMI|0.52|Psychological Transfer|C0040671|[menp]|"TRANSFER"-text-4-"transfer"-NN-0|text|4972/8||
0037.txt|MMI|0.52|Pulmonary (intended site)|C4522268|[fndg]|"Pulmonary"-text-12-"pulmonary"-JJ-0|text|5092/9||
0037.txt|MMI|0.52|Pulmonary (qualifier value)|C2709248|[qlco]|"Pulmonary"-text-12-"pulmonary"-JJ-0|text|5092/9||
0037.txt|MMI|0.52|Pulmonary:-:Point in time:^Patient:-|C2707265|[clna]|"Pulmonary"-text-12-"pulmonary"-JJ-0|text|5092/9||
0037.txt|MMI|0.52|RNH1 gene|C1826843|[gngm]|"CRI"-text-10-"CRI"-NNP-0|text|2195/3||
0037.txt|MMI|0.52|RNMT gene|C1419433|[gngm]|"MET"-text-6-"met"-VBD-0|text|5068/3||
0037.txt|MMI|0.52|RRAD gene|C0919455|[gngm]|"RAD"-text-0-"Rad"-NNP-0|text|4946/3||
0037.txt|MMI|0.52|RRAD wt Allele|C1705625|[gngm]|"RAD"-text-0-"Rad"-NNP-0|text|4946/3||
0037.txt|MMI|0.52|Radian|C1551047|[qnco]|"rad"-text-0-"Rad"-NNP-0|text|4946/3||
0037.txt|MMI|0.52|Radiation Ionizing Radiotherapy|C1524020|[topp]|"Radiation"-text-0-"radiation"-NN-0|text|5037/9||
0037.txt|MMI|0.52|Radiography Study File|C3891450|[inpr]|"RAD"-text-0-"Rad"-NNP-0|text|4946/3||
0037.txt|MMI|0.52|Radiologic Impression|C4049863|[fndg]|"Impression"-text-0-"IMPRESSION"-NN-0|text|3270/10||
0037.txt|MMI|0.52|Radiology studies|C0807679|[diap]|"RAD"-text-0-"Rad"-NNP-0|text|4946/3||
0037.txt|MMI|0.52|Radiotherapy Research|C1524021|[resa]|"Radiation"-text-0-"radiation"-NN-0|text|5037/9||
0037.txt|MMI|0.52|Rash and Dermatitis Associated with Radiation Excluding Chemoradiation, CTCAE|C1963223|[fndg]|"Radiation"-text-0-"radiation"-NN-0|text|5037/9||
0037.txt|MMI|0.52|Receive|C1514756|[qlco]|"RECEIVED"-text-0-"received"-VBN-0|text|2282/8||
0037.txt|MMI|0.52|Referral priority - STAT|C1548425|[idcn]|"STAT"-text-16-"stat"-NN-0|text|4793/4||
0037.txt|MMI|0.52|Regulatory Report|C3273238|[inpr]|"Report"-text-17-"Report"-NNP-0|text|5768/6||
0037.txt|MMI|0.52|Relationship - Brother|C1546493|[idcn]|"Brother"-text-0-"Brother"-NNP-0|text|2713/7||
0037.txt|MMI|0.52|Relationship - Father|C1546503|[idcn]|"Father"-text-0-"Father"-NNP-0|text|2764/6||
0037.txt|MMI|0.52|Remote control command - Clear|C1550016|[idcn]|"Clear"-text-0-"clear"-JJ-0|text|3113/5||
0037.txt|MMI|0.52|Report priority - Stat|C1561443|[idcn]|"Stat"-text-16-"stat"-NN-0|text|4793/4||
0037.txt|MMI|0.52|Report:Finding:Point in time:{Setting}:Document:{Role}|C4255046|[clna]|"Report"-text-17-"Report"-NNP-0|text|5768/6||
0037.txt|MMI|0.52|Respiratory Status|C1998827|[fndg]|"Respiratory Status"-text-22-"respiratory status"-NN-0|text|1669/18||
0037.txt|MMI|0.52|Respiratory Status:-:Point in time:^Patient:-|C2598168|[clna]|"Respiratory status"-text-22-"respiratory status"-NN-0|text|1669/18||
0037.txt|MMI|0.52|Rigid bronchoscopy|C1301645|[diap]|"Rigid bronchoscopy"-text-0-"rigid bronchoscopy"-JJ-0|text|4708/18||
0037.txt|MMI|0.52|SHORT STATURE, ONYCHODYSPLASIA, FACIAL DYSMORPHISM, AND HYPOTRICHOSIS SYNDROME|C3542022|[dsyn]|"SOFT"-text-0-"soft"-JJ-0|text|3125/4||
0037.txt|MMI|0.52|SLC4A1 gene|C1420193|[gngm]|"AE1"-text-0-"AE1"-IN-0|text|4012/3||
0037.txt|MMI|0.52|SLC4A1 wt Allele|C3538902|[gngm]|"AE1"-text-0-"AE1"-IN-0|text|4012/3||
0037.txt|MMI|0.52|SLTM gene|C1822773|[gngm]|"Met"-text-6-"met"-VBD-0|text|5068/3||
0037.txt|MMI|0.52|SON gene|C1420310|[gngm]|"SON"-text-0-"son"-NN-0|text|1395/3||
0037.txt|MMI|0.52|STAT family gene|C1335960|[gngm]|"STAT"-text-16-"stat"-NN-0|text|4793/4||
0037.txt|MMI|0.52|STAT protein|C1366753|[bacs, aapp]|"STAT"-text-16-"stat"-NN-0|text|4793/4||
0037.txt|MMI|0.52|STRENGTH (attribute)|C0808080|[idcn]|"strength"-text-45-"strength"-NN-0|text|3229/8||
0037.txt|MMI|0.52|Sarcoma - category (morphologic abnormality)|C1299262|[neop]|"Sarcoma"-text-8-"sarcoma"-NN-1|text|4314/7||
0037.txt|MMI|0.52|Services|C0557854|[ocac]|"service"-text-30-"Service"-NNP-0|text|91/7||
0037.txt|MMI|0.52|Set Operator - exclude|C1552867|[inpr]|"exclude"-text-0-"exclude"-VBP-0|text|4200/7||
0037.txt|MMI|0.52|Several|C0443302|[qnco]|"Several"-text-16-"several"-JJ-0|text|2111/7||
0037.txt|MMI|0.52|Sexual intercourse - finding|C1314687|[fndg]|"Sex"-text-24-"Sex"-NN-0|text|83/3||
0037.txt|MMI|0.52|Sheets (formation)|C0439643|[spco]|"Sheets"-text-20-"sheets"-NNS-0|text|3940/6||
0037.txt|MMI|0.52|Shortened|C1282927|[qlco]|"brief"-text-0-"Brief"-NNP-0|text|4483/5||
0037.txt|MMI|0.52|Signature|C1519316|[inpr]|"Signed"-text-62-"Signed"-VBN-0|text|5685/6||
0037.txt|MMI|0.52|Since|C1711239|[tmco]|"Since"-text-0-"since"-IN-0|text|2366/5||
0037.txt|MMI|0.52|Social History|C3714536|[fndg]|"Social History"-text-26-"Social History"-NNP-0|text|2434/14||
0037.txt|MMI|0.52|Social and personal history|C0424945|[fndg]|"Social history"-text-26-"Social History"-NNP-0|text|2434/14||
0037.txt|MMI|0.52|Soft|C0205358|[qlco]|"Soft"-text-0-"soft"-JJ-0|text|3125/4||
0037.txt|MMI|0.52|Software Service|C2825316|[mnob]|"Service"-text-30-"Service"-NNP-0|text|91/7||
0037.txt|MMI|0.52|Son (person)|C0037683|[famg]|"Son"-text-0-"son"-NN-0|text|1395/3||
0037.txt|MMI|0.52|Sore Throat brand of Phenol|C0723402|[orch, phsu]|"Sore Throat"-text-0-"sore throat"-JJ-1|text|1245/11||
0037.txt|MMI|0.52|Sore Throat, CTCAE|C4552746|[fndg]|"Sore throat"-text-0-"sore throat"-JJ-1|text|1245/11||
0037.txt|MMI|0.52|Specimen Child Role - Component|C1548799|[idcn]|"Component"-text-4-"component"-NN-0|text|4767/9||
0037.txt|MMI|0.52|Specimen Source Codes - Respiratory|C1546767|[inpr]|"Respiratory"-text-0-"respiratory"-JJ-0|text|4897/11||
0037.txt|MMI|0.52|Started|C1272689|[qlco]|"Started"-text-0-"started"-VBN-0|text|5281/7||
0037.txt|MMI|0.52|Stat (do immediately)|C0205548|[tmco]|"Stat"-text-16-"stat"-NN-0|text|4793/4||
0037.txt|MMI|0.52|Stop (qualifier value)|C2746065|[tmco]|"End"-text-13-"End"-NN-0|text|5761/3||
0037.txt|MMI|0.52|Stridor, CTCAE|C4552982|[fndg]|"Stridor"-text-20-"stridor"-NN-0|text|3094/7||
0037.txt|MMI|0.52|Stroke, CTCAE|C4554100|[fndg]|"Stroke"-text-0-"stroke"-NN-0|text|2776/6||
0037.txt|MMI|0.52|Structure of upper respiratory tract cavity|C0225377|[bsoj]|"Upper airway"-text-18-"upper airway"-JJ-0|text|3081/12||
0037.txt|MMI|0.52|Surgeon|C0582175|[prog]|"Surgeon"-text-8-"surgeon"-NN-0|text|1753/7||
0037.txt|MMI|0.52|Swollen Lymph Node|C4282165|[fndg]|"lymphadenopathy"-text-20-"lymphadenopathy"-NN-0|text|3790/15||
0037.txt|MMI|0.52|Symmetrical dyschromatosis of extremities|C0406775|[cgab]|"RAD"-text-0-"Rad"-NNP-0|text|4946/3||
0037.txt|MMI|0.52|Symptoms aspect|C0683368|[ftcn]|"symptoms"-text-22-"symptoms"-NNS-0|text|1202/8||
0037.txt|MMI|0.52|Syncope (amphibian)|C3541349|[amph]|"Syncope"-text-4-"syncope"-NN-0|text|1014/7||
0037.txt|MMI|0.52|Syncope, CTCAE 5.0|C4554644|[fndg]|"Syncope"-text-4-"syncope"-NN-0|text|1014/7||
0037.txt|MMI|0.52|THBS1 gene|C1336626|[gngm]|"TSP"-text-0-"tsp"-NN-0|text|1492/3||
0037.txt|MMI|0.52|THBS1 wt Allele|C1710292|[gngm]|"TSP"-text-0-"tsp"-NN-0|text|1492/3||
0037.txt|MMI|0.52|THYROID DIAGNOSTIC RADIOPHARMACEUTICALS|C3540038|[irda]|"THYROID"-text-0-"thyroid"-JJ-0|text|3423/7||
0037.txt|MMI|0.52|TMPRSS11D gene|C1540026|[gngm]|"HAT"-text-0-"hat"-NN-0|text|2624/3||
0037.txt|MMI|0.52|Table Frame - above|C1552828|[idcn]|"above"-text-4-"above"-IN-0|text|2180/5||
0037.txt|MMI|0.52|Take|C1515187|[hlca]|"Take"-text-0-"take"-VB-0|text|2505/4||
0037.txt|MMI|0.52|Teaspoon Dosing Unit|C1704619|[qnco]|"tsp"-text-0-"tsp"-NN-0|text|1492/3||
0037.txt|MMI|0.52|Teaspoonful|C1533179|[qnco]|"Tsp"-text-0-"tsp"-NN-0|text|1492/3||
0037.txt|MMI|0.52|Therapeutic radiology procedure|C1522449|[topp]|"Radiation"-text-0-"radiation"-NN-0|text|5037/9||
0037.txt|MMI|0.52|This (eukaryote)|C1080058|[euka]|"This"-text-0-"this"-DT-0|text|1113/4||
0037.txt|MMI|0.52|Thyroid hyperplasia|C1112776|[fndg]|"Large thyroid"-text-16-"large thyroid"-JJ-0|text|4562/13||
0037.txt|MMI|0.52|Tracheal (qualifier value)|C2945595|[spco]|"Tracheal"-text-0-"tracheal"-JJ-0|text|1944/8||
0037.txt|MMI|0.52|Transaction counts and value totals - day|C1561538|[inpr]|"day"-text-14-"day"-NN-0|text|1334/3||
0037.txt|MMI|0.52|Transfer - product ownership|C1555583|[idcn]|"Transfer"-text-4-"transfer"-NN-0|text|4972/8||
0037.txt|MMI|0.52|Transfer Ability|C4319192|[inpr]|"Transfer"-text-4-"transfer"-NN-0|text|4972/8||
0037.txt|MMI|0.52|Transferred to|C4049693|[fndg]|"Transferred to"-text-0-"transferred to"-VBN-0|text|1697/14||
0037.txt|MMI|0.52|Transferred to:Loc:Pt:^Patient:Nom|C4049692|[clna]|"Transferred to"-text-0-"transferred to"-VBN-0|text|1697/14||
0037.txt|MMI|0.52|Transmitted by|C0332289|[ftcn]|"transmitted"-text-14-"transmitted"-JJ-1|text|3069/11||
0037.txt|MMI|0.52|Treated with|C0332293|[topp]|"Treated with"-text-0-"treated with"-VBN-0|text|1277/12||
0037.txt|MMI|0.52|Treating|C1522326|[ftcn]|"treated with"-text-0-"treated with"-VBN-0|text|1277/12||
0037.txt|MMI|0.52|Treatment Plan|C0599880|[inpr]|"Plan"-text-0-"Plan"-NNP-0|text|971/4||
0037.txt|MMI|0.52|Tumor Cell Invasion|C1269955|[neop]|"Invasion"-text-34-"invasion"-NN-0|text|5160/8||
0037.txt|MMI|0.52|Unit of radiation dose|C0560559|[qnco]|"Radiation"-text-0-"radiation"-NN-0|text|5037/9||
0037.txt|MMI|0.52|Unknown|C0439673|[qlco]|"Unknown"-text-0-"unknown"-JJ-0|text|2751/7||
0037.txt|MMI|0.52|Unknown - Administrative Gender|C1549105|[fndg]|"Unknown"-text-0-"unknown"-JJ-0|text|2751/7||
0037.txt|MMI|0.52|Unknown - Allergy Severity|C1548340|[qlco]|"Unknown"-text-0-"unknown"-JJ-0|text|2751/7||
0037.txt|MMI|0.52|Unknown - CWE statuses|C1556130|[fndg]|"Unknown"-text-0-"unknown"-JJ-0|text|2751/7||
0037.txt|MMI|0.52|Unknown - Contact Role|C1556137|[fndg]|"Unknown"-text-0-"unknown"-JJ-0|text|2751/7||
0037.txt|MMI|0.52|Unknown - Container status|C1556131|[fndg]|"Unknown"-text-0-"unknown"-JJ-0|text|2751/7||
0037.txt|MMI|0.52|Unknown - Employment Status|C1556123|[fndg]|"Unknown"-text-0-"unknown"-JJ-0|text|2751/7||
0037.txt|MMI|0.52|Unknown - Escort Required|C1556126|[fndg]|"Unknown"-text-0-"unknown"-JJ-0|text|2751/7||
0037.txt|MMI|0.52|Unknown - Ethnic Group|C1549625|[popg]|"Unknown"-text-0-"unknown"-JJ-0|text|2751/7||
0037.txt|MMI|0.52|Unknown - Event Expected|C1556134|[fndg]|"Unknown"-text-0-"unknown"-JJ-0|text|2751/7||
0037.txt|MMI|0.52|Unknown - Event reason|C1556121|[fndg]|"Unknown"-text-0-"unknown"-JJ-0|text|2751/7||
0037.txt|MMI|0.52|Unknown - Expanded yes/no indicator|C1556133|[fndg]|"unknown"-text-0-"unknown"-JJ-0|text|2751/7||
0037.txt|MMI|0.52|Unknown - HL7 update mode|C3244285|[qlco]|"Unknown"-text-0-"unknown"-JJ-0|text|2751/7||
0037.txt|MMI|0.52|Unknown - Immunization Registry Status|C1556132|[fndg]|"Unknown"-text-0-"unknown"-JJ-0|text|2751/7||
0037.txt|MMI|0.52|Unknown - Job Status|C1556128|[fndg]|"Unknown"-text-0-"unknown"-JJ-0|text|2751/7||
0037.txt|MMI|0.52|Unknown - Living Arrangement|C1556124|[fndg]|"Unknown"-text-0-"unknown"-JJ-0|text|2751/7||
0037.txt|MMI|0.52|Unknown - Living Dependency|C1556136|[fndg]|"Unknown"-text-0-"unknown"-JJ-0|text|2751/7||
0037.txt|MMI|0.52|Unknown - Living Will Code|C1548543|[inpr]|"Unknown"-text-0-"unknown"-JJ-0|text|2751/7||
0037.txt|MMI|0.52|Unknown - Notify Clergy Code|C1549064|[inpr]|"Unknown"-text-0-"unknown"-JJ-0|text|2751/7||
0037.txt|MMI|0.52|Unknown - Organ Donor Code|C1548550|[inpr]|"Unknown"-text-0-"unknown"-JJ-0|text|2751/7||
0037.txt|MMI|0.52|Unknown - Patient Class|C1556135|[fndg]|"Unknown"-text-0-"unknown"-JJ-0|text|2751/7||
0037.txt|MMI|0.52|Unknown - Patient Condition Code|C1547312|[inpr]|"Unknown"-text-0-"unknown"-JJ-0|text|2751/7||
0037.txt|MMI|0.52|Unknown - Patient Outcome|C1556127|[fndg]|"Unknown"-text-0-"unknown"-JJ-0|text|2751/7||
0037.txt|MMI|0.52|Unknown - Patient_s Relationship to Insured|C1556129|[fndg]|"Unknown"-text-0-"unknown"-JJ-0|text|2751/7||
0037.txt|MMI|0.52|Unknown - Precaution Code|C1547306|[inpr]|"Unknown"-text-0-"unknown"-JJ-0|text|2751/7||
0037.txt|MMI|0.52|Unknown - Production Class Code|C1547283|[inpr]|"Unknown"-text-0-"unknown"-JJ-0|text|2751/7||
0037.txt|MMI|0.52|Unknown - Recreational Drug Use Code|C1547294|[inpr]|"Unknown"-text-0-"unknown"-JJ-0|text|2751/7||
0037.txt|MMI|0.52|Unknown - Relationship|C1556122|[fndg]|"Unknown"-text-0-"unknown"-JJ-0|text|2751/7||
0037.txt|MMI|0.52|Unknown - Religion|C1556120|[fndg]|"Unknown"-text-0-"unknown"-JJ-0|text|2751/7||
0037.txt|MMI|0.52|Unknown - Special Program Code|C1546837|[inpr]|"Unknown"-text-0-"unknown"-JJ-0|text|2751/7||
0037.txt|MMI|0.52|Unknown - Transport Arranged|C1556125|[fndg]|"Unknown"-text-0-"unknown"-JJ-0|text|2751/7||
0037.txt|MMI|0.52|Unknown - Vaccines administered|C1548502|[imft, phsu]|"Unknown"-text-0-"unknown"-JJ-0|text|2751/7||
0037.txt|MMI|0.52|Unknown - mode of arrival code|C1561529|[ftcn]|"Unknown"-text-0-"unknown"-JJ-0|text|2751/7||
0037.txt|MMI|0.52|Unknown - publishing section|C3244284|[inpr]|"unknown"-text-0-"unknown"-JJ-0|text|2751/7||
0037.txt|MMI|0.52|Unknown Data Entry Method|C5202860|[fndg]|"Unknown"-text-0-"unknown"-JJ-0|text|2751/7||
0037.txt|MMI|0.52|Unknown Dosage Form Category|C4721936|[bodm]|"UNKNOWN"-text-0-"unknown"-JJ-0|text|2751/7||
0037.txt|MMI|0.52|Unknown GENC|C4050014|[geoa]|"UNKNOWN"-text-0-"unknown"-JJ-0|text|2751/7||
0037.txt|MMI|0.52|Unknown Mechanism of Action|C4724170|[ftcn]|"Unknown"-text-0-"unknown"-JJ-0|text|2751/7||
0037.txt|MMI|0.52|Unknown Publicity Code|C1546841|[inpr]|"Unknown"-text-0-"unknown"-JJ-0|text|2751/7||
0037.txt|MMI|0.52|Unknown Route of Drug Administration|C1521803|[ftcn]|"UNKNOWN"-text-0-"unknown"-JJ-0|text|2751/7||
0037.txt|MMI|0.52|Unknown Transformation|C4724171|[qlco]|"Unknown"-text-0-"unknown"-JJ-0|text|2751/7||
0037.txt|MMI|0.52|Until|C1720302|[inpr]|"Until"-text-0-"until"-IN-0|text|1153/5||
0037.txt|MMI|0.52|Upper|C1282910|[spco]|"Above"-text-4-"above"-IN-0|text|2180/5||
0037.txt|MMI|0.52|Upper aerodigestive tract|C1267213|[bpoc]|"Upper aerodigestive tract"-text-32-"upper aerodigestive tract"-JJ-0|text|4379/25||
0037.txt|MMI|0.52|Used by|C1273517|[fndg]|"used"-text-0-"Used"-JJ-0|text|2608/4||
0037.txt|MMI|0.52|Usual Severity Weight Loss|C4084775|[inpr]|"Weight loss"-text-12-"weight loss"-NN-0|text|2095/11||
0037.txt|MMI|0.52|Vascular|C1801960|[qlco]|"Vascular"-text-28-"vascular"-JJ-0|text|3964/8||
0037.txt|MMI|0.52|Visit|C0545082|[bhvr]|"Visits"-text-0-"visits"-NNS-0|text|2544/6||
0037.txt|MMI|0.52|Walker Usually Used|C4321304|[fndg]|"Walker"-text-0-"walker"-NN-0|text|2488/6||
0037.txt|MMI|0.52|Weakness|C3714552|[sosy]|"Weakness"-text-6-"weakness"-NN-0|text|2082/8||
0037.txt|MMI|0.52|Wedding|C0681211|[evnt]|"wed"-text-0-"WED"-NNP-0|text|5736/3||
0037.txt|MMI|0.52|Weight Loss, CTCAE|C2911645|[fndg]|"Weight loss"-text-12-"weight loss"-NN-0|text|2095/11||
0037.txt|MMI|0.52|Weight decreased|C1262477|[fndg]|"Weight Loss"-text-12-"weight loss"-NN-0|text|2095/11||
0037.txt|MMI|0.52|When (temporal qualifier)|C1948054|[tmco]|"When"-text-10-"when"-WRB-0|text|1173/4||
0037.txt|MMI|0.52|When - dosing instruction fragment|C1720477|[qlco]|"When"-text-10-"when"-WRB-0|text|1173/4||
0037.txt|MMI|0.52|antibiotics, intestinal|C3540709|[antb]|"Antibiotics"-text-2-"antibiotics"-NNS-0|text|1303/11||
0037.txt|MMI|0.52|are unit of measure|C1551058|[qnco]|"Are"-text-0-"are"-VBP-0|text|4912/3||
0037.txt|MMI|0.52|care of - AddressPartType|C1555558|[inpr]|"Care Of"-text-0-"care of"-NN-0|text|2510/7||
0037.txt|MMI|0.52|crystal healing|C0597815|[topp]|"CAM"-text-0-"CAM"-NNP-0|text|4022/3||
0037.txt|MMI|0.52|cyclophosphamide/doxorubicin/methotrexate protocol|C0054551|[topp]|"CAM"-text-0-"CAM"-NNP-0|text|4022/3||
0037.txt|MMI|0.52|day|C0439228|[tmco]|"day"-text-14-"day"-NN-0|text|1334/3||
0037.txt|MMI|0.52|dendritic spine neck|C3159206|[celc]|"neck"-text-0-"neck"-NN-0|text|3720/4||
0037.txt|MMI|0.52|disease transmission|C0242781|[patf]|"Transmitted"-text-14-"transmitted"-JJ-1|text|3069/11||
0037.txt|MMI|0.52|end - ActRelationshipCheckpoint|C1561490|[ftcn]|"end"-text-13-"End"-NN-0|text|5761/3||
0037.txt|MMI|0.52|endotracheal|C0599554|[spco]|"endotracheal"-text-0-"endotracheal"-NN-0|text|4607/12||
0037.txt|MMI|0.52|fluid - substance|C1704353|[sbst]|"Fluid"-text-4-"fluid"-NN-0|text|1862/5||
0037.txt|MMI|0.52|follow-up|C1522577|[hlca]|"Followup"-text-18-"Followup"-NNP-0|text|5580/8||
0037.txt|MMI|0.52|impression (attitude)|C0596764|[menp]|"Impression"-text-0-"IMPRESSION"-NN-0|text|3270/10||
0037.txt|MMI|0.52|lobe|C0796494|[bpoc]|"lobe"-text-0-"lobe"-NN-0|text|2986/4||
0037.txt|MMI|0.52|methylated-DNA-[protein]-cysteine S-methyltransferase activity|C1148695|[genf]|"MGMT"-text-6-"mgmt"-NN-0|text|4543/4||
0037.txt|MMI|0.52|month|C0439231|[tmco]|"Months"-text-18-"months"-NNS-0|text|2119/6||
0037.txt|MMI|0.52|peripheral blood|C0229664|[bdsu]|"Blood"-text-0-"blood"-NN-0|text|1499/5||
0037.txt|MMI|0.52|phosphate acetyltransferase activity|C1151959|[moft]|"PTA"-text-30-"PTA"-NNP-0|text|1376/3||
0037.txt|MMI|0.52|radiation absorbed dose|C0556643|[qnco]|"rad"-text-0-"Rad"-NNP-0|text|4946/3||
0037.txt|MMI|0.52|respiratory|C0521346|[ftcn]|"respiratory"-text-0-"respiratory"-JJ-0|text|4897/11||
0037.txt|MMI|0.52|ribosome-associated ubiquitin-dependent protein catabolic process|C3811628|[celf]|"RAD"-text-0-"Rad"-NNP-0|text|4946/3||
0037.txt|MMI|0.52|signed - ParticipationSignature|C1561610|[inpr]|"signed"-text-62-"Signed"-VBN-0|text|5685/6||
0037.txt|MMI|0.52|spindle cell|C0682540|[cell]|"spindle cell"-text-14-"spindle cell"-VB-0|text|4324/12||
0037.txt|MMI|0.52|transmission process|C1521797|[npop]|"Transmitted"-text-14-"transmitted"-JJ-1|text|3069/11||
0037.txt|MMI|0.52|unknown - NullFlavor|C1609613|[idcn]|"unknown"-text-0-"unknown"-JJ-0|text|2751/7||
0037.txt|MMI|0.52|unknown vaccine or immune globulin|C3541433|[imft, aapp]|"unknown"-text-0-"unknown"-JJ-0|text|2751/7||
0037.txt|MMI|0.52|upper and lower limbs|C0546099|[blor]|"Upper and lower extremity"-text-43-"upper and lower extremity"-JJ-0|text|3203/25||
0037.txt|MMI|0.52|year|C0439234|[tmco]|"years"-text-41-"years"-NNS-0|text|2271/5||
0037.txt|MMI|0.50|2 Weeks|C1442457|[tmco]|"2 Weeks"-text-0-"2 weeks"-CD-0|text|1066/7||
0037.txt|MMI|0.50|24 Hours|C1442770|[tmco]|"24 Hours"-text-0-"24 hours"-CD-0|text|5418/8||
0037.txt|MMI|0.50|24 hour time frame|C0439584|[tmco]|"24 hours"-text-0-"24 hours"-CD-0|text|5418/8||
0037.txt|MMI|0.50|3 Days|C1442459|[tmco]|"3 Days"-text-0-"3 days"-CD-0|text|1290/6||
0037.txt|MMI|0.50|3 Weeks|C1442462|[tmco]|"3 Weeks"-text-6-"3 weeks"-CD-0|text|1161/7||
0037.txt|MMI|0.50|3 times|C4035626|[fndg]|"3 times"-text-16-"3 times"-CD-0|text|900/7||
0037.txt|MMI|0.50|Abnormally high|C1299351|[qlco]|"High"-text-6-"high"-JJ-0|text|4671/4||
0037.txt|MMI|0.50|Body Fluid Discharge|C0012621|[bdsu]|"Discharge"-text-2-"Discharge"-NNP-0|text|5527/9||
0037.txt|MMI|0.50|Bothered by Night Sweats|C4084742|[inpr]|"Night sweats"-text-0-"night sweats"-NN-1|text|2057/12||
0037.txt|MMI|0.50|Breathing Distress Question|C4084858|[inpr]|"Breathing"-text-0-"breathing"-VBG-0|text|2003/9||
0037.txt|MMI|0.50|CDISC SDTM Discharge Disposition Terminology|C3541348|[inpr]|"Discharge Disposition"-text-0-"Discharge Disposition"-NNP-0|text|5470/21||
0037.txt|MMI|0.50|Certificate Status - Expired|C1549070|[idcn]|"Expired"-text-0-"Expired"-VBN-0|text|5494/7||
0037.txt|MMI|0.50|Complete Pharyngeal Contraction|C4283785|[fndg]|"Complete"-text-6-"complete"-JJ-0|text|3749/8||
0037.txt|MMI|0.50|Completed By (qualifier)|C2349181|[qlco]|"Completed By"-text-38-"Completed by"-VBN-0|text|5627/12||
0037.txt|MMI|0.50|Completion Status for valid values - Complete|C1548561|[idcn]|"Complete"-text-6-"complete"-JJ-0|text|3749/8||
0037.txt|MMI|0.50|Data operation - complete|C3853530|[ftcn]|"complete"-text-6-"complete"-JJ-0|text|3749/8||
0037.txt|MMI|0.50|Data types - Time|C1547403|[idcn]|"Time"-text-30-"time"-NN-0|text|938/4||
0037.txt|MMI|0.50|Dedicated Blood Product Donation|C4524529|[phsu]|"Dedicated"-text-0-"Dedicated"-NNP-0|text|3700/9||
0037.txt|MMI|0.50|Diagnostic|C0348026|[ftcn]|"Diagnostic"-text-4-"diagnostic"-JJ-0|text|756/10||
0037.txt|MMI|0.50|Diagnostic agents|C0358514|[irda]|"Diagnostic"-text-4-"diagnostic"-JJ-0|text|756/10||
0037.txt|MMI|0.50|Discharge date|C2361123|[tmco]|"Discharge date"-text-0-"Discharge Date"-NNP-0|text|28/14||
0037.txt|MMI|0.50|Discharge date:Time Stamp -- Date and Time:Point in time:^Patient:Quantitative|C2361122|[clna]|"Discharge date"-text-0-"Discharge Date"-NNP-0|text|28/14||
0037.txt|MMI|0.50|Discharge disposition:Type:Point in time:^Patient:Nominal|C2708314|[clna]|"Discharge disposition"-text-0-"Discharge Disposition"-NNP-0|text|5470/21||
0037.txt|MMI|0.50|Discharge instructions|C4282220|[inpr]|"Discharge instructions"-text-12-"Discharge Instructions"-NNP-0|text|5552/22||
0037.txt|MMI|0.50|Discharge instructions:Find:Pt:{Setting}:Doc:{Provider}|C3669312|[clna]|"Discharge instructions"-text-12-"Discharge Instructions"-NNP-0|text|5552/22||
0037.txt|MMI|0.50|Discharge, Body Substance, Sample|C0600083|[bdsu]|"Discharge"-text-2-"Discharge"-NNP-0|text|5527/9||
0037.txt|MMI|0.50|Discharge, body substance|C2926602|[sosy]|"Discharge"-text-2-"Discharge"-NNP-0|text|5527/9||
0037.txt|MMI|0.50|Discipline of Nursing|C0028677|[bmod]|"Nursing"-text-0-"nursing"-NN-0|text|1962/7||
0037.txt|MMI|0.50|Disposition of patient discharged|C4759848|[fndg]|"Discharge disposition"-text-0-"Discharge Disposition"-NNP-0|text|5470/21||
0037.txt|MMI|0.50|Does walk|C0600108|[fndg]|"Walks"-text-0-"Walks"-NNP-0|text|2477/5||
0037.txt|MMI|0.50|Dry cough|C0850149|[sosy]|"Dry cough"-text-28-"dry cough"-JJ-0|text|1214/9||
0037.txt|MMI|0.50|Expiration|C1704631|[idcn]|"Expired"-text-0-"Expired"-VBN-0|text|5494/7||
0037.txt|MMI|0.50|Expiration, function|C0231800|[orgf]|"Expired"-text-0-"Expired"-VBN-0|text|5494/7||
0037.txt|MMI|0.50|Extrinsic|C0205101|[spco]|"Extrinsic"-text-0-"extrinsic"-JJ-0|text|4642/9||
0037.txt|MMI|0.50|Extrinsic origin|C0595947|[ftcn]|"Extrinsic"-text-0-"extrinsic"-JJ-0|text|4642/9||
0037.txt|MMI|0.50|Finish - dosing instruction imperative|C1706059|[ftcn]|"Complete"-text-6-"complete"-JJ-0|text|3749/8||
0037.txt|MMI|0.50|High|C0205250|[qlco]|"High"-text-6-"high"-JJ-0|text|4671/4||
0037.txt|MMI|0.50|High (finding)|C5200928|[fndg]|"High"-text-6-"high"-JJ-0|text|4671/4||
0037.txt|MMI|0.50|High Level|C4321237|[fndg]|"High"-text-6-"high"-JJ-0|text|4671/4||
0037.txt|MMI|0.50|High Mitosis-Karyorrhexis Index|C3889660|[inpr]|"High"-text-6-"high"-JJ-0|text|4671/4||
0037.txt|MMI|0.50|IPSS Risk Category High|C4522209|[inpr]|"High"-text-6-"high"-JJ-0|text|4671/4||
0037.txt|MMI|0.50|IPSS-R Risk Category High|C5202936|[fndg]|"High"-text-6-"high"-JJ-0|text|4671/4||
0037.txt|MMI|0.50|Inspiration function|C0004048|[orgf]|"breathing"-text-0-"breathing"-VBG-0|text|2003/9||
0037.txt|MMI|0.50|Lengthened (qualifier value)|C0392744|[ftcn]|"Long"-text-0-"long"-JJ-0|text|5209/4||
0037.txt|MMI|0.50|Limited (extensiveness)|C0439801|[ftcn]|"Limited"-text-2-"limited"-VBN-1|text|4301/7||
0037.txt|MMI|0.50|Limited Lifting Ability|C4050251|[inpr]|"Limited"-text-2-"limited"-VBN-1|text|4301/7||
0037.txt|MMI|0.50|Limited Walking Ability|C2674459|[fndg]|"Limited"-text-2-"limited"-VBN-1|text|4301/7||
0037.txt|MMI|0.50|Limited component (foundation metadata concept)|C3542948|[inpr]|"Limited"-text-2-"limited"-VBN-1|text|4301/7||
0037.txt|MMI|0.50|Living Alone|C0439044|[fndg]|"Living Alone"-text-34-"living alone"-VBG-0|text|2455/12||
0037.txt|MMI|0.50|Location Service Code - Diagnostic|C1547424|[inpr]|"Diagnostic"-text-4-"diagnostic"-JJ-0|text|756/10||
0037.txt|MMI|0.50|Long|C0205166|[qlco]|"Long"-text-0-"long"-JJ-0|text|5209/4||
0037.txt|MMI|0.50|Long Variable|C1706317|[qlco]|"Long"-text-0-"long"-JJ-0|text|5209/4||
0037.txt|MMI|0.50|Message Waiting Priority - High|C1561958|[idcn]|"High"-text-6-"high"-JJ-0|text|4671/4||
0037.txt|MMI|0.50|NON Mouse|C1513853|[mamm]|"NON"-text-2-"non"-FW-0|text|752/3||
0037.txt|MMI|0.50|Night sweats|C0028081|[sosy]|"Night sweats"-text-0-"night sweats"-NN-1|text|2057/12||
0037.txt|MMI|0.50|North|C1709269|[spco]|"North"-text-0-"North"-NNP-0|text|1611/5||
0037.txt|MMI|0.50|Observation Value - High|C1561957|[qlco]|"High"-text-6-"high"-JJ-0|text|4671/4||
0037.txt|MMI|0.50|Phase II/III Trial|C1519042|[resa]|"2-3"-text-4-"2-3"-CD-0|text|1159/3||
0037.txt|MMI|0.50|Possible|C0332149|[fndg]|"Possible"-text-0-"possible"-JJ-0|text|5028/8||
0037.txt|MMI|0.50|Possible diagnosis|C2362652|[qlco]|"Possible"-text-0-"possible"-JJ-0|text|5028/8||
0037.txt|MMI|0.50|Possibly Related to Intervention|C1705910|[qlco]|"Possible"-text-0-"possible"-JJ-0|text|5028/8||
0037.txt|MMI|0.50|Primary|C0205225|[qlco]|"Primary"-text-0-"primary"-JJ-0|text|3475/7||
0037.txt|MMI|0.50|Primary operation|C0439631|[topp]|"Primary"-text-0-"primary"-JJ-0|text|3475/7||
0037.txt|MMI|0.50|Referral status - Expired|C1548436|[idcn]|"Expired"-text-0-"Expired"-VBN-0|text|5494/7||
0037.txt|MMI|0.50|Right|C0205090|[spco]|"Right"-text-0-"right"-JJ-0|text|628/5||
0037.txt|MMI|0.50|Right sided|C0444532|[spco]|"Right"-text-0-"right"-JJ-0|text|628/5||
0037.txt|MMI|0.50|Specimen Reject Reason - Expired|C1548771|[qlco]|"Expired"-text-0-"Expired"-VBN-0|text|5494/7||
0037.txt|MMI|0.50|Specimen Source Codes - Discharge|C1546601|[inpr]|"Discharge"-text-2-"Discharge"-NNP-0|text|5527/9||
0037.txt|MMI|0.50|Study Completed|C2348557|[ftcn]|"Completed"-text-24-"completed"-VBN-0|text|1359/9||
0037.txt|MMI|0.50|Table Cell Horizontal Align - right|C1552823|[ftcn]|"right"-text-0-"right"-JJ-0|text|628/5||
0037.txt|MMI|0.50|Time (foundation metadata concept)|C3541383|[tmco]|"Time"-text-30-"time"-NN-0|text|938/4||
0037.txt|MMI|0.50|True primary (qualifier value)|C0439612|[tmco]|"Primary"-text-0-"primary"-JJ-0|text|3475/7||
0037.txt|MMI|0.50|Value Above Reference Range|C2700149|[inpr]|"High"-text-6-"high"-JJ-0|text|4671/4||
0037.txt|MMI|0.50|Value type - Time|C1548318|[idcn]|"Time"-text-30-"time"-NN-0|text|938/4||
0037.txt|MMI|0.50|completed - ActStatus|C1556116|[idcn]|"completed"-text-24-"completed"-VBN-0|text|1359/9||
0037.txt|MMI|0.50|completed - ManagedParticipationStatus|C1556117|[idcn]|"completed"-text-24-"completed"-VBN-0|text|1359/9||
0037.txt|MMI|0.50|completed - RoleLinkStatus|C3854010|[idcn]|"completed"-text-24-"completed"-VBN-0|text|1359/9||
0037.txt|MMI|0.50|discharge diagnosis|C1555319|[fndg]|"discharge diagnosis"-text-0-"Discharge Diagnosis"-NNP-0|text|5502/19||
0037.txt|MMI|0.50|high - ActExposureLevelCode|C3887512|[idcn]|"high"-text-6-"high"-JJ-0|text|4671/4||
0037.txt|MMI|0.50|nursing therapy|C0028678|[topp]|"nursing"-text-0-"nursing"-NN-0|text|1962/7||
0037.txt|MMI|0.50|respiratory gaseous exchange in organisms|C1160636|[biof]|"breathing"-text-0-"breathing"-VBG-0|text|2003/9||
