0070.txt|MMI|696.06|Wiskott-Aldrich Syndrome|C0043194|[dsyn]|"WAS"-text-0-"was"-VBD-0,"WAS"-text-0-"was"-VBD-0,"WAS"-text-0-"was"-VBD-0,"WAS"-text-0-"was"-VBD-0,"WAS"-text-0-"was"-VBD-0,"WAS"-text-0-"was"-VBD-0,"WAS"-text-0-"was"-VBD-0,"WAS"-text-0-"was"-VBD-0,"WAS"-text-0-"was"-VBD-0,"WAS"-text-0-"was"-VBD-0,"WAS"-text-0-"was"-VBD-0,"WAS"-text-0-"was"-VBD-0,"WAS"-text-0-"was"-VBD-0,"WAS"-text-0-"was"-VBD-0,"WAS"-text-0-"was"-VBD-0,"WAS"-text-0-"was"-VBD-0,"WAS"-text-4-"was"-VBD-0,"WAS"-text-0-"was"-VBD-0,"WAS"-text-0-"was"-VBD-0,"WAS"-text-0-"was"-VBD-0,"WAS"-text-0-"was"-VBD-0,"WAS"-text-0-"was"-VBD-0,"WAS"-text-0-"was"-VBD-0,"WAS"-text-0-"was"-VBD-0,"WAS"-text-0-"was"-VBD-0,"WAS"-text-14-"was"-VBD-0,"WAS"-text-0-"was"-VBD-1,"WAS"-text-0-"was"-VBD-0,"WAS"-text-0-"was"-VBD-0,"WAS"-text-0-"was"-VBD-0,"WAS"-text-0-"was"-VBD-0,"WAS"-text-0-"was"-VBD-0,"WAS"-text-0-"was"-VBD-0,"WAS"-text-0-"was"-VBD-0,"WAS"-text-0-"was"-VBD-0,"WAS"-text-0-"was"-VBD-0,"WAS"-text-0-"was"-VBD-0,"WAS"-text-0-"was"-VBD-0,"WAS"-text-6-"was"-VBD-0,"WAS"-text-0-"was"-VBD-0,"WAS"-text-0-"was"-VBD-0,"WAS"-text-0-"was"-VBD-0,"WAS"-text-0-"was"-VBD-0|text|490/3;646/3;846/3;988/3;1057/3;1125/3;1286/3;1437/3;1595/3;1631/3;1769/3;1795/3;1820/3;1846/3;1952/3;2122/3;2150/3;2314/3;2376/3;2434/3;2459/3;2564/3;2660/3;2672/3;3144/3;3277/3;3421/3;3472/3;3566/3;3776/3;3824/3;3981/3;4117/3;4189/3;4570/3;4643/3;4748/3;4881/3;4939/3;5076/3;5176/3;5268/3;5343/3|C20.673.627.900;C15.378.553.546.605.900;C16.320.798.875;C20.673.795.875;C16.320.322.937;C15.378.463.960;C16.320.099.970;C15.378.100.100.970|
0070.txt|MMI|81.95|WAS protein, human|C1565156|[bacs, aapp]|"WAS"-text-0-"was"-VBD-0,"WAS"-text-0-"was"-VBD-0,"WAS"-text-0-"was"-VBD-0,"WAS"-text-0-"was"-VBD-0,"WAS"-text-0-"was"-VBD-0,"WAS"-text-0-"was"-VBD-0,"WAS"-text-0-"was"-VBD-0,"WAS"-text-0-"was"-VBD-0,"WAS"-text-0-"was"-VBD-0,"WAS"-text-0-"was"-VBD-0,"WAS"-text-0-"was"-VBD-0,"WAS"-text-0-"was"-VBD-0,"WAS"-text-0-"was"-VBD-0,"WAS"-text-0-"was"-VBD-0,"WAS"-text-0-"was"-VBD-0,"WAS"-text-0-"was"-VBD-0,"WAS"-text-4-"was"-VBD-0,"WAS"-text-0-"was"-VBD-0,"WAS"-text-0-"was"-VBD-0,"WAS"-text-0-"was"-VBD-0,"WAS"-text-0-"was"-VBD-0,"WAS"-text-0-"was"-VBD-0,"WAS"-text-0-"was"-VBD-0,"WAS"-text-0-"was"-VBD-0,"WAS"-text-0-"was"-VBD-0,"WAS"-text-14-"was"-VBD-0,"WAS"-text-0-"was"-VBD-1,"WAS"-text-0-"was"-VBD-0,"WAS"-text-0-"was"-VBD-0,"WAS"-text-0-"was"-VBD-0,"WAS"-text-0-"was"-VBD-0,"WAS"-text-0-"was"-VBD-0,"WAS"-text-0-"was"-VBD-0,"WAS"-text-0-"was"-VBD-0,"WAS"-text-0-"was"-VBD-0,"WAS"-text-0-"was"-VBD-0,"WAS"-text-0-"was"-VBD-0,"WAS"-text-0-"was"-VBD-0,"WAS"-text-6-"was"-VBD-0,"WAS"-text-0-"was"-VBD-0,"WAS"-text-0-"was"-VBD-0,"WAS"-text-0-"was"-VBD-0,"WAS"-text-0-"was"-VBD-0|text|490/3;646/3;846/3;988/3;1057/3;1125/3;1286/3;1437/3;1595/3;1631/3;1769/3;1795/3;1820/3;1846/3;1952/3;2122/3;2150/3;2314/3;2376/3;2434/3;2459/3;2564/3;2660/3;2672/3;3144/3;3277/3;3421/3;3472/3;3566/3;3776/3;3824/3;3981/3;4117/3;4189/3;4570/3;4643/3;4748/3;4881/3;4939/3;5076/3;5176/3;5268/3;5343/3|x.x.x.x|
0070.txt|MMI|26.29|Infarction, Posterior Cerebral Artery|C0752132|[dsyn]|"Posterior Cerebral Artery Infarction"-text-6-"posterior cerebral artery infarction"-JJ-0|text|3885/36|C23.550.717.489.250.200.475;C23.550.513.355.250.200.475;C14.907.253.560.200.418;C10.228.140.300.510.200.418;C14.907.253.092.477.200.475;C10.228.140.300.150.477.200.475;C10.228.140.300.775.200.200.475;C14.907.253.855.200.200.475|
0070.txt|MMI|22.52|WAS gene|C1421478|[gngm]|"WAS"-text-0-"was"-VBD-0,"WAS"-text-0-"was"-VBD-0,"WAS"-text-0-"was"-VBD-0,"WAS"-text-0-"was"-VBD-0,"WAS"-text-0-"was"-VBD-0,"WAS"-text-0-"was"-VBD-0,"WAS"-text-0-"was"-VBD-0,"WAS"-text-0-"was"-VBD-0,"WAS"-text-0-"was"-VBD-0,"WAS"-text-0-"was"-VBD-0,"WAS"-text-0-"was"-VBD-0,"WAS"-text-0-"was"-VBD-0,"WAS"-text-0-"was"-VBD-0,"WAS"-text-0-"was"-VBD-0,"WAS"-text-0-"was"-VBD-0,"WAS"-text-0-"was"-VBD-0,"WAS"-text-4-"was"-VBD-0,"WAS"-text-0-"was"-VBD-0,"WAS"-text-0-"was"-VBD-0,"WAS"-text-0-"was"-VBD-0,"WAS"-text-0-"was"-VBD-0,"WAS"-text-0-"was"-VBD-0,"WAS"-text-0-"was"-VBD-0,"WAS"-text-0-"was"-VBD-0,"WAS"-text-0-"was"-VBD-0,"WAS"-text-14-"was"-VBD-0,"WAS"-text-0-"was"-VBD-1,"WAS"-text-0-"was"-VBD-0,"WAS"-text-0-"was"-VBD-0,"WAS"-text-0-"was"-VBD-0,"WAS"-text-0-"was"-VBD-0,"WAS"-text-0-"was"-VBD-0,"WAS"-text-0-"was"-VBD-0,"WAS"-text-0-"was"-VBD-0,"WAS"-text-0-"was"-VBD-0,"WAS"-text-0-"was"-VBD-0,"WAS"-text-0-"was"-VBD-0,"WAS"-text-0-"was"-VBD-0,"WAS"-text-6-"was"-VBD-0,"WAS"-text-0-"was"-VBD-0,"WAS"-text-0-"was"-VBD-0,"WAS"-text-0-"was"-VBD-0,"WAS"-text-0-"was"-VBD-0|text|490/3;646/3;846/3;988/3;1057/3;1125/3;1286/3;1437/3;1595/3;1631/3;1769/3;1795/3;1820/3;1846/3;1952/3;2122/3;2150/3;2314/3;2376/3;2434/3;2459/3;2564/3;2660/3;2672/3;3144/3;3277/3;3421/3;3472/3;3566/3;3776/3;3824/3;3981/3;4117/3;4189/3;4570/3;4643/3;4748/3;4881/3;4939/3;5076/3;5176/3;5268/3;5343/3||
0070.txt|MMI|22.52|Washoe language|C1555640|[lang]|"WAS"-text-0-"was"-VBD-0,"WAS"-text-0-"was"-VBD-0,"WAS"-text-0-"was"-VBD-0,"WAS"-text-0-"was"-VBD-0,"WAS"-text-0-"was"-VBD-0,"WAS"-text-0-"was"-VBD-0,"WAS"-text-0-"was"-VBD-0,"WAS"-text-0-"was"-VBD-0,"WAS"-text-0-"was"-VBD-0,"WAS"-text-0-"was"-VBD-0,"WAS"-text-0-"was"-VBD-0,"WAS"-text-0-"was"-VBD-0,"WAS"-text-0-"was"-VBD-0,"WAS"-text-0-"was"-VBD-0,"WAS"-text-0-"was"-VBD-0,"WAS"-text-0-"was"-VBD-0,"WAS"-text-4-"was"-VBD-0,"WAS"-text-0-"was"-VBD-0,"WAS"-text-0-"was"-VBD-0,"WAS"-text-0-"was"-VBD-0,"WAS"-text-0-"was"-VBD-0,"WAS"-text-0-"was"-VBD-0,"WAS"-text-0-"was"-VBD-0,"WAS"-text-0-"was"-VBD-0,"WAS"-text-0-"was"-VBD-0,"WAS"-text-14-"was"-VBD-0,"WAS"-text-0-"was"-VBD-1,"WAS"-text-0-"was"-VBD-0,"WAS"-text-0-"was"-VBD-0,"WAS"-text-0-"was"-VBD-0,"WAS"-text-0-"was"-VBD-0,"WAS"-text-0-"was"-VBD-0,"WAS"-text-0-"was"-VBD-0,"WAS"-text-0-"was"-VBD-0,"WAS"-text-0-"was"-VBD-0,"WAS"-text-0-"was"-VBD-0,"WAS"-text-0-"was"-VBD-0,"WAS"-text-0-"was"-VBD-0,"WAS"-text-6-"was"-VBD-0,"WAS"-text-0-"was"-VBD-0,"WAS"-text-0-"was"-VBD-0,"WAS"-text-0-"was"-VBD-0,"WAS"-text-0-"was"-VBD-0|text|490/3;646/3;846/3;988/3;1057/3;1125/3;1286/3;1437/3;1595/3;1631/3;1769/3;1795/3;1820/3;1846/3;1952/3;2122/3;2150/3;2314/3;2376/3;2434/3;2459/3;2564/3;2660/3;2672/3;3144/3;3277/3;3421/3;3472/3;3566/3;3776/3;3824/3;3981/3;4117/3;4189/3;4570/3;4643/3;4748/3;4881/3;4939/3;5076/3;5176/3;5268/3;5343/3||
0070.txt|MMI|18.78|Andorra|C0002838|[geoa]|"AND"-text-32-"and"-CC-0,"AND"-text-30-"and"-CC-0,"AND"-text-0-"and"-CC-0,"AND"-text-0-"and"-CC-0,"AND"-text-40-"and"-CC-0,"AND"-text-8-"and"-CC-0,"AND"-text-0-"and"-CC-0,"AND"-text-18-"and"-CC-0,"AND"-text-22-"and"-CC-0,"AND"-text-16-"and"-CC-0,"AND"-text-4-"and"-CC-0,"AND"-text-0-"and"-CC-0,"AND"-text-0-"and"-CC-0|text|402/3;735/3;1689/3;2082/3;3052/3;3176/3;4169/3;4239/3;4384/3;4517/3;5136/3;5296/3;5356/3|Z01.542.049|
0070.txt|MMI|14.99|histidine|C0019602|[bacs, aapp, phsu]|"HIS"-text-8-"his"-PRP$-0,"HIS"-text-16-"his"-PRP$-0,"HIS"-text-12-"his"-PRP$-0,"HIS"-text-14-"his"-PRP$-0|text|664/3;686/3;1718/3;4228/3|D12.125.072.329;D12.125.142.308|
0070.txt|MMI|14.86|Accident and Emergency department|C0562508|[mnob, hcro]|"Emergency Room"-text-46-"emergency room"-NN-0,"Emergency Room"-text-10-"emergency room"-NN-0|text|435/14;546/14|N02.278.216.500.968.336;N04.452.442.452.422.336;N02.421.297.195|
0070.txt|MMI|14.80|potassium|C0032821|[bacs, elii, phsu]|"potassium"-text-6-"potassium"-NN-0|text|2222/9|D01.552.547.650;D01.268.557.575;D01.268.549.550;D01.552.528.652;D01.552.547.650;D01.268.557.575;D01.268.549.550;D01.552.528.652|
0070.txt|MMI|14.80|sodium|C0037473|[bacs, elii]|"sodium"-text-0-"sodium"-NN-0|text|2206/6|D01.268.557.650;D01.552.547.725;D01.552.528.850;D01.268.549.750;D01.268.557.650;D01.552.547.725;D01.552.528.850;D01.268.549.750|
0070.txt|MMI|14.76|Patients|C0030705|[podg]|"Patient"-text-0-"patient"-NN-0,"Patient"-text-0-"patient"-NN-0,"Patient"-text-0-"patient"-NN-0,"Patient"-text-0-"patient"-NN-0,"Patient"-text-4-"patient"-NN-0,"Patient"-text-0-"patient"-NN-0,"Patient"-text-0-"patient"-NN-0,"Patient"-text-0-"patient"-NN-0,"Patient"-text-0-"patient"-NN-0,"Patient"-text-0-"patient"-NN-0,"Patient"-text-0-"patient"-NN-0,"Patient"-text-0-"patient"-NN-0,"Patient"-text-0-"patient"-NN-0,"Patient"-text-0-"patient"-NN-0,"Patient"-text-0-"patient"-NN-0|text|306/7;838/7;980/7;1425/7;1697/7;1838/7;2022/7;3136/7;3413/7;3748/7;4109/7;4833/7;5068/7;5320/7;5430/7|M01.643|
0070.txt|MMI|13.85|X-Ray Computed Tomography|C0040405|[diap]|"CAT scan"-text-0-"CAT scan"-NN-0|text|3803/8|E01.370.350.700.700.810;E01.370.350.350.810;E01.370.350.700.810.810;E01.370.350.600.350.700.810;E01.370.350.825.810.810|
0070.txt|MMI|11.30|Eye|C0015392|[bpoc]|"Eyes"-text-8-"eyes"-NNS-0,"Eye"-text-0-"eye"-NN-0,"Eyes"-text-14-"eyes"-NNS-0,"Eyes"-text-0-"Eyes"-NNS-0|text|1472/4;1627/3;1722/4;3450/4|A09.371;A01.456.505.420|
0070.txt|MMI|11.24|Infarction|C0021308|[patf]|"Infarction"-text-65-"INFARCTION"-NNP-0,"Infarct"-text-4-"infarct"-NN-0,"Infarct"-text-0-"infarct"-NN-0|text|234/10;2949/7;4286/7|C23.550.717.489;C23.550.513.355|
0070.txt|MMI|11.18|Aspiration Pneumonia|C0032290|[dsyn]|"Aspiration Pneumonia"-text-0-"ASPIRATION PNEUMONIA"-NN-0,"Aspiration Pneumonia"-text-0-"aspiration pneumonia"-NN-0|text|250/20;5247/20|C01.748.610.529;C08.381.677.529;C08.730.610.529|
0070.txt|MMI|11.13|Pain|C0030193|[sosy]|"Pain"-text-6-"pain"-NN-0,"Pain"-text-0-"pain"-NN-0|text|2058/4;3561/4|G11.561.790.444;F02.830.816.444;C23.888.592.612|
0070.txt|MMI|11.11|Temperature|C0039476|[qnco]|"Temperature"-text-0-"temperature"-NN-0|text|3764/11|G01.906.595;N06.230.150.450;G16.500.750.775.710;G16.500.275.063.725.710;N06.230.300.100.725.710|
0070.txt|MMI|11.09|Patient Discharge|C0030685|[hlca]|"Discharge"-text-0-"DISCHARGE"-NN-0|text|5517/9|N04.590.233.727.210.125;E02.760.169.125;N02.421.585.169.125;E02.760.400.610;N02.421.585.400.610|
0070.txt|MMI|10.26|Magnetic Resonance Angiography|C0243032|[diap]|"MRA"-text-0-"MRA"-NNP-0,"MRA"-text-0-"MRA"-NNP-0|text|4173/3;4409/3|E01.370.370.050.500;E01.370.350.825.500.500|
0070.txt|MMI|10.19|Bilirubin|C0005437|[bacs, orch]|"Bilirubin"-text-8-"bilirubin"-IN-0|text|2358/9|D03.633.400.909.249.184;D04.345.783.249.184;D03.383.129.578.840.249.184;D23.767.193.184|
0070.txt|MMI|10.19|GAG Gene|C0017346|[gngm]|"GAG"-text-0-"Gag"-NNP-0|text|1765/3|G05.360.340.024.340.364.875.258;G05.360.340.358.840.500.258;G05.360.340.358.024.875.258|
0070.txt|MMI|10.19|Troponin I|C0077401|[bacs, aapp]|"Troponin I"-text-0-"Troponin I"-NNP-0|text|2423/10|D05.500.945.925;D12.776.220.525.825.925;D12.776.210.500.910.925;D05.750.078.730.825.925|
0070.txt|MMI|9.33|Pupil|C0034121|[bpoc]|"Pupils"-text-0-"Pupils"-NNS-0,"Pupillary"-text-0-"pupillary"-NN-0|text|1541/6;1602/9|A09.371.894.513.780;A09.371.060.450.780|
0070.txt|MMI|9.29|air|C3536832|[inch, phsu]|"air"-text-2-"air"-NN-0,"air"-text-0-"air"-NN-0|text|1165/3;3332/3|G16.500.275.063.150;N06.230.300.100.150|
0070.txt|MMI|9.27|Risk|C0035647|[idcn]|"Risk of"-text-0-"risk of"-NN-0|text|5208/7|G17.680.750;N06.850.520.830.600.800;N05.715.360.750.625.700;E05.318.740.600.800|
0070.txt|MMI|9.27|cefotaxime|C0007554|[antb, orch]|"cefotaxime"-text-0-"Cefotaxime"-NNP-0|text|5285/10|D03.633.100.300.249.190.190;D02.065.589.099.249.190.190;D02.886.665.074.190.190|
0070.txt|MMI|8.41|Cerebrovascular accident|C0038454|[dsyn]|"Cerebrovascular accident"-text-12-"CEREBROVASCULAR ACCIDENT"-NN-0,"Stroke"-text-16-"stroke"-NN-0|text|62/24;4232/6|C14.907.253.855;C10.228.140.300.775|
0070.txt|MMI|8.41|Electrocardiography|C1623258|[diap]|"EKG"-text-0-"EKG"-NNP-0,"EKG"-text-0-"EKG"-NNP-0|text|2696/3;3713/3|E01.370.405.240;E01.370.370.380.240|
0070.txt|MMI|8.35|Sinus Tachycardia|C0039239|[dsyn]|"Sinus Tachycardia"-text-0-"sinus tachycardia"-IN-0|text|3724/17|C14.280.123.875.880.845;C23.550.073.845.880.845;C14.280.067.845.880.845|
0070.txt|MMI|8.35|daunorubicin|C0011015|[antb, orch]|"DNR"-text-6-"DNR"-NNP-0|text|5384/3|D04.615.562.050.200;D09.408.051.059.200;D02.455.426.559.847.562.050.200|
0070.txt|MMI|7.85|Disabled Person Code - Patient|C1578486|[inpr]|"Patient"-text-0-"patient"-NN-0,"Patient"-text-0-"patient"-NN-0,"Patient"-text-0-"patient"-NN-0,"Patient"-text-0-"patient"-NN-0,"Patient"-text-4-"patient"-NN-0,"Patient"-text-0-"patient"-NN-0,"Patient"-text-0-"patient"-NN-0,"Patient"-text-0-"patient"-NN-0,"Patient"-text-0-"patient"-NN-0,"Patient"-text-0-"patient"-NN-0,"Patient"-text-0-"patient"-NN-0,"Patient"-text-0-"patient"-NN-0,"Patient"-text-0-"patient"-NN-0,"Patient"-text-0-"patient"-NN-0,"Patient"-text-0-"patient"-NN-0|text|306/7;838/7;980/7;1425/7;1697/7;1838/7;2022/7;3136/7;3413/7;3748/7;4109/7;4833/7;5068/7;5320/7;5430/7||
0070.txt|MMI|7.85|Mail Claim Party - Patient|C1578481|[idcn]|"Patient"-text-0-"patient"-NN-0,"Patient"-text-0-"patient"-NN-0,"Patient"-text-0-"patient"-NN-0,"Patient"-text-0-"patient"-NN-0,"Patient"-text-4-"patient"-NN-0,"Patient"-text-0-"patient"-NN-0,"Patient"-text-0-"patient"-NN-0,"Patient"-text-0-"patient"-NN-0,"Patient"-text-0-"patient"-NN-0,"Patient"-text-0-"patient"-NN-0,"Patient"-text-0-"patient"-NN-0,"Patient"-text-0-"patient"-NN-0,"Patient"-text-0-"patient"-NN-0,"Patient"-text-0-"patient"-NN-0,"Patient"-text-0-"patient"-NN-0|text|306/7;838/7;980/7;1425/7;1697/7;1838/7;2022/7;3136/7;3413/7;3748/7;4109/7;4833/7;5068/7;5320/7;5430/7||
0070.txt|MMI|7.85|Relationship modifier - Patient|C1578484|[idcn]|"Patient"-text-0-"patient"-NN-0,"Patient"-text-0-"patient"-NN-0,"Patient"-text-0-"patient"-NN-0,"Patient"-text-0-"patient"-NN-0,"Patient"-text-4-"patient"-NN-0,"Patient"-text-0-"patient"-NN-0,"Patient"-text-0-"patient"-NN-0,"Patient"-text-0-"patient"-NN-0,"Patient"-text-0-"patient"-NN-0,"Patient"-text-0-"patient"-NN-0,"Patient"-text-0-"patient"-NN-0,"Patient"-text-0-"patient"-NN-0,"Patient"-text-0-"patient"-NN-0,"Patient"-text-0-"patient"-NN-0,"Patient"-text-0-"patient"-NN-0|text|306/7;838/7;980/7;1425/7;1697/7;1838/7;2022/7;3136/7;3413/7;3748/7;4109/7;4833/7;5068/7;5320/7;5430/7||
0070.txt|MMI|7.85|Report source - Patient|C1578483|[idcn]|"Patient"-text-0-"patient"-NN-0,"Patient"-text-0-"patient"-NN-0,"Patient"-text-0-"patient"-NN-0,"Patient"-text-0-"patient"-NN-0,"Patient"-text-4-"patient"-NN-0,"Patient"-text-0-"patient"-NN-0,"Patient"-text-0-"patient"-NN-0,"Patient"-text-0-"patient"-NN-0,"Patient"-text-0-"patient"-NN-0,"Patient"-text-0-"patient"-NN-0,"Patient"-text-0-"patient"-NN-0,"Patient"-text-0-"patient"-NN-0,"Patient"-text-0-"patient"-NN-0,"Patient"-text-0-"patient"-NN-0,"Patient"-text-0-"patient"-NN-0|text|306/7;838/7;980/7;1425/7;1697/7;1838/7;2022/7;3136/7;3413/7;3748/7;4109/7;4833/7;5068/7;5320/7;5430/7||
0070.txt|MMI|7.85|Specimen Source Codes - Patient|C1578485|[inpr]|"Patient"-text-0-"patient"-NN-0,"Patient"-text-0-"patient"-NN-0,"Patient"-text-0-"patient"-NN-0,"Patient"-text-0-"patient"-NN-0,"Patient"-text-4-"patient"-NN-0,"Patient"-text-0-"patient"-NN-0,"Patient"-text-0-"patient"-NN-0,"Patient"-text-0-"patient"-NN-0,"Patient"-text-0-"patient"-NN-0,"Patient"-text-0-"patient"-NN-0,"Patient"-text-0-"patient"-NN-0,"Patient"-text-0-"patient"-NN-0,"Patient"-text-0-"patient"-NN-0,"Patient"-text-0-"patient"-NN-0,"Patient"-text-0-"patient"-NN-0|text|306/7;838/7;980/7;1425/7;1697/7;1838/7;2022/7;3136/7;3413/7;3748/7;4109/7;4833/7;5068/7;5320/7;5430/7||
0070.txt|MMI|7.85|Specimen Type - Patient|C1550655|[bdsu]|"Patient"-text-0-"patient"-NN-0,"Patient"-text-0-"patient"-NN-0,"Patient"-text-0-"patient"-NN-0,"Patient"-text-0-"patient"-NN-0,"Patient"-text-4-"patient"-NN-0,"Patient"-text-0-"patient"-NN-0,"Patient"-text-0-"patient"-NN-0,"Patient"-text-0-"patient"-NN-0,"Patient"-text-0-"patient"-NN-0,"Patient"-text-0-"patient"-NN-0,"Patient"-text-0-"patient"-NN-0,"Patient"-text-0-"patient"-NN-0,"Patient"-text-0-"patient"-NN-0,"Patient"-text-0-"patient"-NN-0,"Patient"-text-0-"patient"-NN-0|text|306/7;838/7;980/7;1425/7;1697/7;1838/7;2022/7;3136/7;3413/7;3748/7;4109/7;4833/7;5068/7;5320/7;5430/7||
0070.txt|MMI|7.85|Veterinary Patient|C1705908|[orgm]|"Patient"-text-0-"patient"-NN-0,"Patient"-text-0-"patient"-NN-0,"Patient"-text-0-"patient"-NN-0,"Patient"-text-0-"patient"-NN-0,"Patient"-text-4-"patient"-NN-0,"Patient"-text-0-"patient"-NN-0,"Patient"-text-0-"patient"-NN-0,"Patient"-text-0-"patient"-NN-0,"Patient"-text-0-"patient"-NN-0,"Patient"-text-0-"patient"-NN-0,"Patient"-text-0-"patient"-NN-0,"Patient"-text-0-"patient"-NN-0,"Patient"-text-0-"patient"-NN-0,"Patient"-text-0-"patient"-NN-0,"Patient"-text-0-"patient"-NN-0|text|306/7;838/7;980/7;1425/7;1697/7;1838/7;2022/7;3136/7;3413/7;3748/7;4109/7;4833/7;5068/7;5320/7;5430/7||
0070.txt|MMI|7.43|Armenia|C0003798|[geoa]|"ARM"-text-12-"arm"-NN-0|text|1907/3|Z01.542.931.099;Z01.586.035.150;Z01.586.950.099;Z01.542.900.099|
0070.txt|MMI|6.97|Acute lymphocytic leukemia|C0023449|[neop]|"ALL"-text-0-"all"-DT-0|text|2098/3|C04.557.337.428.600;C15.604.515.560.600;C20.683.515.528.600|
0070.txt|MMI|6.97|Precursor Cell Lymphoblastic Leukemia Lymphoma|C1961102|[neop]|"ALL"-text-0-"all"-DT-0|text|2098/3|C04.557.337.428.600;C15.604.515.560.600;C20.683.515.528.600|
0070.txt|MMI|6.81|And|C1515981|[idcn]|"And"-text-32-"and"-CC-0,"And"-text-30-"and"-CC-0,"And"-text-0-"and"-CC-0,"And"-text-0-"and"-CC-0,"And"-text-40-"and"-CC-0,"And"-text-8-"and"-CC-0,"And"-text-0-"and"-CC-0,"And"-text-18-"and"-CC-0,"And"-text-22-"and"-CC-0,"And"-text-16-"and"-CC-0,"And"-text-4-"and"-CC-0,"And"-text-0-"and"-CC-0,"And"-text-0-"and"-CC-0|text|402/3;735/3;1689/3;2082/3;3052/3;3176/3;4169/3;4239/3;4384/3;4517/3;5136/3;5296/3;5356/3||
0070.txt|MMI|6.81|And - dosing instruction fragment|C1706368|[inpr]|"And"-text-32-"and"-CC-0,"And"-text-30-"and"-CC-0,"And"-text-0-"and"-CC-0,"And"-text-0-"and"-CC-0,"And"-text-40-"and"-CC-0,"And"-text-8-"and"-CC-0,"And"-text-0-"and"-CC-0,"And"-text-18-"and"-CC-0,"And"-text-22-"and"-CC-0,"And"-text-16-"and"-CC-0,"And"-text-4-"and"-CC-0,"And"-text-0-"and"-CC-0,"And"-text-0-"and"-CC-0|text|402/3;735/3;1689/3;2082/3;3052/3;3176/3;4169/3;4239/3;4384/3;4517/3;5136/3;5296/3;5356/3||
0070.txt|MMI|6.81|RelationshipConjunction - and|C1550557|[inpr]|"and"-text-32-"and"-CC-0,"and"-text-30-"and"-CC-0,"and"-text-0-"and"-CC-0,"and"-text-0-"and"-CC-0,"and"-text-40-"and"-CC-0,"and"-text-8-"and"-CC-0,"and"-text-0-"and"-CC-0,"and"-text-18-"and"-CC-0,"and"-text-22-"and"-CC-0,"and"-text-16-"and"-CC-0,"and"-text-4-"and"-CC-0,"and"-text-0-"and"-CC-0,"and"-text-0-"and"-CC-0|text|402/3;735/3;1689/3;2082/3;3052/3;3176/3;4169/3;4239/3;4384/3;4517/3;5136/3;5296/3;5356/3||
0070.txt|MMI|6.57|Family|C0015576|[famg]|"Family"-text-0-"family"-NN-0,"Family"-text-0-"family"-NN-0|text|761/6;5336/6|I01.880.853.150;F01.829.263|
0070.txt|MMI|5.65|Toes|C0040357|[bpoc]|"Toe"-text-0-"toe"-NN-0,"Toe"-text-2-"toe"-NN-0|text|2118/3;2146/3|A01.378.610.250.300.792|
0070.txt|MMI|5.59|Poverty|C0032854|[grpa]|"Poor"-text-0-"poor"-JJ-0|text|1160/4|I01.880.853.996.535;I01.880.735.634;N01.824.600|
0070.txt|MMI|5.59|Speech|C0037817|[orgf]|"Speech"-text-30-"speech"-NN-0|text|1532/6|G11.561.812;L01.559.423.676;F01.145.209.908.677|
0070.txt|MMI|5.13|Neurosurgeon|C0237427|[prog]|"Neurosurgeons"-text-0-"neurosurgeons"-NNS-0|text|4909/13|M01.526.485.810.910.750;N02.360.810.910.750|
0070.txt|MMI|5.11|Respiratory Sounds|C0035234|[clna]|"Breath sounds"-text-16-"breath sounds"-NN-0|text|3365/13|G09.772.775;C23.888.852.779;E01.370.386.720|
0070.txt|MMI|4.73|Laboratory|C0022877|[mnob, hcro]|"Laboratory"-text-0-"LABORATORY"-NNP-0,"Laboratory"-text-0-"Laboratory"-NNP-0|text|2166/10;2179/10|J03.520;N02.278.487|
0070.txt|MMI|4.73|Magnetic Resonance Imaging|C0024485|[diap]|"MRI"-text-0-"MRI"-NNP-0,"MRI"-text-0-"MRI"-NNP-0|text|4165/3;4275/3|E01.370.350.825.500|
0070.txt|MMI|4.73|World Health Organization|C0043237|[hcro]|"WHO"-text-16-"who"-WP-0,"WHO"-text-0-"who"-WP-0|text|355/3;1433/3|N03.540.514.718.800|
0070.txt|MMI|4.67|Telemetry|C0039451|[diap]|"Telemetry"-text-4-"telemetry"-NN-0|text|3162/9|E05.925;L01.178.847.675;E01.370.520.750|
0070.txt|MMI|4.67|metronidazole|C0025872|[orch, phsu]|"metronidazole"-text-2-"Metronidazole"-NNP-0|text|5300/13|D02.640.672.500;D03.383.129.308.658.500|
0070.txt|MMI|4.33|Blood Circulation|C0005775|[phsf]|"Circulation"-text-63-"CIRCULATION"-NNP-0,"Circulation"-text-24-"circulation"-NN-0,"Circulation"-text-0-"circulation"-NN-0|text|222/11;4257/11;4433/11|G09.330.100|
0070.txt|MMI|4.21|Hemoglobin|C0019046|[bacs, aapp]|"Hemoglobin"-text-0-"hemoglobin"-NN-0|text|2572/10|D12.776.422.316.762;D12.776.124.400|
0070.txt|MMI|4.19|Blood Pressure|C0005823|[orgf]|"Blood Pressure"-text-12-"blood pressure"-NN-0|text|877/14|G09.330.380.076;E01.370.600.875.249|
0070.txt|MMI|4.19|Respiratory rate|C0231832|[clna]|"Respiratory rate"-text-22-"respiratory rate"-JJ-0|text|901/16|E01.370.600.875.875;G09.772.705.730|
0070.txt|MMI|4.19|heart rate|C0018810|[clna]|"heart rate"-text-4-"heart rate"-NN-0|text|861/10|G09.330.380.500;E01.370.600.875.500|
0070.txt|MMI|3.81|BORNHOLM EYE DISEASE|C3159311|[dsyn]|"BED"-text-18-"bed"-NN-0,"BED"-text-6-"bed"-NN-0|text|690/3;3172/3|x.x.x.x|
0070.txt|MMI|3.81|Electrocardiogram|C0013798|[diap]|"EKG"-text-0-"EKG"-NNP-0,"EKG"-text-0-"EKG"-NNP-0|text|2696/3;3713/3|x.x.x.x|
0070.txt|MMI|3.81|heparin|C0019134|[bacs, orch, phsu]|"heparin"-text-14-"heparin"-NN-0,"heparin"-text-0-"Heparin"-NNP-0|text|3191/7;5168/7|D09.698.373.400|
0070.txt|MMI|3.81|tocilizumab|C1609165|[imft, aapp, phsu]|"MRA"-text-0-"MRA"-NNP-0,"MRA"-text-0-"MRA"-NNP-0|text|4173/3;4409/3|x.x.x.x|
0070.txt|MMI|3.77|Posterior pituitary disease|C0751438|[dsyn]|"Posterior"-text-61-"POSTERIOR"-NNP-0,"Posterior"-text-22-"posterior"-JJ-0|text|212/9;4247/9|x.x.x.x|
0070.txt|MMI|3.75|Neurologic Examination|C0027853|[diap]|"Neurological Examination"-text-0-"Neurological examination"-JJ-0|text|1389/24|E01.370.376.550;E01.370.600.550|
0070.txt|MMI|3.73|Blood pressure determination|C0005824|[hlca]|"blood pressure"-text-12-"blood pressure"-NN-0|text|877/14|E01.370.600.100;E01.370.370.140|
0070.txt|MMI|3.66|Presentation|C0449450|[idcn]|"Presented"-text-38-"presented"-VBD-0,"Presentation"-text-2-"presentation"-NN-0,"Presentation"-text-0-"presentation"-NN-0,"Present"-text-4-"present"-JJ-0,"Present"-text-0-"present"-JJ-0,"Present"-text-0-"present"-JJ-0,"Present"-text-0-"present"-JJ-0|text|418/9;526/12;628/12;1323/7;1743/7;1773/7;3576/7||
0070.txt|MMI|3.29|Body Temperature|C0005903|[orga]|"Temperature"-text-0-"temperature"-NN-0|text|3764/11|G07.110;E01.370.600.875.374|
0070.txt|MMI|3.29|Cerebellum|C0007765|[bpoc]|"Cerebellar"-text-28-"cerebellar"-NN-0|text|4990/10|A08.186.211.132.810.428.200|
0070.txt|MMI|3.29|Imagery|C0175631|[menp]|"visualization"-text-0-"visualization"-NN-0|text|4752/13|F04.754.462;E02.190.525.249|
0070.txt|MMI|3.29|Range of Motion, Articular|C0080078|[clna]|"Range of Motion"-text-0-"range of motion"-NN-0|text|1078/15|G11.427.760;E01.370.600.700|
0070.txt|MMI|3.29|Tongue|C0040408|[bpoc]|"Tongue"-text-0-"Tongue"-NNP-0|text|1813/6|A03.556.500.885;A14.549.885|
0070.txt|MMI|3.14|In addition to|C0332287|[ftcn]|"With"-text-48-"with"-IN-0,"With"-text-0-"with"-IN-0,"With"-text-0-"with"-IN-0,"With"-text-0-"with"-IN-0,"With"-text-0-"with"-IN-0,"With"-text-0-"with"-IN-0|text|450/4;1068/4;1155/4;1203/4;2731/4;5113/4||
0070.txt|MMI|3.14|Present|C0150312|[fndg]|"Found"-text-4-"found"-VBN-0,"Present"-text-4-"present"-JJ-0,"Present"-text-0-"present"-JJ-0,"Present"-text-0-"present"-JJ-0,"Present"-text-0-"present"-JJ-0,"Presence of"-text-16-"presence of"-NN-0|text|655/5;1323/7;1743/7;1773/7;3576/7;4064/11||
0070.txt|MMI|3.14|With - dosing instruction fragment|C1705690|[inpr]|"With"-text-48-"with"-IN-0,"With"-text-0-"with"-IN-0,"With"-text-0-"with"-IN-0,"With"-text-0-"with"-IN-0,"With"-text-0-"with"-IN-0,"With"-text-0-"with"-IN-0|text|450/4;1068/4;1155/4;1203/4;2731/4;5113/4||
0070.txt|MMI|2.89|Beds|C0004916|[mnob]|"Bed"-text-18-"bed"-NN-0,"Bed"-text-6-"bed"-NN-0|text|690/3;3172/3|E07.325.220|
0070.txt|MMI|2.89|Disease|C0012634|[dsyn]|"DIS"-text-16-"DIS"-NNPS-0,"condition"-text-0-"CONDITION"-NN-0|text|94/3;5481/9|C23.550.288|
0070.txt|MMI|2.89|Edema|C0013604|[patf]|"Edema"-text-0-"edema"-NN-1,"SWELLING"-text-30-"swelling"-VBG-0|text|1381/5;5001/8|C23.888.277|
0070.txt|MMI|2.89|Physical Examination|C0031809|[hlca]|"Physical Examination"-text-0-"PHYSICAL EXAMINATION"-NNP-0,"Examination"-text-0-"examination"-NN-0|text|811/20;3294/11|E01.370.600|
0070.txt|MMI|2.85|Hemorrhage|C0019080|[patf]|"Hemorrhage"-text-18-"hemorrhage"-NN-0,"Hemorrhage"-text-4-"hemorrhage"-NN-0|text|4076/10;5230/10|C23.550.414|
0070.txt|MMI|2.83|Alanine Transaminase|C0001899|[enzy, aapp]|"ALT"-text-0-"ALT"-NNP-0|text|2323/3|D08.811.913.477.700.100|
0070.txt|MMI|2.83|Alkaline Phosphatase|C0002059|[enzy, aapp]|"Alkaline Phosphatase"-text-2-"alkaline phosphatase"-NN-0|text|2332/20|D08.811.277.352.650.035|
0070.txt|MMI|2.83|Aspartate Transaminase|C0004002|[enzy, aapp]|"AST"-text-0-"AST"-NN-0|text|2310/3|D08.811.913.477.700.225|
0070.txt|MMI|2.51|Right|C0205090|[spco]|"Right side"-text-0-"right side"-JJ-0,"Right"-text-0-"right"-JJ-0,"Right"-text-0-"right"-JJ-0,"Right"-text-56-"right"-JJ-0,"Right"-text-16-"right"-JJ-0|text|1861/10;2140/5;2933/5;3092/5;3945/5||
0070.txt|MMI|2.37|Headache|C0018681|[sosy]|"Headache"-text-20-"headache"-NN-0|text|583/8|C23.888.592.612.441|
0070.txt|MMI|2.37|Movement|C0026649|[orgf]|"Movement"-text-0-"movement"-NN-0|text|1969/8|G07.568;G11.427.410|
0070.txt|MMI|2.37|Sternum|C0038293|[bpoc]|"Sternal"-text-16-"sternal"-JJ-0|text|1261/7|A02.835.232.570.750|
0070.txt|MMI|2.09|AKR1B10 gene|C1412323|[gngm]|"HIS"-text-8-"his"-PRP$-0,"HIS"-text-16-"his"-PRP$-0,"HIS"-text-12-"his"-PRP$-0,"HIS"-text-14-"his"-PRP$-0|text|664/3;686/3;1718/3;4228/3||
0070.txt|MMI|2.09|Butting|C0233535|[mobd]|"but"-text-0-"but"-CC-0,"but"-text-24-"but"-CC-0,"but"-text-4-"but"-CC-0,"but"-text-14-"but"-CC-1|text|1151/3;1516/3;1888/3;2981/3||
0070.txt|MMI|2.09|Histidine measurement|C0523697|[lbpr]|"HIS"-text-8-"his"-PRP$-0,"HIS"-text-16-"his"-PRP$-0,"HIS"-text-12-"his"-PRP$-0,"HIS"-text-14-"his"-PRP$-0|text|664/3;686/3;1718/3;4228/3||
0070.txt|MMI|2.09|Structure of hippocampal fissure|C0228251|[bsoj]|"his"-text-8-"his"-PRP$-0,"his"-text-16-"his"-PRP$-0,"his"-text-12-"his"-PRP$-0,"his"-text-14-"his"-PRP$-0|text|664/3;686/3;1718/3;4228/3||
0070.txt|MMI|2.09|Without|C0332288|[qlco]|"Without"-text-0-"without"-IN-0,"Without"-text-26-"without"-IN-0,"Without"-text-34-"without"-IN-0,"Without"-text-6-"without"-IN-0|text|1350/7;1520/7;2819/7;2957/7||
0070.txt|MMI|2.01|Right sided|C0444532|[spco]|"Right"-text-0-"right"-JJ-0,"Right"-text-0-"right"-JJ-0,"Right"-text-56-"right"-JJ-0,"Right"-text-16-"right"-JJ-0|text|2140/5;2933/5;3092/5;3945/5||
0070.txt|MMI|2.01|Table Cell Horizontal Align - right|C1552823|[ftcn]|"right"-text-0-"right"-JJ-0,"right"-text-0-"right"-JJ-0,"right"-text-56-"right"-JJ-0,"right"-text-16-"right"-JJ-0|text|2140/5;2933/5;3092/5;3945/5||
0070.txt|MMI|1.97|Head|C0018670|[blor]|"Head"-text-0-"head"-NN-0,"Head"-text-0-"head"-NN-0|text|3819/4;4184/4|A01.456|
0070.txt|MMI|1.90|Abdominal Cavity|C0230168|[blor]|"Abdomen"-text-0-"Abdomen"-NNP-0|text|1278/7|A01.923.047.025|
0070.txt|MMI|1.90|Atypical Lipoma|C1266129|[neop]|"ALT"-text-0-"ALT"-NNP-0|text|2323/3|x.x.x.x|
0070.txt|MMI|1.90|Auscultation|C0004339|[diap]|"Auscultation"-text-0-"auscultation"-NN-0|text|1138/12|E01.370.600.060|
0070.txt|MMI|1.90|BCR protein, human|C0105421|[enzy, aapp]|"ALL"-text-0-"all"-DT-0|text|2098/3|x.x.x.x|
0070.txt|MMI|1.90|Biological Evolution|C0015219|[genf]|"Evolution"-text-0-"evolution"-NN-0|text|3862/9|G05.045;G16.075|
0070.txt|MMI|1.90|Clubbed Fingers|C0009080|[anab]|"Clubbing"-text-0-"clubbing"-VBG-1|text|1358/8|x.x.x.x|
0070.txt|MMI|1.90|Consultation|C0009818|[hlca]|"consulted"-text-0-"consulted"-VBN-0|text|4885/9|x.x.x.x|
0070.txt|MMI|1.90|Daughter|C0011011|[famg]|"Daughter"-text-10-"daughter"-NN-0|text|668/8|x.x.x.x|
0070.txt|MMI|1.90|Deafness, Sensorineural, And Male Infertility|C1970187|[dsyn]|"DIS"-text-16-"DIS"-NNPS-0|text|94/3|x.x.x.x|
0070.txt|MMI|1.90|Deidentification|C1707660|[mcha]|"DID"-text-6-"did"-VBD-0|text|1705/3|x.x.x.x|
0070.txt|MMI|1.90|Do-Not-Resuscitate Orders|C0079252|[inpr]|"DNR"-text-6-"DNR"-NNP-0|text|5384/3|x.x.x.x|
0070.txt|MMI|1.90|Forehead|C0016540|[blor]|"Forehead"-text-26-"forehead"-NN-0|text|603/8|A01.456.505.580|
0070.txt|MMI|1.90|Negative Surgical Margin|C1709157|[fndg]|"Clear"-text-0-"clear"-JJ-0|text|1129/5|x.x.x.x|
0070.txt|MMI|1.90|Olivary pretectal nucleus|C0175359|[bpoc]|"OPt"-text-2-"opt"-VB-0|text|5376/3|x.x.x.x|
0070.txt|MMI|1.90|Supine Position|C0038846|[spco]|"lying"-text-12-"lying"-VBG-0|text|677/5|G11.427.695.625|
0070.txt|MMI|1.90|Upper arm|C0446516|[blor]|"Arm"-text-12-"arm"-NN-0|text|1907/3|A01.378.800.075|
0070.txt|MMI|1.90|intensive care unit|C0021708|[mnob, hcro]|"intensive care unit"-text-10-"intensive care unit"-JJ-0|text|4140/19|N02.278.388.493|
0070.txt|MMI|1.88|Heart Sounds|C0018820|[ortf]|"Heart Sounds"-text-0-"Heart sounds"-NN-0|text|1177/12|G09.330.380.510|
0070.txt|MMI|1.88|Thyroid Function Tests|C0040130|[lbpr]|"Thyroid Function Tests"-text-0-"Thyroid function tests"-PRP$-0|text|2386/22|E01.370.374.750|
0070.txt|MMI|1.88|Vomiting|C0042963|[sosy]|"Vomiting"-text-0-"vomiting"-VBG-0|text|792/8|C23.888.821.937|
0070.txt|MMI|1.88|Wheezing|C0043144|[sosy]|"Wheezing"-text-8-"wheezing"-JJ-1|text|3347/8|x.x.x.x|
0070.txt|MMI|1.57|Acute - Triage Code|C1547229|[inpr]|"Acute"-text-50-"acute"-JJ-0,"Acute"-text-38-"acute"-JJ-0,"Acute"-text-4-"acute"-JJ-0|text|455/5;2831/5;3234/5||
0070.txt|MMI|1.57|Admission Level of Care Code - Acute|C1547295|[inpr]|"Acute"-text-50-"acute"-JJ-0,"Acute"-text-38-"acute"-JJ-0,"Acute"-text-4-"acute"-JJ-0|text|455/5;2831/5;3234/5||
0070.txt|MMI|1.57|Any|C1552551|[qlco]|"Any"-text-28-"any"-DT-0,"Any"-text-22-"any"-DT-0,"Any"-text-36-"any"-DT-0|text|1528/3;1925/3;2827/3||
0070.txt|MMI|1.57|Any Data Type|C3272371|[inpr]|"ANY"-text-28-"any"-DT-0,"ANY"-text-22-"any"-DT-0,"ANY"-text-36-"any"-DT-0|text|1528/3;1925/3;2827/3||
0070.txt|MMI|1.57|Bilateral|C0238767|[spco]|"Both"-text-0-"Both"-DT-0,"Bilateral"-text-24-"bilateral"-JJ-0,"Both"-text-0-"both"-DT-0|text|3586/4;4388/9;4781/4||
0070.txt|MMI|1.57|Circulatory Process|C1516559|[orgf]|"Circulation"-text-63-"CIRCULATION"-NNP-0,"Circulation"-text-24-"circulation"-NN-0,"Circulation"-text-0-"circulation"-NN-0|text|222/11;4257/11;4433/11||
0070.txt|MMI|1.57|Following|C0332282|[tmco]|"Following"-text-16-"following"-VBG-0,"Next"-text-0-"next"-JJ-0,"Following"-text-0-"following"-VBG-0|text|1488/9;3220/4;3429/9||
0070.txt|MMI|1.57|Moving|C0560560|[orgf]|"move"-text-10-"move"-VB-1,"Moving"-text-0-"moving"-VBG-0,"Moving"-text-0-"moving"-VBG-0|text|1713/4;1850/6;3476/6||
0070.txt|MMI|1.57|NR4A2 gene|C1417836|[gngm]|"NOT"-text-8-"not"-RB-0,"NOT"-text-8-"not"-RB-0,"NOT"-text-0-"not"-RB-0|text|1709/3;1898/3;3425/3||
0070.txt|MMI|1.57|Negation|C1518422|[ftcn]|"Not"-text-8-"not"-RB-0,"Not"-text-8-"not"-RB-0,"Not"-text-0-"not"-RB-0|text|1709/3;1898/3;3425/3||
0070.txt|MMI|1.57|Point|C3714763|[spco]|"Point"-text-0-"point"-NN-0,"Point"-text-0-"point"-NN-0,"Point"-text-0-"point"-NN-0|text|3314/5;3635/5;4097/5||
0070.txt|MMI|1.57|Point Name|C2347617|[qnco]|"point"-text-0-"point"-NN-0,"point"-text-0-"point"-NN-0,"point"-text-0-"point"-NN-0|text|3314/5;3635/5;4097/5||
0070.txt|MMI|1.57|Revealed|C0443289|[qlco]|"Revealed"-text-0-"revealed"-VBD-0,"Revealed"-text-0-"revealed"-VBD-0,"Revealed"-text-0-"revealed"-VBN-0|text|1414/8;2195/8;2916/8||
0070.txt|MMI|1.57|This (eukaryote)|C1080058|[euka]|"This"-text-0-"this"-DT-0,"This"-text-0-"This"-DT-0,"This"-text-0-"this"-DT-0|text|3630/4;3840/4;4092/4||
0070.txt|MMI|1.57|acute|C0205178|[tmco]|"acute"-text-50-"acute"-JJ-0,"acute"-text-38-"acute"-JJ-0,"acute"-text-4-"acute"-JJ-0|text|455/5;2831/5;3234/5||
0070.txt|MMI|1.57|acute inpatient encounter|C1551345|[hlca]|"ACUTE"-text-50-"acute"-JJ-0,"ACUTE"-text-38-"acute"-JJ-0,"ACUTE"-text-4-"acute"-JJ-0|text|455/5;2831/5;3234/5||
0070.txt|MMI|1.57|point - UnitsOfMeasure|C1552961|[qnco]|"Point"-text-0-"point"-NN-0,"Point"-text-0-"point"-NN-0,"Point"-text-0-"point"-NN-0|text|3314/5;3635/5;4097/5||
0070.txt|MMI|1.51|Left|C0205091|[spco]|"Left"-text-12-"left"-NN-0,"Left side"-text-2-"left side"-JJ-0,"Left"-text-0-"left"-JJ-0|text|1250/4;1985/9;2113/4||
0070.txt|MMI|1.44|Abdomen|C0000726|[blor]|"Abdomen"-text-0-"Abdomen"-NNP-0|text|1278/7|A01.923.047|
0070.txt|MMI|1.44|Albumins|C0001924|[bacs, aapp]|"Albumin"-text-0-"albumin"-IN-0|text|2467/7|D12.776.034|
0070.txt|MMI|1.44|Chest|C0817096|[blor]|"Chest"-text-0-"Chest"-NNP-0|text|1119/5|A01.923.761|
0070.txt|MMI|1.44|Cyanosis|C0010520|[sosy]|"Cyanosis"-text-0-"cyanosis"-NN-1|text|1369/8|C23.888.248|
0070.txt|MMI|1.44|Dietary Potassium|C0162800|[food]|"Potassium"-text-6-"potassium"-NN-0|text|2222/9|D01.745.775|
0070.txt|MMI|1.44|Face|C0015450|[blor]|"Face"-text-0-"Face"-NN-0|text|1790/4|A01.456.505|
0070.txt|MMI|1.44|Glycosaminoglycans|C0017973|[bacs, orch, phsu]|"GAG"-text-0-"Gag"-NNP-0|text|1765/3|D09.698.373|
0070.txt|MMI|1.44|Sodium, Dietary|C0037570|[food]|"Sodium"-text-0-"sodium"-NN-0|text|2206/6|D01.857.875|
0070.txt|MMI|1.44|Somnolence|C2830004|[mobd]|"Somnolent"-text-0-"somnolent"-JJ-0|text|992/9|C23.888.900|
0070.txt|MMI|1.44|Upper Extremity|C1140618|[bpoc]|"Arm"-text-12-"arm"-NN-0|text|1907/3|A01.378.800|
0070.txt|MMI|1.44|Voice|C0042939|[orgf]|"Voice"-text-12-"voice"-VB-0|text|1480/5|G09.772.925|
0070.txt|MMI|1.42|Respiration|C0035203|[phsf]|"Breathing"-text-0-"breathing"-VBG-0|text|1004/9|G09.772.705|
0070.txt|MMI|1.42|Tobacco use|C0543414|[inbe]|"Tobacco use"-text-36-"tobacco use"-NN-0|text|406/11|F01.145.958|
0070.txt|MMI|1.05|Adjacent|C0205117|[spco]|"next"-text-0-"next"-JJ-0,"Adjacent to"-text-0-"adjacent to"-JJ-0|text|3220/4;4005/11||
0070.txt|MMI|1.05|All extremities|C0278454|[bpoc]|"extremities"-text-0-"Extremities"-NNS-0,"All extremities"-text-2-"all extremities"-DT-0|text|1333/11;2039/15||
0070.txt|MMI|1.05|Aspiration pneumonitis|C1761609|[dsyn]|"Aspiration Pneumonia"-text-0-"ASPIRATION PNEUMONIA"-NN-0,"Aspiration Pneumonia"-text-0-"aspiration pneumonia"-NN-0|text|250/20;5247/20||
0070.txt|MMI|1.05|Bachelor of Education|C2346952|[inpr]|"BEd"-text-18-"bed"-NN-0,"BEd"-text-6-"bed"-NN-0|text|690/3;3172/3||
0070.txt|MMI|1.05|Before|C0332152|[tmco]|"Prior to"-text-0-"prior to"-RB-0,"Before"-text-12-"before"-RB-0|text|517/8;3538/6||
0070.txt|MMI|1.05|Both|C1706086|[qlco]|"Both"-text-0-"Both"-DT-0,"Both"-text-0-"both"-DT-0|text|3586/4;4781/4||
0070.txt|MMI|1.05|CDISC ADAS-Cog - Commands Summary Score|C3639196|[inpr]|"Commands"-text-20-"commands"-NNS-0,"Commands"-text-0-"commands"-NNS-0|text|1505/8;3439/8||
0070.txt|MMI|1.05|CYREN gene|C1824234|[gngm]|"MRI"-text-0-"MRI"-NNP-0,"MRI"-text-0-"MRI"-NNP-0|text|4165/3;4275/3||
0070.txt|MMI|1.05|Cerebellar hemisphere structure|C0228465|[bpoc]|"Cerebellar hemisphere"-text-20-"cerebellar hemisphere"-NN-0,"cerebellar hemispheres"-text-0-"cerebellar hemispheres"-NN-0|text|3951/21;4301/22||
0070.txt|MMI|1.05|Continuous|C0549178|[idcn]|"Continued"-text-0-"continued"-VBN-0,"Continued"-text-0-"continued"-VBD-0|text|3852/9;4841/9||
0070.txt|MMI|1.05|Coverage level - Family|C3244301|[inpr]|"Family"-text-0-"family"-NN-0,"Family"-text-0-"family"-NN-0|text|761/6;5336/6||
0070.txt|MMI|1.05|Daily|C0332173|[tmco]|"Day"-text-0-"day"-NN-0,"Day"-text-0-"day"-NN-0|text|621/3;3225/3||
0070.txt|MMI|1.05|Decompensation|C0231187|[fndg]|"Decompensation"-text-6-"decompensation"-NN-0,"Decompensation"-text-46-"decompensation"-NN-1|text|3240/14;5047/14||
0070.txt|MMI|1.05|Diagnostic Service Section ID - Laboratory|C1571737|[inpr]|"Laboratory"-text-0-"LABORATORY"-NNP-0,"Laboratory"-text-0-"Laboratory"-NNP-0|text|2166/10;2179/10||
0070.txt|MMI|1.05|Discontinued|C1444662|[fndg]|"DIS"-text-16-"DIS"-NNPS-0,"Discontinued"-text-0-"discontinued"-VBN-0|text|94/3;5180/12||
0070.txt|MMI|1.05|Encounter Referral Source - emergency room|C1546435|[idcn]|"Emergency room"-text-46-"emergency room"-NN-0,"Emergency room"-text-10-"emergency room"-NN-0|text|435/14;546/14||
0070.txt|MMI|1.05|Entire head|C1281590|[bpoc]|"Head"-text-0-"head"-NN-0,"Head"-text-0-"head"-NN-0|text|3819/4;4184/4||
0070.txt|MMI|1.05|Entire toe|C1281589|[bpoc]|"Toe"-text-0-"toe"-NN-0,"Toe"-text-2-"toe"-NN-0|text|2118/3;2146/3||
0070.txt|MMI|1.05|Entity Name Part Type - family|C1546847|[idcn]|"family"-text-0-"family"-NN-0,"family"-text-0-"family"-NN-0|text|761/6;5336/6||
0070.txt|MMI|1.05|Entry (data)|C1705654|[inpr]|"Entry"-text-4-"entry"-NN-0,"Entry"-text-2-"entry"-NN-0|text|1169/5;3336/5||
0070.txt|MMI|1.05|Extent|C0439792|[spco]|"Extending"-text-10-"extending"-VBG-0,"Extent of"-text-12-"extent of"-NN-0|text|3926/9;4218/9||
0070.txt|MMI|1.05|Facilitated oscillatory release technique|C1562169|[topp]|"FOR"-text-20-"for"-IN-0,"FOR"-text-4-"for"-IN-0|text|1921/3;5380/3||
0070.txt|MMI|1.05|Family (taxonomic)|C1704727|[cnce]|"Family"-text-0-"family"-NN-0,"Family"-text-0-"family"-NN-0|text|761/6;5336/6||
0070.txt|MMI|1.05|Family Collection|C2700055|[clas]|"Family"-text-0-"family"-NN-0,"Family"-text-0-"family"-NN-0|text|761/6;5336/6||
0070.txt|MMI|1.05|Flow|C0806140|[npop]|"Flow"-text-0-"flow"-NN-0,"Flow"-text-0-"flow"-NN-0|text|4662/4;4769/4||
0070.txt|MMI|1.05|Good|C0205170|[qlco]|"Well"-text-0-"well"-RB-0,"Good"-text-0-"good"-JJ-0|text|494/4;3327/4||
0070.txt|MMI|1.05|Head - Component of Device|C1706305|[mnob]|"Head"-text-0-"head"-NN-0,"Head"-text-0-"head"-NN-0|text|3819/4;4184/4||
0070.txt|MMI|1.05|Laboratory domain|C3244292|[ftcn]|"laboratory"-text-0-"LABORATORY"-NNP-0,"laboratory"-text-0-"Laboratory"-NNP-0|text|2166/10;2179/10||
0070.txt|MMI|1.05|Laboratory observation|C4283904|[lbtr]|"Laboratory"-text-0-"LABORATORY"-NNP-0,"Laboratory"-text-0-"Laboratory"-NNP-0|text|2166/10;2179/10||
0070.txt|MMI|1.05|Laboratory:-:Point in time:^Patient:-|C2598148|[clna]|"Laboratory"-text-0-"LABORATORY"-NNP-0,"Laboratory"-text-0-"Laboratory"-NNP-0|text|2166/10;2179/10||
0070.txt|MMI|1.05|Last Name|C1301584|[inpr]|"family"-text-0-"family"-NN-0,"family"-text-0-"family"-NN-0|text|761/6;5336/6||
0070.txt|MMI|1.05|Living Arrangement - Family|C1563343|[idcn]|"Family"-text-0-"family"-NN-0,"Family"-text-0-"family"-NN-0|text|761/6;5336/6||
0070.txt|MMI|1.05|MRI-Based Angiogram|C3891069|[lbtr]|"MRA"-text-0-"MRA"-NNP-0,"MRA"-text-0-"MRA"-NNP-0|text|4173/3;4409/3||
0070.txt|MMI|1.05|Magnetic Resonance Imaging Study File|C3890166|[inpr]|"MRI"-text-0-"MRI"-NNP-0,"MRI"-text-0-"MRI"-NNP-0|text|4165/3;4275/3||
0070.txt|MMI|1.05|Maori Language|C0376248|[lang]|"MRI"-text-0-"MRI"-NNP-0,"MRI"-text-0-"MRI"-NNP-0|text|4165/3;4275/3||
0070.txt|MMI|1.05|Mild (qualifier value)|C2945599|[qlco]|"Minimal"-text-0-"minimal"-JJ-0,"Mildly"-text-0-"mildly"-RB-0|text|1961/7;4647/6||
0070.txt|MMI|1.05|Occipital|C1184145|[blor]|"Occipital"-text-8-"OCCIPITAL"-JJ-0,"Occipital"-text-2-"occipital"-NN-0|text|52/9;2939/9||
0070.txt|MMI|1.05|Patient Location - Bed|C1547114|[spco]|"Bed"-text-18-"bed"-NN-0,"Bed"-text-6-"bed"-NN-0|text|690/3;3172/3||
0070.txt|MMI|1.05|Precision - day|C1561539|[idcn]|"day"-text-0-"day"-NN-0,"day"-text-0-"day"-NN-0|text|621/3;3225/3||
0070.txt|MMI|1.05|Preposition For|C0521125|[qlco]|"For"-text-20-"for"-IN-0,"For"-text-4-"for"-IN-0|text|1921/3;5380/3||
0070.txt|MMI|1.05|Referral type - Laboratory|C1548427|[inpr]|"Laboratory"-text-0-"LABORATORY"-NNP-0,"Laboratory"-text-0-"Laboratory"-NNP-0|text|2166/10;2179/10||
0070.txt|MMI|1.05|Signature|C1519316|[inpr]|"Signed"-text-14-"Signed"-NNP-0,"Signed"-text-36-"Signed"-VBN-0|text|87/6;142/6||
0070.txt|MMI|1.05|Status post|C0231290|[tmco]|"Following"-text-16-"following"-VBG-0,"Following"-text-0-"following"-VBG-0|text|1488/9;3429/9||
0070.txt|MMI|1.05|Symmetrical|C0332516|[fndg]|"Symmetrical"-text-0-"symmetrical"-JJ-0,"Symmetrical"-text-0-"symmetrical"-JJ-0|text|1799/11;2086/11||
0070.txt|MMI|1.05|Then|C1883708|[tmco]|"Then"-text-2-"then"-RB-0,"Next"-text-0-"next"-JJ-0|text|650/4;3220/4||
0070.txt|MMI|1.05|Transaction counts and value totals - day|C1561538|[inpr]|"day"-text-0-"day"-NN-0,"day"-text-0-"day"-NN-0|text|621/3;3225/3||
0070.txt|MMI|1.05|Treating|C1522326|[ftcn]|"treated"-text-0-"treated"-VBN-0,"treated with"-text-0-"treated with"-VBN-0|text|5090/7;5272/12||
0070.txt|MMI|1.05|WAS A|C1278569|[ftcn]|"WAS A"-text-0-"was a"-VBD-0,"WAS A"-text-0-"was a"-VBD-0|text|1652/5;4597/5||
0070.txt|MMI|1.05|WHO Temperature/Humidity Storage Condition|C3272598|[qlco]|"WHO"-text-16-"who"-WP-0,"WHO"-text-0-"who"-WP-0|text|355/3;1433/3||
0070.txt|MMI|1.05|WWOX gene|C1421525|[gngm]|"FOR"-text-20-"for"-IN-0,"FOR"-text-4-"for"-IN-0|text|1921/3;5380/3||
0070.txt|MMI|1.05|WWOX wt Allele|C4321252|[gngm]|"FOR"-text-20-"for"-IN-0,"FOR"-text-4-"for"-IN-0|text|1921/3;5380/3||
0070.txt|MMI|1.05|day|C0439228|[tmco]|"day"-text-0-"day"-NN-0,"day"-text-0-"day"-NN-0|text|621/3;3225/3||
0070.txt|MMI|1.05|entry - ActClass|C1555714|[idcn]|"entry"-text-4-"entry"-NN-0,"entry"-text-2-"entry"-NN-0|text|1169/5;3336/5||
0070.txt|MMI|1.05|entry - ActRelationshipCheckpoint|C1550548|[ftcn]|"entry"-text-4-"entry"-NN-0,"entry"-text-2-"entry"-NN-0|text|1169/5;3336/5||
0070.txt|MMI|1.05|heparin, porcine|C0770546|[bacs, orch, phsu]|"Heparin"-text-14-"heparin"-NN-0,"Heparin"-text-0-"Heparin"-NNP-0|text|3191/7;5168/7||
0070.txt|MMI|1.05|signed - ParticipationSignature|C1561610|[inpr]|"signed"-text-14-"Signed"-NNP-0,"signed"-text-36-"Signed"-VBN-0|text|87/6;142/6||
0070.txt|MMI|1.01|1 (finding)|C5201140|[fndg]|"One"-text-0-"one"-CD-0,"One"-text-0-"one"-CD-0|text|777/3;1208/3||
0070.txt|MMI|1.01|ACUTE INSULIN RESPONSE|C1866503|[fndg]|"AIR"-text-2-"air"-NN-0,"AIR"-text-0-"air"-NN-0|text|1165/3;3332/3||
0070.txt|MMI|1.01|AI/RHEUM|C1140091|[inpr]|"AIR"-text-2-"air"-NN-0,"AIR"-text-0-"air"-NN-0|text|1165/3;3332/3||
0070.txt|MMI|1.01|AIRN gene|C2681903|[gngm]|"AIR"-text-2-"air"-NN-0,"AIR"-text-0-"air"-NN-0|text|1165/3;3332/3||
0070.txt|MMI|1.01|Administration Method - Pain|C1549543|[ftcn]|"Pain"-text-6-"pain"-NN-0,"Pain"-text-0-"pain"-NN-0|text|2058/4;3561/4||
0070.txt|MMI|1.01|Adverse Event Associated with Pain|C1557397|[fndg]|"PAIN"-text-6-"pain"-NN-0,"PAIN"-text-0-"pain"-NN-0|text|2058/4;3561/4||
0070.txt|MMI|1.01|Air (substance)|C0001861|[sbst]|"Air"-text-2-"air"-NN-0,"Air"-text-0-"air"-NN-0|text|1165/3;3332/3||
0070.txt|MMI|1.01|Dorsal|C0205095|[spco]|"Posterior"-text-61-"POSTERIOR"-NNP-0,"Posterior"-text-22-"posterior"-JJ-0|text|212/9;4247/9||
0070.txt|MMI|1.01|Feel Pain|C4554132|[inpr]|"Pain"-text-6-"pain"-NN-0,"Pain"-text-0-"pain"-NN-0|text|2058/4;3561/4||
0070.txt|MMI|1.01|Frequency of Pain Question|C0518090|[inpr]|"Pain"-text-6-"pain"-NN-0,"Pain"-text-0-"pain"-NN-0|text|2058/4;3561/4||
0070.txt|MMI|1.01|Have Pain|C2984058|[inpr]|"Pain"-text-6-"pain"-NN-0,"Pain"-text-0-"pain"-NN-0|text|2058/4;3561/4||
0070.txt|MMI|1.01|How Much Distress Pain|C4085212|[inpr]|"Pain"-text-6-"pain"-NN-0,"Pain"-text-0-"pain"-NN-0|text|2058/4;3561/4||
0070.txt|MMI|1.01|How Often Felt Normal question|C4553972|[inpr]|"Normal"-text-0-"normal"-JJ-0,"Normal"-text-4-"normal"-JJ-0|text|2414/6;2738/6||
0070.txt|MMI|1.01|Left sided|C0443246|[spco]|"Left"-text-12-"left"-NN-0,"Left"-text-0-"left"-JJ-0|text|1250/4;2113/4||
0070.txt|MMI|1.01|Normal|C0205307|[qlco]|"Normal"-text-0-"normal"-JJ-0,"Normal"-text-4-"normal"-JJ-0|text|2414/6;2738/6||
0070.txt|MMI|1.01|Normal Gait|C5200925|[fndg]|"Normal"-text-0-"normal"-JJ-0,"Normal"-text-4-"normal"-JJ-0|text|2414/6;2738/6||
0070.txt|MMI|1.01|Normal Immune Presence|C5202633|[fndg]|"Normal"-text-0-"normal"-JJ-0,"Normal"-text-4-"normal"-JJ-0|text|2414/6;2738/6||
0070.txt|MMI|1.01|Normal Observation Interpretation|C1550457|[fndg]|"Normal"-text-0-"normal"-JJ-0,"Normal"-text-4-"normal"-JJ-0|text|2414/6;2738/6||
0070.txt|MMI|1.01|Normal Reference Range|C2698497|[inpr]|"Normal"-text-0-"normal"-JJ-0,"Normal"-text-4-"normal"-JJ-0|text|2414/6;2738/6||
0070.txt|MMI|1.01|Normal assessment finding|C1873497|[fndg]|"Normal"-text-0-"normal"-JJ-0,"Normal"-text-4-"normal"-JJ-0|text|2414/6;2738/6||
0070.txt|MMI|1.01|Normal, Unit of Concentration|C1704701|[qnco]|"Normal"-text-0-"normal"-JJ-0,"Normal"-text-4-"normal"-JJ-0|text|2414/6;2738/6||
0070.txt|MMI|1.01|One|C0205447|[qnco]|"One"-text-0-"one"-CD-0,"One"-text-0-"one"-CD-0|text|777/3;1208/3||
0070.txt|MMI|1.01|Open|C0175566|[spco]|"Opening"-text-6-"opening"-VBG-0,"Patency of"-text-4-"patency of"-NN-0|text|1464/7;4464/10||
0070.txt|MMI|1.01|Pain Distress Question|C4085211|[inpr]|"Pain"-text-6-"pain"-NN-0,"Pain"-text-0-"pain"-NN-0|text|2058/4;3561/4||
0070.txt|MMI|1.01|Pain by Anatomic Descriptor, CTCAE|C1882272|[fndg]|"Pain"-text-6-"pain"-NN-0,"Pain"-text-0-"pain"-NN-0|text|2058/4;3561/4||
0070.txt|MMI|1.01|Pain, CTCAE|C4553004|[fndg]|"Pain"-text-6-"pain"-NN-0,"Pain"-text-0-"pain"-NN-0|text|2058/4;3561/4||
0070.txt|MMI|1.01|Pain:-:Point in time:^Patient:-|C2598155|[clna]|"Pain"-text-6-"pain"-NN-0,"Pain"-text-0-"pain"-NN-0|text|2058/4;3561/4||
0070.txt|MMI|1.01|Skin appearance normal (finding)|C0558145|[fndg]|"NORMAL"-text-0-"normal"-JJ-0,"NORMAL"-text-4-"normal"-JJ-0|text|2414/6;2738/6||
0070.txt|MMI|1.01|Table Cell Horizontal Align - left|C1552822|[ftcn]|"left"-text-12-"left"-NN-0,"left"-text-0-"left"-JJ-0|text|1250/4;2113/4||
0070.txt|MMI|1.01|Usual Severity Pain|C4085210|[inpr]|"Pain"-text-6-"pain"-NN-0,"Pain"-text-0-"pain"-NN-0|text|2058/4;3561/4||
0070.txt|MMI|1.01|normal Act Status|C1553386|[inpr]|"normal"-text-0-"normal"-JJ-0,"normal"-text-4-"normal"-JJ-0|text|2414/6;2738/6||
0070.txt|MMI|1.01|normal Confidentiality|C1550469|[idcn]|"normal"-text-0-"normal"-JJ-0,"normal"-text-4-"normal"-JJ-0|text|2414/6;2738/6||
0070.txt|MMI|1.01|normal Device Alert Level|C1551394|[fndg]|"Normal"-text-0-"normal"-JJ-0,"Normal"-text-4-"normal"-JJ-0|text|2414/6;2738/6||
0070.txt|MMI|1.01|normal Entity Status|C1553406|[qlco]|"normal"-text-0-"normal"-JJ-0,"normal"-text-4-"normal"-JJ-0|text|2414/6;2738/6||
0070.txt|MMI|1.01|normal Managed Participation Status|C1553399|[idcn]|"normal"-text-0-"normal"-JJ-0,"normal"-text-4-"normal"-JJ-0|text|2414/6;2738/6||
0070.txt|MMI|1.01|normal Role Status|C1553402|[idcn]|"normal"-text-0-"normal"-JJ-0,"normal"-text-4-"normal"-JJ-0|text|2414/6;2738/6||
0070.txt|MMI|0.98|Lung|C0024109|[bpoc]|"Lung"-text-0-"Lung"-NNP-0|text|3289/4|A04.411|
0070.txt|MMI|0.98|Lung diseases|C0024115|[dsyn]|"Lung"-text-0-"Lung"-NNP-0|text|3289/4|C08.381|
0070.txt|MMI|0.98|Neck|C0027530|[blor]|"Neck"-text-0-"Neck"-NNP-0|text|1052/4|A01.598|
0070.txt|MMI|0.98|Neurosurgical Procedures|C0524850|[topp]|"Neurosurgery"-text-0-"Neurosurgery"-NN-0|text|4868/12|E04.525|
0070.txt|MMI|0.96|Diagnosis|C0011900|[diap]|"Diagnoses"-text-52-"DIAGNOSES"-NNP-0|text|187/9|E01;Y04|
0070.txt|MMI|0.96|Time|C0040223|[tmco]|"Time"-text-28-"time"-NN-0|text|1939/4|G01.910|
0070.txt|MMI|0.52|AKR1A1 wt Allele|C3715044|[gngm]|"ARM"-text-12-"arm"-NN-0|text|1907/3||
0070.txt|MMI|0.52|ALB gene|C1412332|[gngm]|"ALBUMIN"-text-0-"albumin"-IN-0|text|2467/7||
0070.txt|MMI|0.52|ALDOSE REDUCTASE M Gene|C1863110|[gngm]|"ARM"-text-12-"arm"-NN-0|text|1907/3||
0070.txt|MMI|0.52|ARMC9 gene|C1824218|[gngm]|"ARM"-text-12-"arm"-NN-0|text|1907/3||
0070.txt|MMI|0.52|Abdominopelvic structure|C1508499|[blor]|"Abdomen"-text-0-"Abdomen"-NNP-0|text|1278/7||
0070.txt|MMI|0.52|Academic Research Enhancement Awards|C1510751|[gora]|"AREA"-text-60-"area"-NN-0|text|3107/4||
0070.txt|MMI|0.52|Academic degree|C0542560|[inpr]|"degrees"-text-0-"degrees"-NNS-0|text|3784/7||
0070.txt|MMI|0.52|Admission date:Time Stamp -- Date and Time:Point in time:^Patient:Quantitative|C2598112|[clna]|"Admission date"-text-20-"Admission Date"-NNP-0|text|98/14||
0070.txt|MMI|0.52|Admitted to|C4482331|[hlca]|"Admitted to"-text-0-"admitted to"-VBN-0|text|3148/11||
0070.txt|MMI|0.52|Alanine aminotransferase measurement|C0201836|[lbpr]|"ALT"-text-0-"ALT"-NNP-0|text|2323/3||
0070.txt|MMI|0.52|Albumin measurement|C0201838|[lbpr]|"Albumin"-text-0-"albumin"-IN-0|text|2467/7||
0070.txt|MMI|0.52|Alkaline Phosphatase, CTCAE|C1561546|[fndg]|"Alkaline phosphatase"-text-2-"alkaline phosphatase"-NN-0|text|2332/20||
0070.txt|MMI|0.52|Alkaline phosphatase measurement|C0201850|[lbpr]|"Alkaline Phosphatase"-text-2-"alkaline phosphatase"-NN-0|text|2332/20||
0070.txt|MMI|0.52|Alkaline phosphatase stain|C1318717|[irda, orch]|"Alkaline phosphatase"-text-2-"alkaline phosphatase"-NN-0|text|2332/20||
0070.txt|MMI|0.52|All|C0444868|[qnco]|"All"-text-0-"all"-DT-0|text|2098/3||
0070.txt|MMI|0.52|Anterior thoracic region|C1527391|[blor]|"Chest"-text-0-"Chest"-NNP-0|text|1119/5||
0070.txt|MMI|0.52|Antibiotic Lock Therapy|C4553172|[topp]|"ALT"-text-0-"ALT"-NNP-0|text|2323/3||
0070.txt|MMI|0.52|Apyrexial|C0277797|[fndg]|"Afebrile"-text-0-"afebrile"-JJ-0|text|850/8||
0070.txt|MMI|0.52|Area|C0205146|[spco]|"Area"-text-60-"area"-NN-0|text|3107/4||
0070.txt|MMI|0.52|Arranged (transportation)|C1546854|[idcn]|"Arranged"-text-2-"arranged"-VBN-0|text|4193/8||
0070.txt|MMI|0.52|Aspartate aminotransferase measurement|C0201899|[lbpr]|"AST"-text-0-"AST"-NN-0|text|2310/3||
0070.txt|MMI|0.52|Asterion|C1185650|[bsoj]|"ast"-text-0-"AST"-NN-0|text|2310/3||
0070.txt|MMI|0.52|Asturian Language|C4724380|[lang]|"AST"-text-0-"AST"-NN-0|text|2310/3||
0070.txt|MMI|0.52|At home|C4534363|[fndg]|"At home"-text-2-"at home"-IN-0|text|801/7||
0070.txt|MMI|0.52|Atlantic Standard Time|C3891303|[tmco]|"AST"-text-0-"AST"-NN-0|text|2310/3||
0070.txt|MMI|0.52|Authorization Mode - Voice|C1547570|[idcn]|"Voice"-text-12-"voice"-VB-0|text|1480/5||
0070.txt|MMI|0.52|Axillary Reverse Mapping|C4761640|[diap]|"ARM"-text-12-"arm"-NN-0|text|1907/3||
0070.txt|MMI|0.52|Axis|C1522496|[spco]|"Axis"-text-6-"axis"-NN-0|text|2745/4||
0070.txt|MMI|0.52|Axis vertebra|C0004457|[bpoc]|"Axis"-text-6-"axis"-NN-0|text|2745/4||
0070.txt|MMI|0.52|BCR gene|C0812385|[gngm]|"ALL"-text-0-"all"-DT-0|text|2098/3||
0070.txt|MMI|0.52|BCR wt Allele|C1704799|[gngm]|"ALL"-text-0-"all"-DT-0|text|2098/3||
0070.txt|MMI|0.52|Bed Status - Closed|C1548219|[idcn]|"Closed"-text-0-"closed"-VBN-0|text|3460/6||
0070.txt|MMI|0.52|Before - dosing instruction fragment|C1705850|[inpr]|"Before"-text-12-"before"-RB-0|text|3538/6||
0070.txt|MMI|0.52|Bilirubin, total measurement|C0201913|[lbpr]|"Bilirubin"-text-8-"bilirubin"-IN-0|text|2358/9||
0070.txt|MMI|0.52|Biphasic|C0205184|[tmco]|"Biphasic"-text-20-"biphasic"-JJ-0|text|2790/8||
0070.txt|MMI|0.52|Blood gas|C0150479|[ortf]|"Blood gas"-text-0-"blood gas"-NN-0|text|3617/9||
0070.txt|MMI|0.52|Body Site Modifier - Lower|C1548802|[blor]|"Lower"-text-14-"lower"-JJR-0|text|1255/5||
0070.txt|MMI|0.52|Bruit|C0006318|[fndg]|"bruits"-text-0-"bruits"-NNS-1|text|1099/6||
0070.txt|MMI|0.52|CDISC SDTM Adverse Event Outcome Terminology|C1879925|[inpr]|"OUT"-text-0-"out"-IN-0|text|1212/3||
0070.txt|MMI|0.52|Case (situation)|C0868928|[ftcn]|"Case"-text-24-"case"-NN-0|text|4982/4||
0070.txt|MMI|0.52|Case unit dose|C1533148|[qnco]|"Case"-text-24-"case"-NN-0|text|4982/4||
0070.txt|MMI|0.52|Cerebellar infarction|C0236073|[dsyn]|"Cerebellar infarction"-text-8-"cerebellar infarction"-NN-0|text|4027/21||
0070.txt|MMI|0.52|Cessation of life|C0011065|[orgf]|"Deceased"-text-0-"Deceased"-JJ-0|text|5506/8||
0070.txt|MMI|0.52|Changed status|C0443172|[qnco]|"changes"-text-40-"changes"-NNS-0|text|2837/7||
0070.txt|MMI|0.52|Changing|C0392747|[ftcn]|"changes"-text-40-"changes"-NNS-0|text|2837/7||
0070.txt|MMI|0.52|Clear|C2963144|[qlco]|"Clear"-text-0-"clear"-JJ-0|text|1129/5||
0070.txt|MMI|0.52|Clinical Study Case|C1706256|[cnce]|"Case"-text-24-"case"-NN-0|text|4982/4||
0070.txt|MMI|0.52|Closed|C0587267|[ftcn]|"Closed"-text-0-"closed"-VBN-0|text|3460/6||
0070.txt|MMI|0.52|Clubbing|C0149651|[sosy]|"Clubbing"-text-0-"clubbing"-VBG-1|text|1358/8||
0070.txt|MMI|0.52|Coarse|C0205194|[qlco]|"Coarse"-text-12-"coarse"-JJ-0|text|3358/6||
0070.txt|MMI|0.52|Comparison|C1707455|[acty]|"Compared"-text-14-"compared"-VBN-0|text|4719/8||
0070.txt|MMI|0.52|Condition|C0348080|[qlco]|"Condition"-text-0-"CONDITION"-NN-0|text|5481/9||
0070.txt|MMI|0.52|Condition Domain|C4722256|[inpr]|"CONDITION"-text-0-"CONDITION"-NN-0|text|5481/9||
0070.txt|MMI|0.52|Condition:Find:Pt:^Patient:Nom|C3864998|[clna]|"Condition"-text-0-"CONDITION"-NN-0|text|5481/9||
0070.txt|MMI|0.52|Consolidation|C0702116|[qlco]|"Consolidation"-text-2-"consolidation"-NN-0|text|2883/13||
0070.txt|MMI|0.52|Consolidation Clinical Trial Setting|C4722412|[mnob, hcro]|"CONSOLIDATION"-text-2-"consolidation"-NN-0|text|2883/13||
0070.txt|MMI|0.52|Coughing|C0010200|[sosy]|"Coughing"-text-8-"coughing"-VBG-0|text|1041/8||
0070.txt|MMI|0.52|Cyanosis, CTCAE|C4553646|[fndg]|"Cyanosis"-text-0-"cyanosis"-NN-1|text|1369/8||
0070.txt|MMI|0.52|DNR - Do not resuscitate|C0582114|[fndg]|"DNR"-text-6-"DNR"-NNP-0|text|5384/3||
0070.txt|MMI|0.52|Data|C1511726|[idcn]|"Data"-text-0-"data"-NNS-0|text|2190/4||
0070.txt|MMI|0.52|Data (eukaryote)|C3714741|[euka]|"Data"-text-0-"data"-NNS-0|text|2190/4||
0070.txt|MMI|0.52|Data call receiving device|C3245479|[medd]|"data"-text-0-"data"-NNS-0|text|2190/4||
0070.txt|MMI|0.52|Date of admission|C1302393|[tmco]|"Admission date"-text-20-"Admission Date"-NNP-0|text|98/14||
0070.txt|MMI|0.52|Deceased - ActIneligibilityReason|C1549464|[fndg]|"deceased"-text-0-"Deceased"-JJ-0|text|5506/8||
0070.txt|MMI|0.52|Deceased - Military Status|C1704456|[fndg]|"Deceased"-text-0-"Deceased"-JJ-0|text|5506/8||
0070.txt|MMI|0.52|Defect|C1457869|[ftcn]|"Defect"-text-0-"defect"-NN-0|text|1612/6||
0070.txt|MMI|0.52|Degree or extent|C0449286|[qnco]|"degrees"-text-0-"degrees"-NNS-0|text|3784/7||
0070.txt|MMI|0.52|Diagnostic interview schedule|C0451119|[inpr]|"DIS"-text-16-"DIS"-NNPS-0|text|94/3||
0070.txt|MMI|0.52|Diet Code Specification Type - Preference|C1549513|[idcn]|"Preference"-text-0-"preference"-NN-0|text|1678/10||
0070.txt|MMI|0.52|Do (activity)|C2828361|[acty]|"Did"-text-6-"did"-VBD-0|text|1705/3||
0070.txt|MMI|0.52|Do not resuscitate:Find:Pt:{Setting}:Doc:{Role}|C4285234|[clna]|"DNR"-text-6-"DNR"-NNP-0|text|5384/3||
0070.txt|MMI|0.52|Does move|C0578671|[fndg]|"move"-text-10-"move"-VB-1|text|1713/4||
0070.txt|MMI|0.52|Drowsiness|C0013144|[fndg]|"Somnolent"-text-0-"somnolent"-JJ-0|text|992/9||
0070.txt|MMI|0.52|During|C0347984|[tmco]|"Over"-text-0-"over"-IN-0|text|2102/4||
0070.txt|MMI|0.52|ELOVL6 gene|C1423759|[gngm]|"FACE"-text-0-"Face"-NN-0|text|1790/4||
0070.txt|MMI|0.52|Edema:Finding:Point in time:^Patient:Ordinal|C1717255|[clna]|"Edema"-text-0-"edema"-NN-1|text|1381/5||
0070.txt|MMI|0.52|Entire abdomen|C1281594|[bpoc]|"Abdomen"-text-0-"Abdomen"-NNP-0|text|1278/7||
0070.txt|MMI|0.52|Entire eye|C1280202|[bpoc]|"Eye"-text-0-"eye"-NN-0|text|1627/3||
0070.txt|MMI|0.52|Entire face|C1281591|[blor]|"Face"-text-0-"Face"-NN-0|text|1790/4||
0070.txt|MMI|0.52|Entire lung|C1278908|[bpoc]|"Lung"-text-0-"Lung"-NNP-0|text|3289/4||
0070.txt|MMI|0.52|Entire neck|C1281592|[bpoc]|"Neck"-text-0-"Neck"-NNP-0|text|1052/4||
0070.txt|MMI|0.52|Entire pons|C1280999|[bpoc]|"Pons"-text-26-"pons"-NNS-0|text|4398/4||
0070.txt|MMI|0.52|Entire tongue|C1278913|[bpoc]|"Tongue"-text-0-"Tongue"-NNP-0|text|1813/6||
0070.txt|MMI|0.52|Entire upper arm|C1269612|[bpoc]|"Arm"-text-12-"arm"-NN-0|text|1907/3||
0070.txt|MMI|0.52|Entire upper limb|C1269078|[bpoc]|"Arm"-text-12-"arm"-NN-0|text|1907/3||
0070.txt|MMI|0.52|Epidermal cGVHD Score 0|C4761489|[inpr]|"Clear"-text-0-"clear"-JJ-0|text|1129/5||
0070.txt|MMI|0.52|Episode of|C0332189|[tmco]|"Episode of"-text-0-"episode of"-NN-0|text|781/10||
0070.txt|MMI|0.52|Evaluation|C0220825|[hlca]|"Evaluate"-text-6-"evaluate"-VB-0|text|4205/8||
0070.txt|MMI|0.52|Evening|C0587117|[tmco]|"Evening"-text-0-"evening"-NN-0|text|509/7||
0070.txt|MMI|0.52|Examination|C4321457|[acty]|"Examination"-text-0-"examination"-NN-0|text|3294/11||
0070.txt|MMI|0.52|Exist|C2987476|[qlco]|"Being"-text-24-"being"-VBG-0|text|705/5||
0070.txt|MMI|0.52|Existential restriction modifier (core metadata concept)|C3540770|[inpr]|"Some"-text-42-"some"-DT-0|text|3056/4||
0070.txt|MMI|0.52|Extensive|C0205231|[qlco]|"Extensive"-text-59-"EXTENSIVE"-VBP-0|text|202/9||
0070.txt|MMI|0.52|Eye Specimen|C1550636|[bdsu]|"Eye"-text-0-"eye"-NN-0|text|1627/3||
0070.txt|MMI|0.52|Eye Specimen Source Code|C1546630|[inpr]|"Eye"-text-0-"eye"-NN-0|text|1627/3||
0070.txt|MMI|0.52|FANCE wt Allele|C2828055|[gngm]|"FACE"-text-0-"Face"-NN-0|text|1790/4||
0070.txt|MMI|0.52|FANCONI ANEMIA, COMPLEMENTATION GROUP E|C3160739|[dsyn]|"FACE"-text-0-"Face"-NN-0|text|1790/4||
0070.txt|MMI|0.52|Face (spatial concept)|C4284034|[qlco]|"Face"-text-0-"Face"-NN-0|text|1790/4||
0070.txt|MMI|0.52|Fluid restriction|C0204700|[topp]|"Fluid restriction"-text-2-"fluid restriction"-JJ-0|text|5118/17||
0070.txt|MMI|0.52|Fracture of second cervical vertebra|C0349013|[inpo]|"Axis"-text-6-"axis"-NN-0|text|2745/4||
0070.txt|MMI|0.52|From|C1517320|[qlco]|"From"-text-44-"from"-IN-0|text|5042/4||
0070.txt|MMI|0.52|Full|C0443225|[qlco]|"Full"-text-0-"full"-JJ-0|text|1073/4||
0070.txt|MMI|0.52|GAG (Organic Chemical)|C3669201|[orch]|"GAG"-text-0-"Gag"-NNP-0|text|1765/3||
0070.txt|MMI|0.52|GOT1 gene|C1415181|[gngm]|"AST"-text-0-"AST"-NN-0|text|2310/3||
0070.txt|MMI|0.52|Genus Axis|C0999597|[mamm]|"Axis"-text-6-"axis"-NN-0|text|2745/4||
0070.txt|MMI|0.52|Geographic Locations|C0017446|[geoa]|"Area"-text-60-"area"-NN-0|text|3107/4|Z01|
0070.txt|MMI|0.52|Graphics Visualization|C2827662|[ocdi]|"Visualization"-text-0-"visualization"-NN-0|text|4752/13||
0070.txt|MMI|0.52|Gross (qualifier value)|C0439806|[qlco]|"Gross"-text-0-"gross"-JJ-0|text|4458/5||
0070.txt|MMI|0.52|H/O: hypertension|C0455527|[fndg]|"History of hypertension"-text-30-"history of hypertension"-NN-0|text|378/23||
0070.txt|MMI|0.52|Have|C3539897|[qlco]|"Has"-text-18-"has"-VBZ-0|text|359/3||
0070.txt|MMI|0.52|Headache, CTCAE|C4553197|[fndg]|"Headache"-text-20-"headache"-NN-0|text|583/8||
0070.txt|MMI|0.52|Hemoglobin measurement|C0518015|[lbpr]|"Hemoglobin"-text-0-"hemoglobin"-NN-0|text|2572/10||
0070.txt|MMI|0.52|Hemoglobin, CTCAE|C2239101|[fndg]|"Hemoglobin"-text-0-"hemoglobin"-NN-0|text|2572/10||
0070.txt|MMI|0.52|History of present illness|C0262512|[fndg]|"History of present illness"-text-0-"HISTORY OF PRESENT ILLNESS"-NN-0|text|273/26||
0070.txt|MMI|0.52|History of present illness:Finding:Point in time:^Patient:Nominal:Reported|C0488508|[clna]|"History of Present illness"-text-0-"HISTORY OF PRESENT ILLNESS"-NN-0|text|273/26||
0070.txt|MMI|0.52|Hold (action)|C1948035|[acty]|"Hold"-text-10-"hold"-VB-0|text|1902/4||
0070.txt|MMI|0.52|Hold - dosing instruction fragment|C1553387|[inpr]|"Hold"-text-10-"hold"-VB-0|text|1902/4||
0070.txt|MMI|0.52|Hospital course|C0489547|[fndg]|"Hospital course"-text-0-"HOSPITAL COURSE"-NNP-0|text|3114/15||
0070.txt|MMI|0.52|Hospital course:Finding:Point in time:^Patient:Narrative|C0488549|[clna]|"Hospital course"-text-0-"HOSPITAL COURSE"-NNP-0|text|3114/15||
0070.txt|MMI|0.52|International Metastatic Renal Cell Carcinoma Database Consortium (IMDC) Criteria - Poor-Risk Group|C4723750|[inpr]|"Poor"-text-0-"poor"-JJ-0|text|1160/4||
0070.txt|MMI|0.52|Into|C0332286|[ftcn]|"Into"-text-12-"into"-IN-0|text|3936/4||
0070.txt|MMI|0.52|Intracranial|C0524466|[blor]|"Intracranial"-text-0-"intracranial"-JJ-0|text|4420/12||
0070.txt|MMI|0.52|Intracranial Route of Drug Administration|C1522213|[ftcn]|"Intracranial"-text-0-"intracranial"-JJ-0|text|4420/12||
0070.txt|MMI|0.52|Intracranial route|C0595850|[ftcn]|"Intracranial"-text-0-"intracranial"-JJ-0|text|4420/12||
0070.txt|MMI|0.52|Involvement with|C1314939|[ftcn]|"Involved"-text-0-"involved"-VBN-0|text|5347/8||
0070.txt|MMI|0.52|June|C3829443|[tmco]|"June"-text-4-"June"-NNP-0|text|5464/4||
0070.txt|MMI|0.52|L-alanine:2-oxoglutarate aminotransferase activity|C2257651|[moft]|"ALT"-text-0-"ALT"-NNP-0|text|2323/3||
0070.txt|MMI|0.52|LARGE1 gene|C1416798|[gngm]|"LARGE"-text-0-"large"-JJ-0|text|2927/5||
0070.txt|MMI|0.52|LITAF gene|C1424587|[gngm]|"SIMPLE"-text-18-"simple"-JJ-0|text|1498/6||
0070.txt|MMI|0.52|Language Proficiency - Poor|C1561558|[qlco]|"Poor"-text-0-"poor"-JJ-0|text|1160/4||
0070.txt|MMI|0.52|Large|C0549177|[qnco]|"Large"-text-0-"large"-JJ-0|text|2927/5||
0070.txt|MMI|0.52|Lateral ventricle, temporal horn|C0152283|[bpoc]|"Temporal Horn"-text-28-"temporal horn"-JJ-0|text|3013/13||
0070.txt|MMI|0.52|Leg up|C1293899|[diap]|"Leg up"-text-18-"leg up"-NN-0|text|1914/6||
0070.txt|MMI|0.52|Length|C1444754|[qnco]|"Length"-text-24-"length"-NN-0|text|1929/6||
0070.txt|MMI|0.52|Length of Trial|C1706316|[resa]|"LENGTH"-text-24-"length"-NN-0|text|1929/6||
0070.txt|MMI|0.52|Less Than|C0439092|[qnco]|"Less Than"-text-10-"less than"-JJR-0|text|3528/9||
0070.txt|MMI|0.52|Limb structure|C0015385|[bpoc]|"Extremities"-text-0-"Extremities"-NNS-0|text|1333/11||
0070.txt|MMI|0.52|Logical Condition|C1705253|[cnce]|"Condition"-text-0-"CONDITION"-NN-0|text|5481/9||
0070.txt|MMI|0.52|Lower (action)|C2003888|[acty]|"Lower"-text-14-"lower"-JJR-0|text|1255/5||
0070.txt|MMI|0.52|Lower - spatial qualifier|C0441994|[spco]|"Lower"-text-14-"lower"-JJR-0|text|1255/5||
0070.txt|MMI|0.52|Lung consolidation|C0521530|[dsyn]|"Consolidation"-text-2-"consolidation"-NN-0|text|2883/13||
0070.txt|MMI|0.52|MILDLY|C0750532|[qlco]|"MILDLY"-text-0-"mildly"-RB-0|text|4647/6||
0070.txt|MMI|0.52|Mass Effect|C4086564|[fndg]|"Mass Effect"-text-20-"mass effect"-NN-0|text|2994/11||
0070.txt|MMI|0.52|Median (qualifier value)|C2939193|[spco]|"Midline"-text-0-"midline"-NN-0|text|1824/7||
0070.txt|MMI|0.52|Medical Examination|C0582103|[hlca]|"Examination"-text-0-"examination"-NN-0|text|3294/11||
0070.txt|MMI|0.52|Mental Status Change|C0856054|[mobd]|"Change in mental status"-text-58-"change in mental status"-NN-0|text|461/23||
0070.txt|MMI|0.52|Microplate Well|C4283957|[spco]|"Well"-text-0-"well"-RB-0|text|494/4||
0070.txt|MMI|0.52|Midline (qualifier value)|C0549183|[spco]|"Midline"-text-0-"midline"-NN-0|text|1824/7||
0070.txt|MMI|0.52|Midline Shift|C4086580|[fndg]|"Midline Shift"-text-10-"midline shift"-NN-1|text|2965/13||
0070.txt|MMI|0.52|Minimal|C0547040|[qlco]|"Minimal"-text-0-"minimal"-JJ-0|text|1961/7||
0070.txt|MMI|0.52|Minimum|C1524031|[qlco]|"Minimal"-text-0-"minimal"-JJ-0|text|1961/7||
0070.txt|MMI|0.52|Molecular oxygen saturation|C0369768|[moft]|"Oxygen saturation"-text-32-"oxygen saturation"-NN-0|text|926/17||
0070.txt|MMI|0.52|Moved from|C1269909|[ftcn]|"move"-text-10-"move"-VB-1|text|1713/4||
0070.txt|MMI|0.52|Moved to|C1299988|[ftcn]|"move"-text-10-"move"-VB-1|text|1713/4||
0070.txt|MMI|0.52|Mycteroperca microlepis|C0328767|[fish]|"Gag"-text-0-"Gag"-NNP-0|text|1765/3||
0070.txt|MMI|0.52|Neck of pancreas|C0447556|[blor]|"Neck"-text-0-"Neck"-NNP-0|text|1052/4||
0070.txt|MMI|0.52|Neck of urinary bladder|C0227716|[bpoc]|"Neck"-text-0-"Neck"-NNP-0|text|1052/4||
0070.txt|MMI|0.52|No Effort|C5202819|[fndg]|"None"-text-0-"None"-NN-0|text|5536/4||
0070.txt|MMI|0.52|No Hand Mobility|C4050154|[inpr]|"None"-text-0-"None"-NN-0|text|5536/4||
0070.txt|MMI|0.52|No Support Needed|C4050155|[inpr]|"None"-text-0-"None"-NN-0|text|5536/4||
0070.txt|MMI|0.52|No improvement|C3844714|[fndg]|"No improvement"-text-42-"no improvement"-DT-1|text|5027/14||
0070.txt|MMI|0.52|None|C0549184|[fndg]|"None"-text-0-"None"-NN-0|text|5536/4||
0070.txt|MMI|0.52|None (no infant feeding)|C5200984|[fndg]|"None"-text-0-"None"-NN-0|text|5536/4||
0070.txt|MMI|0.52|None - Action Taken in Response to the Event|C1556148|[ftcn]|"None"-text-0-"None"-NN-0|text|5536/4||
0070.txt|MMI|0.52|None - Additive/Preservative|C1556152|[ftcn]|"None"-text-0-"None"-NN-0|text|5536/4||
0070.txt|MMI|0.52|None - ContainerSeparator|C1551387|[ftcn]|"None"-text-0-"None"-NN-0|text|5536/4||
0070.txt|MMI|0.52|None - Eligibility Source|C1556147|[idcn]|"None"-text-0-"None"-NN-0|text|5536/4||
0070.txt|MMI|0.52|None - Language Proficiency|C1556151|[ftcn]|"None"-text-0-"None"-NN-0|text|5536/4||
0070.txt|MMI|0.52|None - ObservationValue|C1556150|[idcn]|"None"-text-0-"None"-NN-0|text|5536/4||
0070.txt|MMI|0.52|None - Relationship|C1556146|[idcn]|"None"-text-0-"None"-NN-0|text|5536/4||
0070.txt|MMI|0.52|None - Sequencing|C1550437|[ftcn]|"None"-text-0-"None"-NN-0|text|5536/4||
0070.txt|MMI|0.52|None - Specimen Additive|C1550083|[inpr]|"None"-text-0-"None"-NN-0|text|5536/4||
0070.txt|MMI|0.52|None Device|C1706277|[mnob]|"None"-text-0-"None"-NN-0|text|5536/4||
0070.txt|MMI|0.52|Not visualized|C4697694|[fndg]|"Not visualized"-text-0-"not visualized"-RB-1|text|4574/14||
0070.txt|MMI|0.52|Notable|C4288581|[qlco]|"Noted"-text-16-"noted"-VBN-0|text|3281/5||
0070.txt|MMI|0.52|Now (cigarettes)|C4760243|[mnob]|"Now"-text-8-"now"-RB-0|text|3922/3||
0070.txt|MMI|0.52|Now (temporal qualifier)|C1948052|[tmco]|"Now"-text-8-"now"-RB-0|text|3922/3||
0070.txt|MMI|0.52|Now - dosing instruction fragment|C1720566|[inpr]|"Now"-text-8-"now"-RB-0|text|3922/3||
0070.txt|MMI|0.52|Null Value|C0456148|[qnco]|"None"-text-0-"None"-NN-0|text|5536/4||
0070.txt|MMI|0.52|Observation of reflex|C0596002|[fndg]|"Reflexes"-text-0-"Reflexes"-NNP-0|text|2065/8||
0070.txt|MMI|0.52|Old|C0580836|[tmco]|"Old"-text-8-"old"-JJ-0|text|328/3||
0070.txt|MMI|0.52|Old episode|C0677546|[tmco]|"Old"-text-8-"old"-JJ-0|text|328/3||
0070.txt|MMI|0.52|Only - dosing instruction fragment|C1720467|[inpr]|"Only"-text-0-"only"-RB-0|text|1956/4||
0070.txt|MMI|0.52|Operative Surgical Procedures|C0543467|[topp]|"Surgical"-text-10-"surgical"-JJ-0|text|4946/8|E04|
0070.txt|MMI|0.52|Options|C1518601|[ftcn]|"Option"-text-12-"option"-NN-0|text|4955/6||
0070.txt|MMI|0.52|Orbital region|C0700042|[blor]|"Eye"-text-0-"eye"-NN-0|text|1627/3||
0070.txt|MMI|0.52|Out (direction)|C0439787|[spco]|"Out"-text-0-"out"-IN-0|text|1212/3||
0070.txt|MMI|0.52|Over (spatial)|C0205136|[spco]|"Over"-text-0-"over"-IN-0|text|2102/4||
0070.txt|MMI|0.52|Oxygen saturation measurement|C0523807|[lbpr]|"Oxygen Saturation"-text-32-"oxygen saturation"-NN-0|text|926/17||
0070.txt|MMI|0.52|Oxygen saturation test result|C0483415|[orga]|"oxygen saturation"-text-32-"oxygen saturation"-NN-0|text|926/17||
0070.txt|MMI|0.52|PMH - past medical history|C0455458|[fndg]|"Past medical history of"-text-28-"past medical history of"-JJ-0|text|365/23||
0070.txt|MMI|0.52|Packaging Case|C1706255|[medd]|"Case"-text-24-"case"-NN-0|text|4982/4||
0070.txt|MMI|0.52|Pansystolic murmur|C0232258|[fndg]|"Holosystolic murmur"-text-6-"holosystolic murmur"-JJ-0|text|1223/19||
0070.txt|MMI|0.52|Parietal|C0442030|[spco]|"Parietal"-text-58-"parietal"-NN-0|text|3098/8||
0070.txt|MMI|0.52|Pass (indicator)|C2828386|[fndg]|"Passed"-text-0-"passed"-VBD-0|text|5438/6||
0070.txt|MMI|0.52|Patient Condition Code - Poor|C1547310|[inpr]|"Poor"-text-0-"poor"-JJ-0|text|1160/4||
0070.txt|MMI|0.52|Performed|C0884358|[ftcn]|"Performed"-text-2-"performed"-VBN-0|text|3828/9||
0070.txt|MMI|0.52|Physical Exam Domain|C1744699|[inpr]|"Physical Examination"-text-0-"PHYSICAL EXAMINATION"-NNP-0|text|811/20||
0070.txt|MMI|0.52|Pontine structure|C0032639|[bpoc]|"Pons"-text-26-"pons"-NNS-0|text|4398/4||
0070.txt|MMI|0.52|Poor - grade value|C0542537|[qlco]|"Poor"-text-0-"poor"-JJ-0|text|1160/4||
0070.txt|MMI|0.52|Poor - qualifier|C2700379|[qlco]|"Poor"-text-0-"poor"-JJ-0|text|1160/4||
0070.txt|MMI|0.52|Potassium Drug Class|C3714637|[phsu]|"POTASSIUM"-text-6-"potassium"-NN-0|text|2222/9||
0070.txt|MMI|0.52|Potassium measurement|C0202194|[lbpr]|"Potassium"-text-6-"potassium"-NN-0|text|2222/9||
0070.txt|MMI|0.52|Potassium supplement|C0304475|[inch, phsu]|"Potassium"-text-6-"potassium"-NN-0|text|2222/9||
0070.txt|MMI|0.52|Precision - year|C1561544|[idcn]|"year"-text-6-"year"-NN-0|text|323/4||
0070.txt|MMI|0.52|Prognosis bad|C0278252|[fndg]|"Poor prognosis"-text-22-"poor prognosis"-JJ-0|text|5409/14||
0070.txt|MMI|0.52|Protocol Treatment Arm|C1522541|[resa]|"Arm"-text-12-"arm"-NN-0|text|1907/3||
0070.txt|MMI|0.52|Range of motion exercise|C0150220|[topp]|"range of motion"-text-0-"range of motion"-NN-0|text|1078/15||
0070.txt|MMI|0.52|Reduced|C0392756|[qlco]|"Reduced"-text-0-"reduced"-VBN-0|text|4654/7||
0070.txt|MMI|0.52|Reflex action|C0034929|[ortf]|"Reflexes"-text-0-"Reflexes"-NNP-0|text|2065/8||
0070.txt|MMI|0.52|Relocation of home or business|C2699029|[acty]|"Move"-text-10-"move"-VB-1|text|1713/4||
0070.txt|MMI|0.52|Remote control command - Clear|C1550016|[idcn]|"Clear"-text-0-"clear"-JJ-0|text|1129/5||
0070.txt|MMI|0.52|Removed|C0849355|[qlco]|"Out"-text-0-"out"-IN-0|text|1212/3||
0070.txt|MMI|0.52|Report (document)|C0684224|[inpr]|"Reported"-text-0-"reported"-VBD-0|text|768/8||
0070.txt|MMI|0.52|Report status (finding)|C0586177|[fndg]|"Report status"-text-32-"Report Status"-NNP-0|text|126/13||
0070.txt|MMI|0.52|Report status:Type:Point in time:Report:Nominal|C4760061|[clna]|"Report status"-text-32-"Report Status"-NNP-0|text|126/13||
0070.txt|MMI|0.52|Reported|C4319718|[ftcn]|"Reported"-text-0-"reported"-VBD-0|text|768/8||
0070.txt|MMI|0.52|Reporting|C0700287|[hlca]|"reported"-text-0-"reported"-VBD-0|text|768/8||
0070.txt|MMI|0.52|Residue on Tongue|C4283818|[fndg]|"Tongue"-text-0-"Tongue"-NNP-0|text|1813/6||
0070.txt|MMI|0.52|Respiratory Status|C1998827|[fndg]|"Respiratory Status"-text-12-"respiratory status"-NN-0|text|3258/18||
0070.txt|MMI|0.52|Respiratory Status:-:Point in time:^Patient:-|C2598168|[clna]|"Respiratory status"-text-12-"respiratory status"-NN-0|text|3258/18||
0070.txt|MMI|0.52|Result|C1274040|[ftcn]|"OUT"-text-0-"out"-IN-0|text|1212/3||
0070.txt|MMI|0.52|Room type - Intensive care unit|C1549475|[idcn]|"Intensive care unit"-text-10-"intensive care unit"-JJ-0|text|4140/19||
0070.txt|MMI|0.52|SGOT - Glutamate oxaloacetate transaminase|C0242192|[enzy, aapp]|"AST"-text-0-"AST"-NN-0|text|2310/3||
0070.txt|MMI|0.52|SGPT - Glutamate pyruvate transaminase|C0376147|[enzy, aapp]|"ALT"-text-0-"ALT"-NNP-0|text|2323/3||
0070.txt|MMI|0.52|SHORT STATURE, ONYCHODYSPLASIA, FACIAL DYSMORPHISM, AND HYPOTRICHOSIS SYNDROME|C3542022|[dsyn]|"SOFT"-text-0-"soft"-JJ-0|text|1290/4||
0070.txt|MMI|0.52|SLC17A5 gene|C1420113|[gngm]|"AST"-text-0-"AST"-NN-0|text|2310/3||
0070.txt|MMI|0.52|SUCO gene|C1412930|[gngm]|"OPT"-text-2-"opt"-VB-0|text|5376/3||
0070.txt|MMI|0.52|Science of neurosurgery|C0027926|[bmod]|"Neurosurgery"-text-0-"Neurosurgery"-NN-0|text|4868/12||
0070.txt|MMI|0.52|Sequence Arm|C4553528|[inpr]|"arm"-text-12-"arm"-NN-0|text|1907/3||
0070.txt|MMI|0.52|Simple|C0205352|[qlco]|"Simple"-text-18-"simple"-JJ-0|text|1498/6||
0070.txt|MMI|0.52|Since|C1711239|[tmco]|"Since"-text-16-"since"-IN-0|text|4964/5||
0070.txt|MMI|0.52|Singular|C0205171|[qnco]|"Only"-text-0-"only"-RB-0|text|1956/4||
0070.txt|MMI|0.52|Sinus Bradycardia, CTCAE|C1963175|[fndg]|"Sinus bradycardia"-text-0-"sinus bradycardia"-IN-0|text|2707/17||
0070.txt|MMI|0.52|Sinus Tachycardia, CTCAE 3.0|C1963246|[fndg]|"Sinus tachycardia"-text-0-"sinus tachycardia"-IN-0|text|3724/17||
0070.txt|MMI|0.52|Sinus Tachycardia, CTCAE 5.0|C4553554|[fndg]|"Sinus tachycardia"-text-0-"sinus tachycardia"-IN-0|text|3724/17||
0070.txt|MMI|0.52|Sinus bradycardia|C0085610|[patf]|"Sinus bradycardia"-text-0-"sinus bradycardia"-IN-0|text|2707/17||
0070.txt|MMI|0.52|Sodium Drug Class|C3714642|[phsu]|"SODIUM"-text-0-"sodium"-NN-0|text|2206/6||
0070.txt|MMI|0.52|Sodium measurement|C0337443|[lbpr]|"Sodium"-text-0-"sodium"-NN-0|text|2206/6||
0070.txt|MMI|0.52|Sodium supplements|C3541959|[phsu]|"Sodium"-text-0-"sodium"-NN-0|text|2206/6||
0070.txt|MMI|0.52|Soft|C0205358|[qlco]|"Soft"-text-0-"soft"-JJ-0|text|1290/4||
0070.txt|MMI|0.52|Some (qualifier value)|C0205392|[qnco]|"Some"-text-42-"some"-DT-0|text|3056/4||
0070.txt|MMI|0.52|Sometimes|C1998882|[tmco]|"Occasionally"-text-6-"occasionally"-RB-0|text|1028/12||
0070.txt|MMI|0.52|Southern Altai Language|C4724507|[lang]|"ALT"-text-0-"ALT"-NNP-0|text|2323/3||
0070.txt|MMI|0.52|Specimen Quality - Poor|C1561559|[qlco]|"Poor"-text-0-"poor"-JJ-0|text|1160/4||
0070.txt|MMI|0.52|Started|C1272689|[qlco]|"Started"-text-10-"started"-VBD-0|text|3180/7||
0070.txt|MMI|0.52|Street (environment)|C0442658|[geoa]|"streets"-text-0-"STREETS"-NNP-0|text|5565/7||
0070.txt|MMI|0.52|Stroke, CTCAE|C4554100|[fndg]|"Stroke"-text-16-"stroke"-NN-0|text|4232/6||
0070.txt|MMI|0.52|Structure of basilar artery|C0004811|[bpoc]|"Basilar Arteries"-text-22-"basilar arteries"-JJ-0|text|4525/16||
0070.txt|MMI|0.52|Subsequent Trial Activity|C2826246|[resa]|"NEXT"-text-0-"next"-JJ-0|text|3220/4||
0070.txt|MMI|0.52|Supple|C0332254|[ftcn]|"Supple"-text-0-"supple"-NN-0|text|1061/6||
0070.txt|MMI|0.52|Surgical service|C0587668|[hlca]|"Surgical"-text-10-"surgical"-JJ-0|text|4946/8||
0070.txt|MMI|0.52|TCF23 gene|C1425640|[gngm]|"OUT"-text-0-"out"-IN-0|text|1212/3||
0070.txt|MMI|0.52|TelecommunicationCapabilities <voice>|C3244282|[qlco]|"voice"-text-12-"voice"-VB-0|text|1480/5||
0070.txt|MMI|0.52|Telling untruths|C0600261|[inbe]|"Lying"-text-12-"lying"-VBG-0|text|677/5||
0070.txt|MMI|0.52|Then - dosing instruction fragment|C1720594|[inpr]|"Then"-text-2-"then"-RB-0|text|650/4||
0070.txt|MMI|0.52|Transaction counts and value totals - year|C1561543|[inpr]|"year"-text-6-"year"-NN-0|text|323/4||
0070.txt|MMI|0.52|Transferred to|C4049693|[fndg]|"Transferred to"-text-2-"transferred to"-VBN-0|text|4121/14||
0070.txt|MMI|0.52|Transferred to:Loc:Pt:^Patient:Nom|C4049692|[clna]|"Transferred to"-text-2-"transferred to"-VBN-0|text|4121/14||
0070.txt|MMI|0.52|Traverse|C2828360|[cnce]|"Across"-text-22-"across"-IN-0|text|592/6||
0070.txt|MMI|0.52|Treated with|C0332293|[topp]|"Treated with"-text-0-"treated with"-VBN-0|text|5272/12||
0070.txt|MMI|0.52|Troponin I measurement|C0920210|[lbpr]|"Troponin I"-text-0-"Troponin I"-NNP-0|text|2423/10||
0070.txt|MMI|0.52|True Case Status|C3274647|[qlco]|"Case"-text-24-"case"-NN-0|text|4982/4||
0070.txt|MMI|0.52|Unable to Speak at All|C4722246|[fndg]|"Unable to Speak"-text-36-"unable to speak"-JJ-0|text|739/15||
0070.txt|MMI|0.52|Unable to speak (finding)|C0564216|[fndg]|"Unable to speak"-text-36-"unable to speak"-JJ-0|text|739/15||
0070.txt|MMI|0.52|Universal restriction modifier (core metadata concept)|C3539085|[idcn]|"All"-text-0-"all"-DT-0|text|2098/3||
0070.txt|MMI|0.52|Unresponsive to Treatment|C0205269|[ftcn]|"Unresponsive"-text-28-"unresponsive"-JJ-0|text|722/12||
0070.txt|MMI|0.52|Until|C1720302|[inpr]|"Until"-text-0-"until"-IN-0|text|499/5||
0070.txt|MMI|0.52|View|C0449911|[spco]|"View"-text-14-"view"-NN-0|text|5397/4||
0070.txt|MMI|0.52|Visual|C0234621|[ftcn]|"Visualization"-text-0-"visualization"-NN-0|text|4752/13||
0070.txt|MMI|0.52|Voice G-code|C4281800|[inpr]|"Voice"-text-12-"voice"-VB-0|text|1480/5||
0070.txt|MMI|0.52|Well|C3146287|[mnob]|"Well"-text-0-"well"-RB-0|text|494/4||
0070.txt|MMI|0.52|Well Marginated Nodule|C4761387|[fndg]|"Well"-text-0-"well"-RB-0|text|494/4||
0070.txt|MMI|0.52|When (temporal qualifier)|C1948054|[tmco]|"When"-text-12-"when"-WRB-0|text|561/4||
0070.txt|MMI|0.52|When - dosing instruction fragment|C1720477|[qlco]|"When"-text-12-"when"-WRB-0|text|561/4||
0070.txt|MMI|0.52|Withdraw (activity)|C2349954|[acty]|"Withdrawal"-text-0-"Withdrawal"-NN-0|text|3547/10||
0070.txt|MMI|0.52|Withdrawal (dysfunction)|C2825032|[mobd]|"Withdrawal"-text-0-"Withdrawal"-NN-0|text|3547/10||
0070.txt|MMI|0.52|Withdrawal - birth control|C3812880|[topp]|"Withdrawal"-text-0-"Withdrawal"-NN-0|text|3547/10||
0070.txt|MMI|0.52|Withdrawal Scale (BASC-2)|C4049634|[inpr]|"Withdrawal"-text-0-"Withdrawal"-NN-0|text|3547/10||
0070.txt|MMI|0.52|Withdrawal by Subject|C1710677|[idcn]|"withdrawal"-text-0-"Withdrawal"-NN-0|text|3547/10||
0070.txt|MMI|0.52|Within|C0332285|[spco]|"Within"-text-0-"within"-IN-0|text|4774/6||
0070.txt|MMI|0.52|Worse|C1457868|[fndg]|"deteriorate"-text-0-"deteriorate"-VB-0|text|4854/11||
0070.txt|MMI|0.52|all - LocalMarkupIgnore|C1552816|[inpr]|"all"-text-0-"all"-DT-0|text|2098/3||
0070.txt|MMI|0.52|all - TableRules|C1552837|[idcn]|"all"-text-0-"all"-DT-0|text|2098/3||
0070.txt|MMI|0.52|around|C0750503|[idcn]|"around"-text-0-"Around"-IN-0|text|3201/6||
0070.txt|MMI|0.52|continuous electrocardiogram sinus bradycardia (finding)|C2108107|[fndg]|"Sinus Bradycardia"-text-0-"sinus bradycardia"-IN-0|text|2707/17||
0070.txt|MMI|0.52|continuous electrocardiogram sinus tachycardia|C2108109|[fndg]|"Sinus Tachycardia"-text-0-"sinus tachycardia"-IN-0|text|3724/17||
0070.txt|MMI|0.52|dendritic spine neck|C3159206|[celc]|"neck"-text-0-"Neck"-NNP-0|text|1052/4||
0070.txt|MMI|0.52|density|C0178587|[qnco]|"density"-text-0-"density"-NN-0|text|3997/7||
0070.txt|MMI|0.52|dictated - DocumentCompletion|C1609990|[idcn]|"dictated"-text-0-"Dictated"-NNP-0|text|5543/8||
0070.txt|MMI|0.52|dictated - ParticipationMode|C1548384|[ftcn]|"dictated"-text-0-"Dictated"-NNP-0|text|5543/8||
0070.txt|MMI|0.52|effacement|C0552443|[clna]|"effacement"-text-44-"effacement"-NN-0|text|3061/10||
0070.txt|MMI|0.52|hold - Data Operation|C3853841|[ftcn]|"hold"-text-10-"hold"-VB-0|text|1902/4||
0070.txt|MMI|0.52|midline cell component|C1660780|[celc]|"midline"-text-0-"midline"-NN-0|text|1824/7||
0070.txt|MMI|0.52|next - HtmlLinkType|C1552851|[idcn]|"next"-text-0-"next"-JJ-0|text|3220/4||
0070.txt|MMI|0.52|none - ResponseLevel|C1547191|[qlco]|"none"-text-0-"None"-NN-0|text|5536/4||
0070.txt|MMI|0.52|none - SubstanceAdminSubstitution|C1553523|[fndg]|"none"-text-0-"None"-NN-0|text|5536/4||
0070.txt|MMI|0.52|none - TableRules|C1546509|[qnco]|"none"-text-0-"None"-NN-0|text|5536/4||
0070.txt|MMI|0.52|option - ActMoodPredicate|C1550456|[idcn]|"option"-text-12-"option"-NN-0|text|4955/6||
0070.txt|MMI|0.52|orders - HL7PublishingDomain|C3244315|[inpr]|"orders"-text-0-"ORDERS"-NNS-0|text|5527/6||
0070.txt|MMI|0.52|potassium ion|C0597277|[elii, phsu]|"Potassium"-text-6-"potassium"-NN-0|text|2222/9||
0070.txt|MMI|0.52|preference|C0558295|[idcn]|"preference"-text-0-"preference"-NN-0|text|1678/10||
0070.txt|MMI|0.52|unresponsive behavior|C0237284|[fndg]|"Unresponsive"-text-28-"unresponsive"-JJ-0|text|722/12||
0070.txt|MMI|0.52|upper and lower limbs|C0546099|[blor]|"Arm and leg"-text-0-"arm and leg"-NN-0|text|3493/11||
0070.txt|MMI|0.52|wave - physical agent|C0678544|[npop]|"waves"-text-24-"waves"-NNS-0|text|2801/5||
0070.txt|MMI|0.52|year|C0439234|[tmco]|"year"-text-6-"year"-NN-0|text|323/4||
0070.txt|MMI|0.50|139|C5191072|[qnco]|"139"-text-2-"139"-CD-0|text|2216/3||
0070.txt|MMI|0.50|2 mm|C3842089|[fndg]|"2 mm"-text-0-"2 mm"-CD-0|text|1570/4||
0070.txt|MMI|0.50|4 mm|C3842087|[fndg]|"4 mm"-text-0-"4 mm"-CD-0|text|1553/4||
0070.txt|MMI|0.50|AV Block First Degree by ECG Finding|C3715208|[fndg]|"First Degree Atrioventricular Block"-text-16-"first degree atrioventricular block"-JJ-0|text|2752/35||
0070.txt|MMI|0.50|Abnormally high|C1299351|[qlco]|"High"-text-0-"high"-JJ-0|text|3992/4||
0070.txt|MMI|0.50|Alert|C3665546|[ftcn]|"Alert"-text-2-"alert"-JJ-0|text|1456/5||
0070.txt|MMI|0.50|Alert note|C2004580|[inpr]|"Alert"-text-2-"alert"-JJ-0|text|1456/5||
0070.txt|MMI|0.50|Alert:Type:Point in time:^Patient:Nominal|C3669039|[clna]|"Alert"-text-2-"alert"-JJ-0|text|1456/5||
0070.txt|MMI|0.50|Anatomic Border|C1522411|[blor]|"Border"-text-18-"border"-NN-0|text|1269/6||
0070.txt|MMI|0.50|BRAF Gene Rearrangement|C4727483|[comd]|"Positive"-text-16-"positive"-JJ-0|text|2985/8||
0070.txt|MMI|0.50|Blood pressure finding|C1271104|[fndg]|"Blood Pressure"-text-12-"blood pressure"-NN-0|text|877/14||
0070.txt|MMI|0.50|Blood pressure taking management|C1272452|[topp]|"Blood pressure management"-text-10-"blood pressure management"-NN-0|text|5140/25||
0070.txt|MMI|0.50|Body Fluid Discharge|C0012621|[bdsu]|"Discharge"-text-0-"DISCHARGE"-NN-0|text|5517/9||
0070.txt|MMI|0.50|Border (boundary)|C2828371|[spco]|"Border"-text-18-"border"-NN-0|text|1269/6||
0070.txt|MMI|0.50|Bothered by Vomiting|C4084767|[inpr]|"Vomiting"-text-0-"vomiting"-VBG-0|text|792/8||
0070.txt|MMI|0.50|Bowel sounds|C0232693|[fndg]|"Bowel sounds"-text-2-"bowel sounds"-NN-0|text|1310/12||
0070.txt|MMI|0.50|Breath sounds:Finding:Point in time:^Patient:Ordinal|C3484186|[clna]|"Breath sounds"-text-16-"breath sounds"-NN-0|text|3365/13||
0070.txt|MMI|0.50|Breathing Distress Question|C4084858|[inpr]|"Breathing"-text-0-"breathing"-VBG-0|text|1004/9||
0070.txt|MMI|0.50|Breaths:Number = Count/Time:Point in time:Respiratory system:Quantitative|C0489258|[clna]|"Respiratory rate"-text-22-"respiratory rate"-JJ-0|text|901/16||
0070.txt|MMI|0.50|CAT Scan Section ID|C1547980|[inpr]|"CAT Scan"-text-0-"CAT scan"-NN-0|text|3803/8||
0070.txt|MMI|0.50|CAT scan of head|C0202691|[diap]|"head ct scan"-text-0-"head CT scan"-NN-0|text|2903/12||
0070.txt|MMI|0.50|Computed Axial Tomography Scanners|C1608329|[medd]|"CAT scan"-text-0-"CAT scan"-NN-0|text|3803/8||
0070.txt|MMI|0.50|Consciousness clear|C0239110|[fndg]|"alert"-text-2-"alert"-JJ-0|text|1456/5||
0070.txt|MMI|0.50|Data types - Time|C1547403|[idcn]|"Time"-text-28-"time"-NN-0|text|1939/4||
0070.txt|MMI|0.50|Discharge date|C2361123|[tmco]|"Discharge date"-text-40-"Discharge Date"-NNP-0|text|149/14||
0070.txt|MMI|0.50|Discharge date:Time Stamp -- Date and Time:Point in time:^Patient:Quantitative|C2361122|[clna]|"Discharge date"-text-40-"Discharge Date"-NNP-0|text|149/14||
0070.txt|MMI|0.50|Discharge, Body Substance, Sample|C0600083|[bdsu]|"Discharge"-text-0-"DISCHARGE"-NN-0|text|5517/9||
0070.txt|MMI|0.50|Discharge, body substance|C2926602|[sosy]|"Discharge"-text-0-"DISCHARGE"-NN-0|text|5517/9||
0070.txt|MMI|0.50|Dominant|C1527180|[ftcn]|"Dominant"-text-0-"dominant"-JJ-0|text|4603/8||
0070.txt|MMI|0.50|Entire left vertebral artery|C1267316|[bpoc]|"Left vertebral artery"-text-0-"left vertebral artery"-VBD-0|text|4548/21||
0070.txt|MMI|0.50|Entire right middle cerebral artery|C1267298|[bpoc]|"Right middle cerebral artery"-text-12-"right middle cerebral artery"-JJ-0|text|4690/28||
0070.txt|MMI|0.50|Entire right occipital lobe|C1281962|[bpoc]|"Right occipital lobe"-text-12-"right occipital lobe"-JJ-0|text|4342/20||
0070.txt|MMI|0.50|Entire right posterior cerebral artery|C1267319|[bpoc]|"Right posterior cerebral artery"-text-4-"right posterior cerebral artery"-JJ-0|text|3879/31||
0070.txt|MMI|0.50|Entire right upper arm|C1268255|[bpoc]|"Right arm"-text-0-"right arm"-NN-0|text|3487/9||
0070.txt|MMI|0.50|Entire right ventricle|C1269891|[bpoc]|"Right ventricle"-text-38-"right ventricle"-JJ-0|text|3036/15||
0070.txt|MMI|0.50|Entire right vertebral artery|C1267315|[bpoc]|"Right vertebral artery"-text-0-"right vertebral artery"-JJ-0|text|4612/22||
0070.txt|MMI|0.50|Erythrocyte sedimentation rate measurement|C1176468|[lbpr]|"Erythrocyte Sedimentation Rate"-text-0-"Erythrocyte sedimentation rate"-NNP-0|text|2629/30||
0070.txt|MMI|0.50|Erythrocyte sedimentation rate:Velocity:Point in time:Whole blood:Quantitative|C1114891|[clna]|"Erythrocyte sedimentation rate"-text-0-"Erythrocyte sedimentation rate"-NNP-0|text|2629/30||
0070.txt|MMI|0.50|First degree atrioventricular block|C0085614|[dsyn]|"First degree atrioventricular block"-text-16-"first degree atrioventricular block"-JJ-0|text|2752/35||
0070.txt|MMI|0.50|General medical service|C3812897|[hlca]|"General"-text-0-"General"-NNP-0|text|966/7||
0070.txt|MMI|0.50|Generalized|C0205246|[spco]|"General"-text-0-"General"-NNP-0|text|966/7||
0070.txt|MMI|0.50|Have Been Vomiting|C3898969|[inpr]|"Vomiting"-text-0-"vomiting"-VBG-0|text|792/8||
0070.txt|MMI|0.50|Heart beat:Number = Count/Time:Point in time:To be specified in another part of the message:Quantitative|C0488794|[clna]|"Heart rate"-text-4-"heart rate"-NN-0|text|861/10||
0070.txt|MMI|0.50|Heart sounds:Find:Pt:Heart:Nom|C4050434|[clna]|"Heart sounds"-text-0-"Heart sounds"-NN-0|text|1177/12||
0070.txt|MMI|0.50|High|C0205250|[qlco]|"High"-text-0-"high"-JJ-0|text|3992/4||
0070.txt|MMI|0.50|High (finding)|C5200928|[fndg]|"High"-text-0-"high"-JJ-0|text|3992/4||
0070.txt|MMI|0.50|High Level|C4321237|[fndg]|"High"-text-0-"high"-JJ-0|text|3992/4||
0070.txt|MMI|0.50|High Mitosis-Karyorrhexis Index|C3889660|[inpr]|"High"-text-0-"high"-JJ-0|text|3992/4||
0070.txt|MMI|0.50|History of tobacco use|C0841002|[fndg]|"Tobacco use"-text-36-"tobacco use"-NN-0|text|406/11||
0070.txt|MMI|0.50|How Much Distress Vomiting|C4084766|[inpr]|"Vomiting"-text-0-"vomiting"-VBG-0|text|792/8||
0070.txt|MMI|0.50|How Often Vomiting|C4084769|[inpr]|"Vomiting"-text-0-"vomiting"-VBG-0|text|792/8||
0070.txt|MMI|0.50|How True Feel Alert Right Now|C4084853|[inpr]|"Alert"-text-2-"alert"-JJ-0|text|1456/5||
0070.txt|MMI|0.50|IPSS Risk Category High|C4522209|[inpr]|"High"-text-0-"high"-JJ-0|text|3992/4||
0070.txt|MMI|0.50|IPSS-R Risk Category High|C5202936|[fndg]|"High"-text-0-"high"-JJ-0|text|3992/4||
0070.txt|MMI|0.50|Inspiration function|C0004048|[orgf]|"breathing"-text-0-"breathing"-VBG-0|text|1004/9||
0070.txt|MMI|0.50|Internal carotid artery structure|C0007276|[bpoc]|"Internal Carotid Arteries"-text-12-"internal carotid arteries"-JJ-0|text|4479/25||
0070.txt|MMI|0.50|LEFT SIDE (USED TO IDENTIFY PROCEDURES PERFORMED ON THE LEFT SIDE OF THE BODY)|C0497648|[spco]|"Left side"-text-2-"left side"-JJ-0|text|1985/9||
0070.txt|MMI|0.50|Language Ability Proficiency - Good|C1551023|[idcn]|"Good"-text-0-"good"-JJ-0|text|3327/4||
0070.txt|MMI|0.50|Language Proficiency - Good|C1610541|[idcn]|"Good"-text-0-"good"-JJ-0|text|3327/4||
0070.txt|MMI|0.50|Marginal|C0205284|[spco]|"Border"-text-18-"border"-NN-0|text|1269/6||
0070.txt|MMI|0.50|Message Waiting Priority - High|C1561958|[idcn]|"High"-text-0-"high"-JJ-0|text|3992/4||
0070.txt|MMI|0.50|Negative|C0205160|[fndg]|"Negative"-text-0-"negative"-JJ-0|text|1635/8||
0070.txt|MMI|0.50|Negative - answer|C3853545|[qlco]|"Negative"-text-0-"negative"-JJ-0|text|1635/8||
0070.txt|MMI|0.50|Negative Charge|C2825491|[qlco]|"Negative"-text-0-"negative"-JJ-0|text|1635/8||
0070.txt|MMI|0.50|Negative Finding|C1513916|[fndg]|"Negative"-text-0-"negative"-JJ-0|text|1635/8||
0070.txt|MMI|0.50|Negative Number|C2825415|[cnce]|"Negative"-text-0-"negative"-JJ-0|text|1635/8||
0070.txt|MMI|0.50|Non-tender|C0520960|[qlco]|"Non-tender"-text-0-"non-tender"-FW-0|text|1297/10||
0070.txt|MMI|0.50|Observation Value - High|C1561957|[qlco]|"High"-text-0-"high"-JJ-0|text|3992/4||
0070.txt|MMI|0.50|On discharge|C1548175|[tmco]|"On discharge"-text-0-"ON DISCHARGE"-IN-0|text|5491/12||
0070.txt|MMI|0.50|Opening|C1882151|[spco]|"Opening"-text-6-"opening"-VBG-0|text|1464/7||
0070.txt|MMI|0.50|Plain chest X-ray|C0039985|[diap]|"Chest X-ray"-text-0-"chest x-ray"-NN-0|text|2849/11||
0070.txt|MMI|0.50|Positive|C1446409|[fndg]|"Positive"-text-16-"positive"-JJ-0|text|2985/8||
0070.txt|MMI|0.50|Positive Charge|C2825490|[qlco]|"Positive"-text-16-"positive"-JJ-0|text|2985/8||
0070.txt|MMI|0.50|Positive Finding|C1514241|[fndg]|"Positive"-text-16-"positive"-JJ-0|text|2985/8||
0070.txt|MMI|0.50|Positive Number|C3812269|[qnco]|"Positive"-text-16-"positive"-JJ-0|text|2985/8||
0070.txt|MMI|0.50|Possible|C0332149|[fndg]|"Possible"-text-0-"possible"-JJ-0|text|1658/8||
0070.txt|MMI|0.50|Possible diagnosis|C2362652|[qlco]|"Possible"-text-0-"possible"-JJ-0|text|1658/8||
0070.txt|MMI|0.50|Possibly Related to Intervention|C1705910|[qlco]|"Possible"-text-0-"possible"-JJ-0|text|1658/8||
0070.txt|MMI|0.50|Primary|C0205225|[qlco]|"Principal"-text-50-"PRINCIPAL"-NNP-0|text|177/9||
0070.txt|MMI|0.50|RIGHT SIDE (USED TO IDENTIFY PROCEDURES PERFORMED ON THE RIGHT SIDE OF THE BODY)|C0497685|[spco]|"Right side"-text-0-"right side"-JJ-0|text|1861/10||
0070.txt|MMI|0.50|Reactive|C0205332|[qlco]|"Reactive"-text-0-"reactive"-NN-0|text|1558/8||
0070.txt|MMI|0.50|Reactive Therapy|C4722408|[topp]|"Reactive"-text-0-"reactive"-NN-0|text|1558/8||
0070.txt|MMI|0.50|Regular|C0205272|[qlco]|"Regular"-text-0-"regular"-JJ-0|text|1195/7||
0070.txt|MMI|0.50|Repeat|C0205341|[ftcn]|"Repeat"-text-0-"repeat"-NN-0|text|3796/6||
0070.txt|MMI|0.50|Repeat Object|C1705914|[ftcn]|"Repeat"-text-0-"repeat"-NN-0|text|3796/6||
0070.txt|MMI|0.50|Repeat Pattern|C1547730|[tmco]|"Repeat"-text-0-"repeat"-NN-0|text|3796/6||
0070.txt|MMI|0.50|Right arm|C4048756|[bpoc]|"Right arm"-text-0-"right arm"-NN-0|text|3487/9||
0070.txt|MMI|0.50|Right gaze|C0439765|[spco]|"Right gaze"-text-0-"right gaze"-NN-0|text|1667/10||
0070.txt|MMI|0.50|Right handed|C0344333|[orga]|"Right handed"-text-12-"right handed"-NN-0|text|332/12||
0070.txt|MMI|0.50|Right occipital lobe structure|C0228218|[bpoc]|"Right occipital lobe"-text-12-"right occipital lobe"-JJ-0|text|4342/20||
0070.txt|MMI|0.50|Right thalamus|C2328150|[bpoc]|"Right thalamus"-text-20-"right thalamus"-JJ-0|text|4369/14||
0070.txt|MMI|0.50|Right upper arm structure|C0230346|[bpoc]|"Right arm"-text-0-"right arm"-NN-0|text|3487/9||
0070.txt|MMI|0.50|Right ventricular structure|C0225883|[bpoc]|"Right Ventricle"-text-38-"right ventricle"-JJ-0|text|3036/15||
0070.txt|MMI|0.50|Safety Reporting Documentation|C3891294|[inpr]|"General"-text-0-"General"-NNP-0|text|966/7||
0070.txt|MMI|0.50|Sensory testing|C0200116|[diap]|"Sensory testing"-text-0-"sensory testing"-JJ-0|text|2000/15||
0070.txt|MMI|0.50|Six|C0205452|[qnco]|"Six"-text-2-"six"-CD-0|text|1219/3||
0070.txt|MMI|0.50|Specimen Quality - Good|C1561563|[qlco]|"Good"-text-0-"good"-JJ-0|text|3327/4||
0070.txt|MMI|0.50|Specimen Source Codes - Discharge|C1546601|[inpr]|"Discharge"-text-0-"DISCHARGE"-NN-0|text|5517/9||
0070.txt|MMI|0.50|Structure of left lower lobe of lung|C1261077|[bpoc]|"Left lower lobe"-text-0-"left lower lobe"-VBD-0|text|2867/15||
0070.txt|MMI|0.50|Structure of left vertebral artery|C0226231|[bpoc]|"Left vertebral artery"-text-0-"left vertebral artery"-VBD-0|text|4548/21||
0070.txt|MMI|0.50|Structure of posterior cerebral artery|C0149576|[bpoc]|"Posterior Cerebral Arteries"-text-4-"posterior cerebral arteries"-JJ-0|text|4786/27||
0070.txt|MMI|0.50|Structure of right hand|C0230370|[bpoc]|"right handed"-text-12-"right handed"-NN-0|text|332/12||
0070.txt|MMI|0.50|Structure of right middle cerebral artery|C0226213|[bpoc]|"Right middle cerebral artery"-text-12-"right middle cerebral artery"-JJ-0|text|4690/28||
0070.txt|MMI|0.50|Structure of right posterior cerebral artery|C0226247|[bpoc]|"Right posterior cerebral artery"-text-4-"right posterior cerebral artery"-JJ-0|text|3879/31||
0070.txt|MMI|0.50|Structure of right vertebral artery|C0226230|[bpoc]|"Right vertebral artery"-text-0-"right vertebral artery"-JJ-0|text|4612/22||
0070.txt|MMI|0.50|Swelling|C0038999|[fndg]|"Swelling"-text-30-"swelling"-VBG-0|text|5001/8||
0070.txt|MMI|0.50|System Alert|C4553014|[cnce]|"alert"-text-2-"alert"-JJ-0|text|1456/5||
0070.txt|MMI|0.50|Systemic arterial pressure|C1272641|[fndg]|"blood pressure"-text-12-"blood pressure"-NN-0|text|877/14||
0070.txt|MMI|0.50|Table Frame - border|C1552830|[idcn]|"border"-text-18-"border"-NN-0|text|1269/6||
0070.txt|MMI|0.50|Teaching principal|C0401925|[prog]|"Principal"-text-50-"PRINCIPAL"-NNP-0|text|177/9||
0070.txt|MMI|0.50|Three|C0205449|[qnco]|"Three"-text-39-"three"-CD-0|text|951/5||
0070.txt|MMI|0.50|Three (answer to question)|C5201107|[fndg]|"Three"-text-39-"three"-CD-0|text|951/5||
0070.txt|MMI|0.50|Time (foundation metadata concept)|C3541383|[tmco]|"Time"-text-28-"time"-NN-0|text|1939/4||
0070.txt|MMI|0.50|To the left (qualifier value)|C0450424|[spco]|"To the left"-text-20-"to the left"-TO-0|text|4728/11||
0070.txt|MMI|0.50|To the right (qualifier value)|C0546911|[spco]|"To the right"-text-4-"to the right"-TO-0|text|4014/12||
0070.txt|MMI|0.50|Tobacco use duration:Time:Pt:^Patient:Qn|C4522050|[clna]|"Tobacco use"-text-36-"tobacco use"-NN-0|text|406/11||
0070.txt|MMI|0.50|Tobacco user|C3853727|[fndg]|"Tobacco use"-text-36-"tobacco use"-NN-0|text|406/11||
0070.txt|MMI|0.50|Total protein measurement|C0555903|[lbpr]|"Total protein"-text-0-"Total protein"-JJ-0|text|2445/13||
0070.txt|MMI|0.50|Total protein result|C1261360|[lbtr]|"total protein"-text-0-"Total protein"-JJ-0|text|2445/13||
0070.txt|MMI|0.50|United States Military Commissioned Officer O10|C4521767|[clas]|"General"-text-0-"General"-NNP-0|text|966/7||
0070.txt|MMI|0.50|Usual Severity Vomiting|C4084768|[inpr]|"Vomiting"-text-0-"vomiting"-VBG-0|text|792/8||
0070.txt|MMI|0.50|Value Above Reference Range|C2700149|[inpr]|"High"-text-0-"high"-JJ-0|text|3992/4||
0070.txt|MMI|0.50|Value type - Time|C1548318|[idcn]|"Time"-text-28-"time"-NN-0|text|1939/4||
0070.txt|MMI|0.50|Vomiting, CTCAE|C1963281|[fndg]|"Vomiting"-text-0-"vomiting"-VBG-0|text|792/8||
0070.txt|MMI|0.50|Wheezing, CTCAE|C4553925|[fndg]|"Wheezing"-text-8-"wheezing"-JJ-1|text|3347/8||
0070.txt|MMI|0.50|White Blood Cell Count procedure|C0023508|[lbpr]|"White blood cell count"-text-0-"White blood cell count"-NNP-0|text|2541/22||
0070.txt|MMI|0.50|White blood cell count laboratory result|C0427512|[lbtr]|"white blood cell count"-text-0-"White blood cell count"-NNP-0|text|2541/22||
0070.txt|MMI|0.50|erythrocyte sedimentation rate result|C1619634|[lbtr]|"Erythrocyte Sedimentation Rate"-text-0-"Erythrocyte sedimentation rate"-NNP-0|text|2629/30||
0070.txt|MMI|0.50|high - ActExposureLevelCode|C3887512|[idcn]|"high"-text-0-"high"-JJ-0|text|3992/4||
0070.txt|MMI|0.50|respiratory gaseous exchange in organisms|C1160636|[biof]|"breathing"-text-0-"breathing"-VBG-0|text|1004/9||
