0118.txt|MMI|129.42|Wiskott-Aldrich Syndrome|C0043194|[dsyn]|"WAS"-text-0-"was"-VBD-0,"WAS"-text-2-"was"-VBD-0,"WAS"-text-6-"was"-VBD-0,"WAS"-text-0-"was"-VBD-0,"WAS"-text-0-"was"-VBD-0,"WAS"-text-0-"was"-VBD-0,"WAS"-text-0-"was"-VBD-0,"WAS"-text-0-"was"-VBD-0|text|296/3;346/3;747/3;1094/3;1273/3;1296/3;1474/3;1532/3|C20.673.627.900;C15.378.553.546.605.900;C16.320.798.875;C20.673.795.875;C16.320.322.937;C15.378.463.960;C16.320.099.970;C15.378.100.100.970|
0118.txt|MMI|15.24|WAS protein, human|C1565156|[bacs, aapp]|"WAS"-text-0-"was"-VBD-0,"WAS"-text-2-"was"-VBD-0,"WAS"-text-6-"was"-VBD-0,"WAS"-text-0-"was"-VBD-0,"WAS"-text-0-"was"-VBD-0,"WAS"-text-0-"was"-VBD-0,"WAS"-text-0-"was"-VBD-0,"WAS"-text-0-"was"-VBD-0|text|296/3;346/3;747/3;1094/3;1273/3;1296/3;1474/3;1532/3|x.x.x.x|
0118.txt|MMI|11.11|iron|C0302583|[bacs, elii, phsu]|"iron"-text-0-"Iron"-NNP-0|text|1020/4|D01.268.956.287;D01.552.544.412;D01.268.556.412;D01.268.956.287;D01.552.544.412;D01.268.556.412|
0118.txt|MMI|7.49|Postoperative Period|C0032790|[tmco]|"Postoperative"-text-20-"postoperative"-JJ-0,"Postoperative"-text-0-"Postoperative"-JJ-0|text|467/13;1252/13|N02.421.585.753.750;E04.614.750|
0118.txt|MMI|7.43|Accident and Emergency department|C0562508|[mnob, hcro]|"Emergency"-text-0-"emergency"-NN-0|text|631/9|N02.278.216.500.968.336;N04.452.442.452.422.336;N02.421.297.195|
0118.txt|MMI|6.57|prednisone|C0032952|[horm, orch, phsu]|"prednisone"-text-0-"prednisone"-NN-0,"prednisone"-text-0-"prednisone"-RB-0|text|1521/10;1604/10|D04.210.500.745.432.719.702|
0118.txt|MMI|6.51|polytetrafluoroethylene|C0032611|[bodm, orch]|"PTFE"-text-14-"PTFE"-NNP-0|text|601/4|D25.720.395.616;D05.750.395.616;J01.637.051.720.395.616|
0118.txt|MMI|6.05|Urine|C0042036|[bdsu]|"Urine"-text-6-"urine"-NN-0|text|1462/5|A12.207.927;Y01.040;Y08.040.070;Y01.040;Y08.040.070|
0118.txt|MMI|6.03|Kidney Failure, Chronic|C0022661|[dsyn]|"End stage renal disease"-text-82-"end stage renal disease"-NN-0|text|235/23|C12.777.419.780.750.500;C13.351.968.419.780.750.500|
0118.txt|MMI|5.78|Andorra|C0002838|[geoa]|"AND"-text-8-"and"-CC-0,"AND"-text-0-"and"-CC-0,"AND"-text-0-"and"-CC-0,"AND"-text-8-"and"-CC-0|text|427/3;572/3;721/3;1059/3|Z01.542.049|
0118.txt|MMI|5.13|calcium carbonate|C0006681|[inch, phsu]|"calcium carbonate"-text-6-"calcium carbonate"-NN-0|text|1041/17|D01.578.200;D01.146.275;D01.200.275.150.150|
0118.txt|MMI|4.69|Transplantation|C0040732|[topp]|"Transplant"-text-0-"transplant"-NN-0,"Transplant"-text-16-"transplant"-NN-0|text|641/10;768/10|E04.936;Y11.070.010|
0118.txt|MMI|4.67|cyclosporine|C0010592|[aapp, phsu]|"Cyclosporin"-text-0-"cyclosporin"-NN-0|text|1643/11|D12.644.641.235.300;D04.345.566.235.300|
0118.txt|MMI|4.19|SHE gene|C1822717|[gngm]|"SHE"-text-0-"She"-PRP-0,"SHE"-text-10-"she"-PRP-0,"SHE"-text-0-"She"-PRP-0,"SHE"-text-0-"she"-PRP-0,"SHE"-text-0-"She"-PRP-0,"SHE"-text-0-"She"-PRP-0,"SHE"-text-0-"she"-PRP-0,"SHE"-text-0-"She"-PRP-0|text|371/3;431/3;608/3;700/3;1090/3;1292/3;1424/3;1470/3||
0118.txt|MMI|4.19|She Chinese|C4761447|[popg]|"SHE"-text-0-"She"-PRP-0,"SHE"-text-10-"she"-PRP-0,"SHE"-text-0-"She"-PRP-0,"SHE"-text-0-"she"-PRP-0,"SHE"-text-0-"She"-PRP-0,"SHE"-text-0-"She"-PRP-0,"SHE"-text-0-"she"-PRP-0,"SHE"-text-0-"She"-PRP-0|text|371/3;431/3;608/3;700/3;1090/3;1292/3;1424/3;1470/3||
0118.txt|MMI|4.19|WAS gene|C1421478|[gngm]|"WAS"-text-0-"was"-VBD-0,"WAS"-text-2-"was"-VBD-0,"WAS"-text-6-"was"-VBD-0,"WAS"-text-0-"was"-VBD-0,"WAS"-text-0-"was"-VBD-0,"WAS"-text-0-"was"-VBD-0,"WAS"-text-0-"was"-VBD-0,"WAS"-text-0-"was"-VBD-0|text|296/3;346/3;747/3;1094/3;1273/3;1296/3;1474/3;1532/3||
0118.txt|MMI|4.19|Washoe language|C1555640|[lang]|"WAS"-text-0-"was"-VBD-0,"WAS"-text-2-"was"-VBD-0,"WAS"-text-6-"was"-VBD-0,"WAS"-text-0-"was"-VBD-0,"WAS"-text-0-"was"-VBD-0,"WAS"-text-0-"was"-VBD-0,"WAS"-text-0-"was"-VBD-0,"WAS"-text-0-"was"-VBD-0|text|296/3;346/3;747/3;1094/3;1273/3;1296/3;1474/3;1532/3||
0118.txt|MMI|4.19|Cryopyrin-Associated Periodic Syndromes|C2316212|[dsyn]|"CAPS"-text-0-"Caps"-NNP-0|text|1034/4|C17.800.827.368.500;C16.320.382.500|
0118.txt|MMI|3.81|Hemodialysis|C0019004|[topp]|"Hemodialysis"-text-88-"hemodialysis"-NN-0,"Hemodialysis"-text-4-"hemodialysis"-NN-0|text|264/12;734/12|x.x.x.x|
0118.txt|MMI|2.85|Kidney|C0022646|[bpoc]|"Renal"-text-0-"renal"-JJ-0,"Renal"-text-14-"renal"-JJ-0|text|400/5;911/5|A05.810.453|
0118.txt|MMI|2.85|Transplantation, Homologous|C0040739|[topp]|"allograft"-text-0-"allograft"-NN-0,"allograft"-text-16-"allograft"-NN-0|text|406/9;917/9|E04.936.864|
0118.txt|MMI|2.37|Immunosuppressive Agents|C0021081|[imft, phsu]|"Immunosuppressive Agents"-text-0-"immunosuppressive agents"-JJ-0|text|1315/24|D27.505.696.477.656|
0118.txt|MMI|2.37|creatinine|C0010294|[bacs, orch]|"creatinine"-text-0-"creatinine"-NN-0|text|1362/10|D03.383.129.308.207|
0118.txt|MMI|2.09|And|C1515981|[idcn]|"And"-text-8-"and"-CC-0,"And"-text-0-"and"-CC-0,"And"-text-0-"and"-CC-0,"And"-text-8-"and"-CC-0|text|427/3;572/3;721/3;1059/3||
0118.txt|MMI|2.09|And - dosing instruction fragment|C1706368|[inpr]|"And"-text-8-"and"-CC-0,"And"-text-0-"and"-CC-0,"And"-text-0-"and"-CC-0,"And"-text-8-"and"-CC-0|text|427/3;572/3;721/3;1059/3||
0118.txt|MMI|2.09|Have|C3539897|[qlco]|"Has"-text-0-"has"-VBZ-0,"Has"-text-4-"has"-VBZ-0,"Had"-text-0-"had"-VBD-0,"Has"-text-0-"has"-VBZ-0|text|530/3;580/3;612/3;704/3||
0118.txt|MMI|2.09|Herero language|C0574443|[lang]|"HER"-text-0-"her"-PRP$-0,"HER"-text-0-"her"-PRP$-0,"HER"-text-0-"Her"-PRP$-0,"HER"-text-0-"Her"-PRP$-0|text|725/3;1311/3;1358/3;1517/3||
0118.txt|MMI|2.09|RelationshipConjunction - and|C1550557|[inpr]|"and"-text-8-"and"-CC-0,"and"-text-0-"and"-CC-0,"and"-text-0-"and"-CC-0,"and"-text-8-"and"-CC-0|text|427/3;572/3;721/3;1059/3||
0118.txt|MMI|1.93|Transplant|C3841811|[fndg]|"Transplant"-text-0-"transplant"-NN-0,"Transplant"-text-16-"transplant"-NN-0|text|641/10;768/10|A01.941|
0118.txt|MMI|1.90|Deafness, Sensorineural, And Male Infertility|C1970187|[dsyn]|"DIS"-text-14-"DIS"-NNPS-0|text|81/3|x.x.x.x|
0118.txt|MMI|1.90|HAC protocol|C0062074|[topp]|"HAD"-text-0-"had"-VBD-0|text|612/3|x.x.x.x|
0118.txt|MMI|1.90|Imuran|C0699279|[orch, phsu]|"Imuran"-text-0-"Imuran"-NNP-0|text|1625/6|x.x.x.x|
0118.txt|MMI|1.90|Operating Room|C0029064|[mnob, hcro]|"Operating Room"-text-4-"Operating Room"-NNP-0|text|1111/14|N02.278.388.700|
0118.txt|MMI|1.90|Valium|C0699187|[orch, phsu]|"Valium"-text-10-"Valium"-NNP-0|text|1063/6|x.x.x.x|
0118.txt|MMI|1.57|Access|C0444454|[spco]|"Access"-text-0-"access"-NN-0,"Access"-text-6-"access"-NN-0,"accesses"-text-0-"accesses"-NNS-0|text|556/6;671/6;874/8||
0118.txt|MMI|1.57|Facilitated oscillatory release technique|C1562169|[topp]|"FOR"-text-0-"for"-IN-0,"FOR"-text-0-"for"-IN-0,"FOR"-text-28-"for"-IN-0|text|652/3;816/3;950/3||
0118.txt|MMI|1.57|Preposition For|C0521125|[qlco]|"For"-text-0-"for"-IN-0,"For"-text-0-"for"-IN-0,"For"-text-28-"for"-IN-0|text|652/3;816/3;950/3||
0118.txt|MMI|1.57|WWOX gene|C1421525|[gngm]|"FOR"-text-0-"for"-IN-0,"FOR"-text-0-"for"-IN-0,"FOR"-text-28-"for"-IN-0|text|652/3;816/3;950/3||
0118.txt|MMI|1.57|WWOX wt Allele|C4321252|[gngm]|"FOR"-text-0-"for"-IN-0,"FOR"-text-0-"for"-IN-0,"FOR"-text-28-"for"-IN-0|text|652/3;816/3;950/3||
0118.txt|MMI|1.44|Dietary Iron|C0376520|[inch]|"Iron"-text-0-"Iron"-NNP-0|text|1020/4|D01.490.600|
0118.txt|MMI|1.44|Disease|C0012634|[dsyn]|"DIS"-text-14-"DIS"-NNPS-0|text|81/3|C23.550.288|
0118.txt|MMI|1.42|Hemorrhage|C0019080|[patf]|"bleed"-text-30-"bleed"-NN-0|text|954/5|C23.550.414|
0118.txt|MMI|1.42|Normal Range|C0086715|[qnco]|"Normal Range"-text-0-"normal range"-JJ-0|text|1385/12|E05.978.810|
0118.txt|MMI|1.05|Difficult (qualifier value)|C0332218|[fndg]|"Difficult"-text-0-"difficult"-JJ-0,"Difficult"-text-4-"difficult"-JJ-0|text|546/9;661/9||
0118.txt|MMI|1.05|Drug Administration via Hemodialysis|C1524112|[ftcn]|"HEMODIALYSIS"-text-88-"hemodialysis"-NN-0,"HEMODIALYSIS"-text-4-"hemodialysis"-NN-0|text|264/12;734/12||
0118.txt|MMI|1.05|Early|C1279919|[tmco]|"Early"-text-18-"early"-JJ-0,"Early"-text-0-"early"-RB-0|text|461/5;1398/5||
0118.txt|MMI|1.05|Has difficulty doing (qualifier value)|C1299586|[fndg]|"Difficult"-text-0-"difficult"-JJ-0,"Difficult"-text-4-"difficult"-JJ-0|text|546/9;661/9||
0118.txt|MMI|1.05|Role Class - access|C1554204|[ftcn]|"access"-text-0-"access"-NN-0,"access"-text-6-"access"-NN-0|text|556/6;671/6||
0118.txt|MMI|1.05|Since|C1711239|[tmco]|"Since"-text-90-"since"-IN-0,"Since"-text-6-"since"-IN-0|text|277/5;356/5||
0118.txt|MMI|1.05|This (eukaryote)|C1080058|[euka]|"This"-text-0-"This"-DT-0,"This"-text-2-"this"-DT-0|text|291/4;656/4||
0118.txt|MMI|1.01|Age|C0001779|[orga]|"Age"-text-8-"age"-NN-0,"Age"-text-6-"age"-NN-0|text|362/3;892/3||
0118.txt|MMI|1.01|Age:Time:Point in time:^Patient:Quantitative|C1114365|[clna]|"Age"-text-8-"age"-NN-0,"Age"-text-6-"age"-NN-0|text|362/3;892/3||
0118.txt|MMI|1.01|Allograft source code|C1546537|[inpr]|"Allograft"-text-0-"allograft"-NN-0,"Allograft"-text-16-"allograft"-NN-0|text|406/9;917/9||
0118.txt|MMI|1.01|Allograft surgical material|C0450127|[bodm]|"Allograft"-text-0-"allograft"-NN-0,"Allograft"-text-16-"allograft"-NN-0|text|406/9;917/9||
0118.txt|MMI|1.01|Secondary to|C0175668|[qlco]|"Secondary to"-text-0-"secondary to"-JJ-0,"Secondary to"-text-28-"secondary to"-JJ-0|text|300/12;504/12||
0118.txt|MMI|1.01|Transplant nephrectomy|C0401186|[topp]|"Transplant nephrectomy"-text-24-"transplant nephrectomy"-NN-0,"Transplant nephrectomy"-text-38-"transplant nephrectomy"-NN-0|text|481/22;972/22||
0118.txt|MMI|1.01|Transplanted tissue|C0332835|[tisu]|"Transplant"-text-0-"transplant"-NN-0,"Transplant"-text-16-"transplant"-NN-0|text|641/10;768/10||
0118.txt|MMI|0.98|Index|C0918012|[inpr]|"Index"-text-37-"Index"-NNP-0|text|1809/5|V02.550|
0118.txt|MMI|0.98|Indexes|C0600653|[inpr]|"Index"-text-37-"Index"-NNP-0|text|1809/5|V02.550|
0118.txt|MMI|0.98|Patients|C0030705|[podg]|"Patient"-text-60-"patient"-NN-0|text|199/7|M01.643|
0118.txt|MMI|0.98|Repeat Surgery|C0035110|[topp]|"Reoperation"-text-26-"reoperation"-NN-0|text|938/11|E04.690|
0118.txt|MMI|0.98|Rupture|C3203359|[inpo]|"Rupture"-text-30-"rupture"-VB-0|text|517/7|C26.761|
0118.txt|MMI|0.98|Second Look Surgery|C0949626|[topp]|"Reoperation"-text-26-"reoperation"-NN-0|text|938/11|E04.708|
0118.txt|MMI|0.98|Woman|C0043210|[popg]|"Woman"-text-72-"woman"-NN-0|text|224/5|M01.975|
0118.txt|MMI|0.52|Admission Type - Emergency|C1561588|[idcn]|"Emergency"-text-0-"emergency"-NN-0|text|631/9||
0118.txt|MMI|0.52|Admission date:Time Stamp -- Date and Time:Point in time:^Patient:Quantitative|C2598112|[clna]|"Admission date"-text-18-"Admission Date"-NNP-0|text|85/14||
0118.txt|MMI|0.52|Advanced phase|C0205179|[qlco]|"Advanced"-text-0-"advanced"-VBN-0|text|1488/8||
0118.txt|MMI|0.52|Angio|C4071827|[diap]|"Angio"-text-0-"angio"-NN-0|text|868/5||
0118.txt|MMI|0.52|Attending (action)|C1999232|[ftcn]|"attending"-text-5-"Attending"-VBG-0|text|1741/9||
0118.txt|MMI|0.52|Attending (provider role)|C1547429|[prog]|"Attending"-text-5-"Attending"-VBG-0|text|1741/9||
0118.txt|MMI|0.52|Bale out|C0175673|[tmco]|"Emergency"-text-0-"emergency"-NN-0|text|631/9||
0118.txt|MMI|0.52|Before|C0332152|[tmco]|"Prior to"-text-14-"prior to"-RB-0|text|759/8||
0118.txt|MMI|0.52|Certification patient type - Emergency|C1561584|[idcn]|"Emergency"-text-0-"emergency"-NN-0|text|631/9||
0118.txt|MMI|0.52|Consent Bypass Reason - Emergency|C1561586|[idcn]|"Emergency"-text-0-"emergency"-NN-0|text|631/9||
0118.txt|MMI|0.52|Consent Non-Disclosure Reason - Emergency|C1561589|[idcn]|"Emergency"-text-0-"emergency"-NN-0|text|631/9||
0118.txt|MMI|0.52|Continuous|C0549178|[idcn]|"Continued"-text-0-"continued"-VBD-0|text|1428/9||
0118.txt|MMI|0.52|Course|C0750729|[tmco]|"Course"-text-0-"course"-NN-0|text|1266/6||
0118.txt|MMI|0.52|Creatinine measurement|C0201975|[lbpr]|"Creatinine"-text-0-"creatinine"-NN-0|text|1362/10||
0118.txt|MMI|0.52|Creatinine, CTCAE|C1561535|[fndg]|"Creatinine"-text-0-"creatinine"-NN-0|text|1362/10||
0118.txt|MMI|0.52|Daily|C0332173|[tmco]|"Day"-text-10-"day"-NN-0|text|755/3||
0118.txt|MMI|0.52|Date of admission|C1302393|[tmco]|"Admission date"-text-18-"Admission Date"-NNP-0|text|85/14||
0118.txt|MMI|0.52|Diagnostic interview schedule|C0451119|[inpr]|"DIS"-text-14-"DIS"-NNPS-0|text|81/3||
0118.txt|MMI|0.52|Disabled Person Code - Patient|C1578486|[inpr]|"Patient"-text-60-"patient"-NN-0|text|199/7||
0118.txt|MMI|0.52|Discontinued|C1444662|[fndg]|"DIS"-text-14-"DIS"-NNPS-0|text|81/3||
0118.txt|MMI|0.52|During|C0347984|[tmco]|"Over"-text-0-"Over"-IN-0|text|1406/4||
0118.txt|MMI|0.52|EHD1 wt Allele|C4284302|[gngm]|"PAST"-text-0-"PAST"-NNP-0|text|835/4||
0118.txt|MMI|0.52|Emergencies [Disease/Finding]|C2745965|[patf]|"Emergency"-text-0-"emergency"-NN-0|text|631/9||
0118.txt|MMI|0.52|Emergency Situation|C0013956|[phpr]|"Emergency"-text-0-"emergency"-NN-0|text|631/9||
0118.txt|MMI|0.52|Encounter Admission Source - emergency|C1546399|[fndg]|"emergency"-text-0-"emergency"-NN-0|text|631/9||
0118.txt|MMI|0.52|Event Seriousness - Significant|C1546944|[qlco]|"Significant"-text-0-"Significant"-NNP-0|text|804/11||
0118.txt|MMI|0.52|Ferrum metallicum, Homeopathic preparation|C1166521|[phsu]|"iron"-text-0-"Iron"-NNP-0|text|1020/4||
0118.txt|MMI|0.52|Followed by|C0332283|[tmco]|"Followed by"-text-34-"followed by"-VBN-0|text|960/11||
0118.txt|MMI|0.52|Following|C0332282|[tmco]|"Followed By"-text-34-"followed by"-VBN-0|text|960/11||
0118.txt|MMI|0.52|HADH gene|C1415458|[gngm]|"HAD"-text-0-"had"-VBD-0|text|612/3||
0118.txt|MMI|0.52|Healthy|C3898900|[qlco]|"Healthy"-text-0-"healthy"-JJ-0|text|713/7||
0118.txt|MMI|0.52|History of present illness|C0262512|[fndg]|"History of present illness"-text-54-"HISTORY OF PRESENT ILLNESS"-NN-0|text|166/26||
0118.txt|MMI|0.52|History of present illness:Finding:Point in time:^Patient:Nominal:Reported|C0488508|[clna]|"History of Present illness"-text-54-"HISTORY OF PRESENT ILLNESS"-NN-0|text|166/26||
0118.txt|MMI|0.52|Hospital admission|C0184666|[hlca]|"Admit"-text-0-"ADMIT"-NNP-0|text|1012/5||
0118.txt|MMI|0.52|Hospital course|C0489547|[fndg]|"Hospital course"-text-0-"HOSPITAL COURSE"-NNP-0|text|1072/15||
0118.txt|MMI|0.52|Hospital course:Finding:Point in time:^Patient:Narrative|C0488549|[clna]|"Hospital course"-text-0-"HOSPITAL COURSE"-NNP-0|text|1072/15||
0118.txt|MMI|0.52|Html Link Type - index|C1552854|[idcn]|"index"-text-37-"Index"-NNP-0|text|1809/5||
0118.txt|MMI|0.52|Human, Female adult|C4281745|[humn]|"Woman"-text-72-"woman"-NN-0|text|224/5||
0118.txt|MMI|0.52|Hypertension, CTCAE|C1963138|[fndg]|"Hypertension"-text-0-"hypertension"-NN-0|text|820/12||
0118.txt|MMI|0.52|Hypertensive disease|C0020538|[dsyn]|"Hypertension"-text-0-"hypertension"-NN-0|text|820/12||
0118.txt|MMI|0.52|In Urine|C0042037|[ftcn]|"urine"-text-6-"urine"-NN-0|text|1462/5||
0118.txt|MMI|0.52|In addition to|C0332287|[ftcn]|"With"-text-74-"with"-IN-0|text|230/4||
0118.txt|MMI|0.52|In the past|C1444637|[tmco]|"Past"-text-0-"PAST"-NNP-0|text|835/4||
0118.txt|MMI|0.52|Iron Drug Class|C3714701|[phsu]|"IRON"-text-0-"Iron"-NNP-0|text|1020/4||
0118.txt|MMI|0.52|Iron measurement|C0337439|[lbpr]|"Iron"-text-0-"Iron"-NNP-0|text|1020/4||
0118.txt|MMI|0.52|Is a|C1292718|[ftcn]|"Is a"-text-64-"is a"-VBZ-0|text|207/4||
0118.txt|MMI|0.52|Last|C1517741|[qlco]|"Last"-text-2-"last"-JJ-0|text|729/4||
0118.txt|MMI|0.52|Level of Care - Emergency|C1561585|[idcn]|"Emergency"-text-0-"emergency"-NN-0|text|631/9||
0118.txt|MMI|0.52|Mail Claim Party - Patient|C1578481|[idcn]|"Patient"-text-60-"patient"-NN-0|text|199/7||
0118.txt|MMI|0.52|Make - Instruction Imperative|C1881534|[ftcn]|"Make"-text-0-"make"-VB-0|text|1441/4||
0118.txt|MMI|0.52|Manufacturer Name|C0947322|[inpr]|"Make"-text-0-"make"-VB-0|text|1441/4||
0118.txt|MMI|0.52|Medical Device Material Rupture|C1881712|[fndg]|"Rupture"-text-30-"rupture"-VB-0|text|517/7||
0118.txt|MMI|0.52|Medical History|C0262926|[fndg]|"Past Medical History"-text-0-"PAST MEDICAL HISTORY"-NN-0|text|781/20||
0118.txt|MMI|0.52|Medications|C4284232|[inpr]|"Medications"-text-0-"MEDICATIONS"-NNS-0|text|997/11||
0118.txt|MMI|0.52|Medications:-:Point in time:^Patient:-|C2598133|[clna]|"Medications"-text-0-"MEDICATIONS"-NNS-0|text|997/11||
0118.txt|MMI|0.52|Medications:Presence or Identity:Duration of the study:^Patient:Nominal|C0802604|[clna]|"Medications"-text-0-"MEDICATIONS"-NNS-0|text|997/11||
0118.txt|MMI|0.52|Normal|C0205307|[qlco]|"Unremarkable"-text-0-"unremarkable"-JJ-0|text|1277/12||
0118.txt|MMI|0.52|Notable|C4288581|[qlco]|"Noted"-text-4-"noted"-VBN-0|text|350/5||
0118.txt|MMI|0.52|Now (cigarettes)|C4760243|[mnob]|"Now"-text-2-"now"-RB-0|text|576/3||
0118.txt|MMI|0.52|Now (temporal qualifier)|C1948052|[tmco]|"Now"-text-2-"now"-RB-0|text|576/3||
0118.txt|MMI|0.52|Now - dosing instruction fragment|C1720566|[inpr]|"Now"-text-2-"now"-RB-0|text|576/3||
0118.txt|MMI|0.52|Numerous|C0439064|[qnco]|"Multiple"-text-0-"Multiple"-JJ-0|text|859/8||
0118.txt|MMI|0.52|Old|C0580836|[tmco]|"Old"-text-70-"old"-JJ-0|text|220/3||
0118.txt|MMI|0.52|Old episode|C0677546|[tmco]|"Old"-text-70-"old"-JJ-0|text|220/3||
0118.txt|MMI|0.52|Over (spatial)|C0205136|[spco]|"Over"-text-0-"Over"-IN-0|text|1406/4||
0118.txt|MMI|0.52|PMH - past medical history|C0455458|[fndg]|"Past medical history"-text-0-"PAST MEDICAL HISTORY"-NN-0|text|781/20||
0118.txt|MMI|0.52|Patient Class - Emergency|C1561583|[idcn]|"Emergency"-text-0-"emergency"-NN-0|text|631/9||
0118.txt|MMI|0.52|Patient Condition Code - Stable|C1547311|[inpr]|"Stable"-text-0-"stable"-JJ-0|text|1549/6||
0118.txt|MMI|0.52|Patient location type - Operating Room|C1578465|[spco]|"Operating Room"-text-4-"Operating Room"-NNP-0|text|1111/14||
0118.txt|MMI|0.52|Pharmaceutical Preparations|C0013227|[phsu]|"medications"-text-0-"MEDICATIONS"-NNS-0|text|997/11|D26|
0118.txt|MMI|0.52|Placement action|C1533810|[hlca]|"Placed"-text-0-"placed"-VBN-0|text|621/6||
0118.txt|MMI|0.52|Polycystic|C3273362|[qlco]|"Polycystic"-text-0-"polycystic"-JJ-0|text|313/10||
0118.txt|MMI|0.52|Portion of urine|C2963137|[bdsu]|"Urine"-text-6-"urine"-NN-0|text|1462/5||
0118.txt|MMI|0.52|Post|C0687676|[tmco]|"Status Post"-text-0-"status post"-NN-0|text|378/11||
0118.txt|MMI|0.52|Precision - day|C1561539|[idcn]|"day"-text-10-"day"-NN-0|text|755/3||
0118.txt|MMI|0.52|Precision - year|C1561544|[idcn]|"year"-text-68-"year"-NN-0|text|215/4||
0118.txt|MMI|0.52|Problem|C0033213|[fndg]|"Problem"-text-8-"problem"-NN-0|text|678/7||
0118.txt|MMI|0.52|Problem:Find:Pt:^Patient:Nom|C3854081|[clna]|"Problem"-text-8-"problem"-NN-0|text|678/7||
0118.txt|MMI|0.52|Problems - What subject filter|C1546466|[idcn]|"Problems"-text-0-"problems"-NNS-0|text|563/8||
0118.txt|MMI|0.52|Quantity|C1265611|[qnco]|"amounts"-text-2-"amounts"-NNS-0|text|1451/7||
0118.txt|MMI|0.52|Referral category - Emergency|C1561587|[idcn]|"Emergency"-text-0-"emergency"-NN-0|text|631/9||
0118.txt|MMI|0.52|Relationship modifier - Patient|C1578484|[idcn]|"Patient"-text-60-"patient"-NN-0|text|199/7||
0118.txt|MMI|0.52|Report source - Patient|C1578483|[idcn]|"Patient"-text-60-"patient"-NN-0|text|199/7||
0118.txt|MMI|0.52|Report status (finding)|C0586177|[fndg]|"Report status"-text-30-"Report Status"-NNP-0|text|113/13||
0118.txt|MMI|0.52|Report status:Type:Point in time:Report:Nominal|C4760061|[clna]|"Report status"-text-30-"Report Status"-NNP-0|text|113/13||
0118.txt|MMI|0.52|Several days|C3845714|[fndg]|"Several days"-text-0-"several days"-JJ-0|text|1411/12||
0118.txt|MMI|0.52|Significant|C0750502|[idcn]|"Significant"-text-0-"Significant"-NNP-0|text|804/11||
0118.txt|MMI|0.52|Specialty Type - Emergency|C1547144|[bmod]|"Emergency"-text-0-"emergency"-NN-0|text|631/9||
0118.txt|MMI|0.52|Specimen Source Codes - Patient|C1578485|[inpr]|"Patient"-text-60-"patient"-NN-0|text|199/7||
0118.txt|MMI|0.52|Specimen Source Codes - Urine|C1547942|[inpr]|"Urine"-text-6-"urine"-NN-0|text|1462/5||
0118.txt|MMI|0.52|Specimen Type - Patient|C1550655|[bdsu]|"Patient"-text-60-"patient"-NN-0|text|199/7||
0118.txt|MMI|0.52|Stable status|C0205360|[qlco]|"Stable"-text-0-"stable"-JJ-0|text|1549/6||
0118.txt|MMI|0.52|Started|C1272689|[qlco]|"Started"-text-0-"started"-VBN-0|text|1300/7||
0118.txt|MMI|0.52|Statistical Significance|C0237881|[qnco]|"significant"-text-0-"Significant"-NNP-0|text|804/11||
0118.txt|MMI|0.52|Status post|C0231290|[tmco]|"Status post"-text-0-"status post"-NN-0|text|378/11||
0118.txt|MMI|0.52|Tahitian language|C0574402|[lang]|"TAH"-text-2-"TAH"-NNP-0|text|885/3||
0118.txt|MMI|0.52|Taken|C1883727|[cnce]|"Taken"-text-0-"taken"-VBN-0|text|1098/5||
0118.txt|MMI|0.52|Tapering - action|C0441640|[hlca]|"tapered"-text-0-"tapered"-VBN-0|text|1536/7||
0118.txt|MMI|0.52|Target Lesion Identification|C2986546|[diap]|"Index"-text-37-"Index"-NNP-0|text|1809/5||
0118.txt|MMI|0.52|Total abdominal hysterectomy|C0404079|[topp]|"tah"-text-2-"TAH"-NNP-0|text|885/3||
0118.txt|MMI|0.52|Transaction counts and value totals - day|C1561538|[inpr]|"day"-text-10-"day"-NN-0|text|755/3||
0118.txt|MMI|0.52|Transaction counts and value totals - year|C1561543|[inpr]|"year"-text-68-"year"-NN-0|text|215/4||
0118.txt|MMI|0.52|Urine - SpecimenType|C1610733|[bdsu]|"Urine"-text-6-"urine"-NN-0|text|1462/5||
0118.txt|MMI|0.52|Veterinary Patient|C1705908|[orgm]|"Patient"-text-60-"patient"-NN-0|text|199/7||
0118.txt|MMI|0.52|Visit Priority Code - Emergency|C1546844|[inpr]|"Emergency"-text-0-"emergency"-NN-0|text|631/9||
0118.txt|MMI|0.52|With - dosing instruction fragment|C1705690|[inpr]|"With"-text-74-"with"-IN-0|text|230/4||
0118.txt|MMI|0.52|day|C0439228|[tmco]|"day"-text-10-"day"-NN-0|text|755/3||
0118.txt|MMI|0.52|emergency encounter|C1553500|[hlca]|"emergency"-text-0-"emergency"-NN-0|text|631/9||
0118.txt|MMI|0.52|per protocol|C1698058|[ftcn]|"per protocol"-text-4-"per protocol"-IN-0|text|1343/12||
0118.txt|MMI|0.52|surgical history|C0744961|[fndg]|"surgical history"-text-0-"SURGICAL HISTORY"-NNP-0|text|840/16||
0118.txt|MMI|0.52|year|C0439234|[tmco]|"year"-text-68-"year"-NN-0|text|215/4||
0118.txt|MMI|0.50|120|C4319550|[qnco]|"120"-text-0-"120"-CD-0|text|1632/3||
0118.txt|MMI|0.50|400|C3816746|[qnco]|"400"-text-0-"400"-CD-0|text|1655/3||
0118.txt|MMI|0.50|Batch (Response Modality)|C1550176|[inpr]|"Batch"-text-31-"Batch"-NN-0|text|1796/5||
0118.txt|MMI|0.50|Batch (group)|C1948031|[qnco]|"Batch"-text-31-"Batch"-NN-0|text|1796/5||
0118.txt|MMI|0.50|Batch Number|C3641829|[inpr]|"BATCH"-text-31-"Batch"-NN-0|text|1796/5||
0118.txt|MMI|0.50|CADPS gene|C1413079|[gngm]|"CAPS"-text-0-"Caps"-NNP-0|text|1034/4||
0118.txt|MMI|0.50|CAPS gene|C1413120|[gngm]|"CAPS"-text-0-"Caps"-NNP-0|text|1034/4||
0118.txt|MMI|0.50|Caps|C0179586|[mnob]|"Caps"-text-0-"Caps"-NNP-0|text|1034/4||
0118.txt|MMI|0.50|Chronic kidney disease stage 5|C2316810|[dsyn]|"End stage renal disease"-text-82-"end stage renal disease"-NN-0|text|235/23||
0118.txt|MMI|0.50|Discharge date|C2361123|[tmco]|"Discharge date"-text-38-"Discharge Date"-NNP-0|text|138/14||
0118.txt|MMI|0.50|Discharge date:Time Stamp -- Date and Time:Point in time:^Patient:Quantitative|C2361122|[clna]|"Discharge date"-text-38-"Discharge Date"-NNP-0|text|138/14||
0118.txt|MMI|0.50|Discharge summarization note:Finding:Point in time:{Setting}:Document:{Provider}|C0801840|[clna]|"Discharge summary"-text-10-"Discharge Summary"-JJ-0|text|54/17||
0118.txt|MMI|0.50|Discharge summary|C0743221|[inpr]|"Discharge summary"-text-10-"Discharge Summary"-JJ-0|text|54/17||
0118.txt|MMI|0.50|Dosage|C0178602|[qnco]|"Dose"-text-0-"dose"-NN-0|text|1556/4||
0118.txt|MMI|0.50|Entire left upper arm|C1268256|[bpoc]|"Left upper arm"-text-12-"left upper arm"-JJ-0|text|586/14||
0118.txt|MMI|0.50|Good|C0205170|[qlco]|"Good"-text-0-"good"-JJ-0|text|1446/4||
0118.txt|MMI|0.50|Language Ability Proficiency - Good|C1551023|[idcn]|"Good"-text-0-"good"-JJ-0|text|1446/4||
0118.txt|MMI|0.50|Language Proficiency - Good|C1610541|[idcn]|"Good"-text-0-"good"-JJ-0|text|1446/4||
0118.txt|MMI|0.50|Left upper arm structure|C0230347|[bpoc]|"Left upper arm"-text-12-"left upper arm"-JJ-0|text|586/14||
0118.txt|MMI|0.50|Medication.discharge|C0806915|[fndg]|"Discharge medications"-text-0-"Discharge medications"-NNP-0|text|1577/21||
0118.txt|MMI|0.50|Normal diet|C0184625|[dora]|"Regular diet"-text-0-"regular diet"-JJ-0|text|1502/12||
0118.txt|MMI|0.50|Specimen Quality - Good|C1561563|[qlco]|"Good"-text-0-"good"-JJ-0|text|1446/4||
0118.txt|MMI|0.50|Unit dose|C0869039|[qnco]|"Dose"-text-0-"dose"-NN-0|text|1556/4||
0118.txt|MMI|0.50|capsule (pharmacologic)|C0006935|[bodm]|"Caps"-text-0-"Caps"-NNP-0|text|1034/4||
