0121.txt|MMI|339.78|Wiskott-Aldrich Syndrome|C0043194|[dsyn]|"WAS"-text-0-"was"-VBD-0,"WAS"-text-0-"Was"-VBD-0,"WAS"-text-0-"was"-VBD-0,"WAS"-text-0-"was"-VBD-0,"WAS"-text-0-"was"-VBD-0,"WAS"-text-0-"was"-VBD-0,"WAS"-text-0-"was"-VBD-0,"WAS"-text-22-"was"-VBD-0,"WAS"-text-0-"was"-VBD-0,"WAS"-text-0-"was"-VBD-0,"WAS"-text-0-"was"-VBD-0,"WAS"-text-0-"was"-VBD-0,"WAS"-text-0-"was"-VBD-0,"WAS"-text-0-"was"-VBD-0,"WAS"-text-0-"was"-VBD-0,"WAS"-text-0-"was"-VBD-0,"WAS"-text-7-"was"-VBD-0,"WAS"-text-0-"was"-VBD-0,"WAS"-text-0-"was"-VBD-0,"WAS"-text-0-"was"-VBD-0,"WAS"-text-0-"was"-VBD-0|text|698/3;772/3;5602/3;5917/3;5934/3;5988/3;6053/3;6163/3;6214/3;6269/3;6320/3;6375/3;6598/3;6777/3;6911/3;6974/3;7139/3;7472/3;7546/3;7600/3;7629/3|C20.673.627.900;C15.378.553.546.605.900;C16.320.798.875;C20.673.795.875;C16.320.322.937;C15.378.463.960;C16.320.099.970;C15.378.100.100.970|
0121.txt|MMI|40.01|WAS protein, human|C1565156|[bacs, aapp]|"WAS"-text-0-"was"-VBD-0,"WAS"-text-0-"Was"-VBD-0,"WAS"-text-0-"was"-VBD-0,"WAS"-text-0-"was"-VBD-0,"WAS"-text-0-"was"-VBD-0,"WAS"-text-0-"was"-VBD-0,"WAS"-text-0-"was"-VBD-0,"WAS"-text-22-"was"-VBD-0,"WAS"-text-0-"was"-VBD-0,"WAS"-text-0-"was"-VBD-0,"WAS"-text-0-"was"-VBD-0,"WAS"-text-0-"was"-VBD-0,"WAS"-text-0-"was"-VBD-0,"WAS"-text-0-"was"-VBD-0,"WAS"-text-0-"was"-VBD-0,"WAS"-text-0-"was"-VBD-0,"WAS"-text-7-"was"-VBD-0,"WAS"-text-0-"was"-VBD-0,"WAS"-text-0-"was"-VBD-0,"WAS"-text-0-"was"-VBD-0,"WAS"-text-0-"was"-VBD-0|text|698/3;772/3;5602/3;5917/3;5934/3;5988/3;6053/3;6163/3;6214/3;6269/3;6320/3;6375/3;6598/3;6777/3;6911/3;6974/3;7139/3;7472/3;7546/3;7600/3;7629/3|x.x.x.x|
0121.txt|MMI|30.34|Andorra|C0002838|[geoa]|"AND"-text-0-"and"-CC-0,"AND"-text-50-"and"-CC-0,"AND"-text-113-"and"-CC-0,"AND"-text-0-"and"-CC-0,"AND"-text-12-"and"-CC-0,"AND"-text-0-"and"-CC-0,"AND"-text-0-"and"-CC-0,"AND"-text-0-"and"-CC-0,"AND"-text-0-"and"-CC-0,"AND"-text-0-"and"-CC-0,"AND"-text-0-"and"-CC-0,"AND"-text-12-"and"-CC-0,"AND"-text-12-"and"-CC-0,"AND"-text-0-"and"-CC-0,"AND"-text-0-"and"-CC-0,"AND"-text-0-"and"-CC-0,"AND"-text-0-"and"-CC-0,"AND"-text-0-"and"-CC-0,"AND"-text-0-"and"-CC-0,"AND"-text-0-"and"-CC-0,"AND"-text-0-"and"-CC-0|text|298/3;490/3;673/3;801/3;1366/3;1416/3;1521/3;1578/3;1622/3;2703/3;5008/3;5575/3;5867/3;6013/3;6095/3;6438/3;6661/3;6814/3;6863/3;7205/3;7370/3|Z01.542.049|
0121.txt|MMI|20.38|GAG Gene|C0017346|[gngm]|"GAG"-text-0-"gag"-NN-0,"GAG"-text-0-"gag"-NN-0|text|2993/3;6841/3|G05.360.340.024.340.364.875.258;G05.360.340.358.840.500.258;G05.360.340.358.024.875.258|
0121.txt|MMI|17.56|vitamin K|C0042878|[vita, orch, phsu]|"vitamin K"-text-0-"Vitamin K"-NNP-0|text|1511/9|D02.455.849.291.523.500;D04.615.638.721.374;D02.455.426.559.847.638.721.374;D02.455.849.291.523.500;D04.615.638.721.374;D02.455.426.559.847.638.721.374|
0121.txt|MMI|15.78|Dysarthria|C0013362|[mobd]|"Dysarthria"-text-115-"dysarthria"-NN-0,"Dysarthria"-text-60-"dysarthria"-NN-0|text|677/10;5470/10|C23.888.592.604.150.500.800.150.200;C10.597.606.150.500.800.150.200|
0121.txt|MMI|14.99|histidine|C0019602|[bacs, aapp, phsu]|"HIS"-text-88-"his"-PRP$-0,"HIS"-text-0-"his"-PRP$-0,"HIS"-text-0-"his"-PRP$-0,"HIS"-text-4-"his"-PRP$-0|text|605/3;705/3;6933/3;7528/3|D12.125.072.329;D12.125.142.308|
0121.txt|MMI|14.86|Accident and Emergency department|C0562508|[mnob, hcro]|"Emergency Department"-text-0-"emergency department"-NN-0,"Emergency Room"-text-6-"emergency room"-NN-0|text|5660/20;6033/14|N02.278.216.500.968.336;N04.452.442.452.422.336;N02.421.297.195|
0121.txt|MMI|14.82|Cerebral Hemorrhage|C2937358|[patf]|"Intracerebral Hemorrhage"-text-0-"intracerebral hemorrhage"-NN-0,"Intracerebral Hemorrhage"-text-0-"intracerebral hemorrhage"-JJ-0|text|1258/24;5518/24|C10.228.140.300.535.200;C14.907.253.573.200;C23.550.414.913.100|
0121.txt|MMI|13.02|labetalol|C0022860|[orch, phsu]|"labetalol"-text-0-"Labetalol"-NNP-0,"labetalol"-text-0-"Labetalol"-NNP-0|text|1406/9;6345/9|D02.092.063.291.460;D02.033.100.291.460;D02.065.793.324|
0121.txt|MMI|11.09|Patient Discharge|C0030685|[hlca]|"Discharge"-text-0-"Discharge"-NNP-0|text|7954/9|N04.590.233.727.210.125;E02.760.169.125;N02.421.585.169.125;E02.760.400.610;N02.421.585.400.610|
0121.txt|MMI|10.99|And|C1515981|[idcn]|"And"-text-0-"and"-CC-0,"And"-text-50-"and"-CC-0,"And"-text-113-"and"-CC-0,"And"-text-0-"and"-CC-0,"And"-text-12-"and"-CC-0,"And"-text-0-"and"-CC-0,"And"-text-0-"and"-CC-0,"And"-text-0-"and"-CC-0,"And"-text-0-"and"-CC-0,"And"-text-0-"and"-CC-0,"And"-text-0-"and"-CC-0,"And"-text-12-"and"-CC-0,"And"-text-12-"and"-CC-0,"And"-text-0-"and"-CC-0,"And"-text-0-"and"-CC-0,"And"-text-0-"and"-CC-0,"And"-text-0-"and"-CC-0,"And"-text-0-"and"-CC-0,"And"-text-0-"and"-CC-0,"And"-text-0-"and"-CC-0,"And"-text-0-"and"-CC-0|text|298/3;490/3;673/3;801/3;1366/3;1416/3;1521/3;1578/3;1622/3;2703/3;5008/3;5575/3;5867/3;6013/3;6095/3;6438/3;6661/3;6814/3;6863/3;7205/3;7370/3||
0121.txt|MMI|10.99|And - dosing instruction fragment|C1706368|[inpr]|"And"-text-0-"and"-CC-0,"And"-text-50-"and"-CC-0,"And"-text-113-"and"-CC-0,"And"-text-0-"and"-CC-0,"And"-text-12-"and"-CC-0,"And"-text-0-"and"-CC-0,"And"-text-0-"and"-CC-0,"And"-text-0-"and"-CC-0,"And"-text-0-"and"-CC-0,"And"-text-0-"and"-CC-0,"And"-text-0-"and"-CC-0,"And"-text-12-"and"-CC-0,"And"-text-12-"and"-CC-0,"And"-text-0-"and"-CC-0,"And"-text-0-"and"-CC-0,"And"-text-0-"and"-CC-0,"And"-text-0-"and"-CC-0,"And"-text-0-"and"-CC-0,"And"-text-0-"and"-CC-0,"And"-text-0-"and"-CC-0,"And"-text-0-"and"-CC-0|text|298/3;490/3;673/3;801/3;1366/3;1416/3;1521/3;1578/3;1622/3;2703/3;5008/3;5575/3;5867/3;6013/3;6095/3;6438/3;6661/3;6814/3;6863/3;7205/3;7370/3||
0121.txt|MMI|10.99|RelationshipConjunction - and|C1550557|[inpr]|"and"-text-0-"and"-CC-0,"and"-text-50-"and"-CC-0,"and"-text-113-"and"-CC-0,"and"-text-0-"and"-CC-0,"and"-text-12-"and"-CC-0,"and"-text-0-"and"-CC-0,"and"-text-0-"and"-CC-0,"and"-text-0-"and"-CC-0,"and"-text-0-"and"-CC-0,"and"-text-0-"and"-CC-0,"and"-text-0-"and"-CC-0,"and"-text-12-"and"-CC-0,"and"-text-12-"and"-CC-0,"and"-text-0-"and"-CC-0,"and"-text-0-"and"-CC-0,"and"-text-0-"and"-CC-0,"and"-text-0-"and"-CC-0,"and"-text-0-"and"-CC-0,"and"-text-0-"and"-CC-0,"and"-text-0-"and"-CC-0,"and"-text-0-"and"-CC-0|text|298/3;490/3;673/3;801/3;1366/3;1416/3;1521/3;1578/3;1622/3;2703/3;5008/3;5575/3;5867/3;6013/3;6095/3;6438/3;6661/3;6814/3;6863/3;7205/3;7370/3||
0121.txt|MMI|10.99|WAS gene|C1421478|[gngm]|"WAS"-text-0-"was"-VBD-0,"WAS"-text-0-"Was"-VBD-0,"WAS"-text-0-"was"-VBD-0,"WAS"-text-0-"was"-VBD-0,"WAS"-text-0-"was"-VBD-0,"WAS"-text-0-"was"-VBD-0,"WAS"-text-0-"was"-VBD-0,"WAS"-text-22-"was"-VBD-0,"WAS"-text-0-"was"-VBD-0,"WAS"-text-0-"was"-VBD-0,"WAS"-text-0-"was"-VBD-0,"WAS"-text-0-"was"-VBD-0,"WAS"-text-0-"was"-VBD-0,"WAS"-text-0-"was"-VBD-0,"WAS"-text-0-"was"-VBD-0,"WAS"-text-0-"was"-VBD-0,"WAS"-text-7-"was"-VBD-0,"WAS"-text-0-"was"-VBD-0,"WAS"-text-0-"was"-VBD-0,"WAS"-text-0-"was"-VBD-0,"WAS"-text-0-"was"-VBD-0|text|698/3;772/3;5602/3;5917/3;5934/3;5988/3;6053/3;6163/3;6214/3;6269/3;6320/3;6375/3;6598/3;6777/3;6911/3;6974/3;7139/3;7472/3;7546/3;7600/3;7629/3||
0121.txt|MMI|10.99|Washoe language|C1555640|[lang]|"WAS"-text-0-"was"-VBD-0,"WAS"-text-0-"Was"-VBD-0,"WAS"-text-0-"was"-VBD-0,"WAS"-text-0-"was"-VBD-0,"WAS"-text-0-"was"-VBD-0,"WAS"-text-0-"was"-VBD-0,"WAS"-text-0-"was"-VBD-0,"WAS"-text-22-"was"-VBD-0,"WAS"-text-0-"was"-VBD-0,"WAS"-text-0-"was"-VBD-0,"WAS"-text-0-"was"-VBD-0,"WAS"-text-0-"was"-VBD-0,"WAS"-text-0-"was"-VBD-0,"WAS"-text-0-"was"-VBD-0,"WAS"-text-0-"was"-VBD-0,"WAS"-text-0-"was"-VBD-0,"WAS"-text-7-"was"-VBD-0,"WAS"-text-0-"was"-VBD-0,"WAS"-text-0-"was"-VBD-0,"WAS"-text-0-"was"-VBD-0,"WAS"-text-0-"was"-VBD-0|text|698/3;772/3;5602/3;5917/3;5934/3;5988/3;6053/3;6163/3;6214/3;6269/3;6320/3;6375/3;6598/3;6777/3;6911/3;6974/3;7139/3;7472/3;7546/3;7600/3;7629/3||
0121.txt|MMI|9.86|mannitol|C0024730|[orch, phsu]|"mannitol"-text-0-"Mannitol"-NNP-0,"mannitol"-text-0-"Mannitol"-NNP-0,"mannitol"-text-0-"Mannitol"-NNP-0|text|1635/8;6004/8;6429/8|D02.033.800.609;D09.853.609|
0121.txt|MMI|9.84|Patients|C0030705|[podg]|"Patient"-text-0-"Patient"-NNP-0,"Patient"-text-0-"Patient"-NNP-0,"Patient"-text-0-"Patient"-NNP-0,"Patient"-text-0-"patient"-NN-0,"Patient"-text-0-"patient"-NN-0,"Patient"-text-18-"patient"-NN-0,"Patient"-text-0-"patient"-NN-0,"Patient"-text-0-"patient"-NN-0,"Patient"-text-6-"patient"-NN-0,"Patient"-text-0-"patient"-NN-0|text|356/7;690/7;5271/7;6206/7;6499/7;6711/7;6966/7;7116/7;7300/7;7584/7|M01.643|
0121.txt|MMI|9.52|wife|C0242665|[famg]|"wife"-text-0-"wife"-NN-0,"wife"-text-1-"wife"-NN-0,"wife"-text-1-"wife"-NN-0,"wife"-text-6-"wife"-NN-0,"wife"-text-0-"wife"-NN-0|text|850/4;6510/4;7127/4;7532/4;7595/4|x.x.x.x|
0121.txt|MMI|9.33|Pupil|C0034121|[bpoc]|"Pupils"-text-0-"Pupils"-NNS-0,"Pupils"-text-0-"Pupils"-NNS-0|text|1553/6;6796/6|A09.371.894.513.780;A09.371.060.450.780|
0121.txt|MMI|8.35|Upper Esophageal Sphincter|C1451819|[bpoc]|"UES"-text-0-"UEs"-NNP-0|text|3102/3|A14.724.617.360;A04.623.617.360;A02.633.567.800.360;A03.556.875.500.360|
0121.txt|MMI|8.35|daunorubicin|C0011015|[antb, orch]|"DNR"-text-11-"DNR"-NN-0|text|6533/3|D04.615.562.050.200;D09.408.051.059.200;D02.455.426.559.847.562.050.200|
0121.txt|MMI|7.62|Intubation|C0021925|[topp]|"Intubation"-text-0-"Intubation"-NN-0,"Intubation"-text-10-"intubation"-NN-0,"Intubation"-text-0-"intubation"-NN-0,"Intubations"-text-0-"intubations"-NNS-0|text|287/10;5725/10;5777/10;5796/11|E02.585;E05.497|
0121.txt|MMI|7.62|intensive care unit|C0021708|[mnob, hcro]|"intensive care unit"-text-0-"intensive care unit"-JJ-0,"ICU"-text-2-"ICU"-NNP-0,"ICU"-text-0-"ICU"-NNP-0,"ICU"-text-0-"ICU"-NNP-0|text|1661/19;5979/3;6200/3;6665/3|N02.278.388.493|
0121.txt|MMI|6.97|Brain Death|C0006110|[patf]|"Brain Death"-text-14-"brain death"-NN-0|text|7022/11|C23.550.260.159;C10.597.606.358.800.200.100;C10.228.140.151|
0121.txt|MMI|6.97|Coronary Artery Disease|C1956346|[dsyn]|"Coronary Artery Disease"-text-36-"coronary artery disease"-JJ-0|text|5378/23|C14.280.647.250.260;C14.907.137.126.339;C14.907.585.250.260|
0121.txt|MMI|6.95|Angioplasty|C0162577|[topp]|"Angioplasty"-text-48-"angioplasty"-JJ-0|text|478/11|E04.100.814.529.124;E04.502.382.124;E05.157.016;E02.148.050|
0121.txt|MMI|6.81|In addition to|C0332287|[ftcn]|"With"-text-14-"with"-IN-0,"With"-text-0-"with"-IN-0,"With"-text-2-"with"-IN-0,"With"-text-0-"with"-IN-0,"With"-text-0-"with"-IN-0,"With"-text-12-"with"-IN-0,"With"-text-46-"with"-IN-0,"With"-text-0-"with"-IN-0,"With"-text-4-"with"-IN-0,"With"-text-0-"with"-IN-0,"With"-text-0-"with"-IN-0,"With"-text-11-"with"-IN-0,"With"-text-2-"with"-IN-0|text|399/4;1608/4;2917/4;3091/4;4832/4;5315/4;5430/4;5999/4;6227/4;7063/4;7111/4;7153/4;7523/4||
0121.txt|MMI|6.81|With - dosing instruction fragment|C1705690|[inpr]|"With"-text-14-"with"-IN-0,"With"-text-0-"with"-IN-0,"With"-text-2-"with"-IN-0,"With"-text-0-"with"-IN-0,"With"-text-0-"with"-IN-0,"With"-text-12-"with"-IN-0,"With"-text-46-"with"-IN-0,"With"-text-0-"with"-IN-0,"With"-text-4-"with"-IN-0,"With"-text-0-"with"-IN-0,"With"-text-0-"with"-IN-0,"With"-text-11-"with"-IN-0,"With"-text-2-"with"-IN-0|text|399/4;1608/4;2917/4;3091/4;4832/4;5315/4;5430/4;5999/4;6227/4;7063/4;7111/4;7153/4;7523/4||
0121.txt|MMI|6.57|Dementia|C0497327|[mobd]|"Dementia"-text-60-"dementia"-NN-0,"Dementia"-text-44-"dementia"-NN-0|text|508/8;5421/8|F03.615.400;C10.228.140.380|
0121.txt|MMI|6.57|Physicians|C0031831|[prog]|"Doctor"-text-94-"doctor"-NN-0,"Doctor"-text-0-"doctor"-NN-0|text|619/6;784/6|M01.526.485.810;N02.360.810|
0121.txt|MMI|5.71|Dilantin|C0699512|[orch, phsu]|"Dilantin"-text-0-"Dilantin"-NNP-0,"Dilantin"-text-0-"Dilantin"-NNP-0,"Dilantin"-text-0-"Dilantin"-NNP-0|text|1613/8;6017/8;6442/8|x.x.x.x|
0121.txt|MMI|5.71|HAC protocol|C0062074|[topp]|"HAD"-text-2-"had"-VBD-0,"HAD"-text-20-"had"-VBD-0,"HAD"-text-4-"had"-VBD-0|text|5686/3;6719/3;7379/3|x.x.x.x|
0121.txt|MMI|5.65|Males|C0086582|[orga]|"Male"-text-12-"male"-NN-0,"Male"-text-0-"male"-NN-0,"Male"-text-10-"male"-NN-0|text|394/4;2331/4;5310/4|x.x.x.x|
0121.txt|MMI|5.59|Speech|C0037817|[orgf]|"Speech"-text-16-"speech"-NN-0|text|925/6|G11.561.812;L01.559.423.676;F01.145.209.908.677|
0121.txt|MMI|5.24|Disabled Person Code - Patient|C1578486|[inpr]|"Patient"-text-0-"Patient"-NNP-0,"Patient"-text-0-"Patient"-NNP-0,"Patient"-text-0-"Patient"-NNP-0,"Patient"-text-0-"patient"-NN-0,"Patient"-text-0-"patient"-NN-0,"Patient"-text-18-"patient"-NN-0,"Patient"-text-0-"patient"-NN-0,"Patient"-text-0-"patient"-NN-0,"Patient"-text-6-"patient"-NN-0,"Patient"-text-0-"patient"-NN-0|text|356/7;690/7;5271/7;6206/7;6499/7;6711/7;6966/7;7116/7;7300/7;7584/7||
0121.txt|MMI|5.24|Mail Claim Party - Patient|C1578481|[idcn]|"Patient"-text-0-"Patient"-NNP-0,"Patient"-text-0-"Patient"-NNP-0,"Patient"-text-0-"Patient"-NNP-0,"Patient"-text-0-"patient"-NN-0,"Patient"-text-0-"patient"-NN-0,"Patient"-text-18-"patient"-NN-0,"Patient"-text-0-"patient"-NN-0,"Patient"-text-0-"patient"-NN-0,"Patient"-text-6-"patient"-NN-0,"Patient"-text-0-"patient"-NN-0|text|356/7;690/7;5271/7;6206/7;6499/7;6711/7;6966/7;7116/7;7300/7;7584/7||
0121.txt|MMI|5.24|Relationship modifier - Patient|C1578484|[idcn]|"Patient"-text-0-"Patient"-NNP-0,"Patient"-text-0-"Patient"-NNP-0,"Patient"-text-0-"Patient"-NNP-0,"Patient"-text-0-"patient"-NN-0,"Patient"-text-0-"patient"-NN-0,"Patient"-text-18-"patient"-NN-0,"Patient"-text-0-"patient"-NN-0,"Patient"-text-0-"patient"-NN-0,"Patient"-text-6-"patient"-NN-0,"Patient"-text-0-"patient"-NN-0|text|356/7;690/7;5271/7;6206/7;6499/7;6711/7;6966/7;7116/7;7300/7;7584/7||
0121.txt|MMI|5.24|Report source - Patient|C1578483|[idcn]|"Patient"-text-0-"Patient"-NNP-0,"Patient"-text-0-"Patient"-NNP-0,"Patient"-text-0-"Patient"-NNP-0,"Patient"-text-0-"patient"-NN-0,"Patient"-text-0-"patient"-NN-0,"Patient"-text-18-"patient"-NN-0,"Patient"-text-0-"patient"-NN-0,"Patient"-text-0-"patient"-NN-0,"Patient"-text-6-"patient"-NN-0,"Patient"-text-0-"patient"-NN-0|text|356/7;690/7;5271/7;6206/7;6499/7;6711/7;6966/7;7116/7;7300/7;7584/7||
0121.txt|MMI|5.24|Specimen Source Codes - Patient|C1578485|[inpr]|"Patient"-text-0-"Patient"-NNP-0,"Patient"-text-0-"Patient"-NNP-0,"Patient"-text-0-"Patient"-NNP-0,"Patient"-text-0-"patient"-NN-0,"Patient"-text-0-"patient"-NN-0,"Patient"-text-18-"patient"-NN-0,"Patient"-text-0-"patient"-NN-0,"Patient"-text-0-"patient"-NN-0,"Patient"-text-6-"patient"-NN-0,"Patient"-text-0-"patient"-NN-0|text|356/7;690/7;5271/7;6206/7;6499/7;6711/7;6966/7;7116/7;7300/7;7584/7||
0121.txt|MMI|5.24|Specimen Type - Patient|C1550655|[bdsu]|"Patient"-text-0-"Patient"-NNP-0,"Patient"-text-0-"Patient"-NNP-0,"Patient"-text-0-"Patient"-NNP-0,"Patient"-text-0-"patient"-NN-0,"Patient"-text-0-"patient"-NN-0,"Patient"-text-18-"patient"-NN-0,"Patient"-text-0-"patient"-NN-0,"Patient"-text-0-"patient"-NN-0,"Patient"-text-6-"patient"-NN-0,"Patient"-text-0-"patient"-NN-0|text|356/7;690/7;5271/7;6206/7;6499/7;6711/7;6966/7;7116/7;7300/7;7584/7||
0121.txt|MMI|5.24|Veterinary Patient|C1705908|[orgm]|"Patient"-text-0-"Patient"-NNP-0,"Patient"-text-0-"Patient"-NNP-0,"Patient"-text-0-"Patient"-NNP-0,"Patient"-text-0-"patient"-NN-0,"Patient"-text-0-"patient"-NN-0,"Patient"-text-18-"patient"-NN-0,"Patient"-text-0-"patient"-NN-0,"Patient"-text-0-"patient"-NN-0,"Patient"-text-6-"patient"-NN-0,"Patient"-text-0-"patient"-NN-0|text|356/7;690/7;5271/7;6206/7;6499/7;6711/7;6966/7;7116/7;7300/7;7584/7||
0121.txt|MMI|5.13|International Normalized Ratio|C0525032|[lbpr]|"INR"-text-4-"INR"-NN-0|text|6617/3|E01.370.225.625.115.320;E05.200.625.115.320|
0121.txt|MMI|5.11|Respiratory Sounds|C0035234|[clna]|"Breath sounds"-text-0-"breath sounds"-NN-0|text|2539/13|G09.772.775;C23.888.852.779;E01.370.386.720|
0121.txt|MMI|4.73|Hyperlipidemia|C0020473|[dsyn]|"Hyperlipidemia"-text-64-"hyperlipidemia"-NN-0,"Hyperlipidemia"-text-40-"hyperlipidemia"-NN-0|text|519/14;5404/14|C18.452.584.500.500|
0121.txt|MMI|4.67|Dietary Fiber|C0012173|[food]|"Bulk"-text-0-"bulk"-NN-0|text|3066/4|G07.203.300.400;D09.301.416;J02.500.400|
0121.txt|MMI|4.67|Gait|C0016928|[fndg]|"Gait"-text-0-"Gait"-NNP-0|text|3432/4|G11.427.410.568.900.750;E01.370.600.250|
0121.txt|MMI|4.67|Leukocytes|C0023516|[cell]|"WBC"-text-4-"WBC"-NNP-0|text|3498/3|A15.382.490;A15.145.229.637;A11.118.637|
0121.txt|MMI|4.67|Nicotiana|C0086707|[plnt]|"Tobacco"-text-0-"tobacco"-NN-0|text|2135/7|B01.650.940.800.575.912.250.908.500.900|
0121.txt|MMI|4.67|Telemetry|C0039451|[diap]|"Telemetry"-text-18-"telemetry"-NN-0|text|7427/9|E05.925;L01.178.847.675;E01.370.520.750|
0121.txt|MMI|4.67|Tobacco|C0040329|[hops, orch]|"Tobacco"-text-0-"tobacco"-NN-0|text|2135/7|B01.650.940.800.575.912.250.908.500.900|
0121.txt|MMI|4.33|Physical Examination|C0031809|[hlca]|"Physical Exam"-text-0-"Physical Exam"-JJ-0,"Physical Exam"-text-0-"PHYSICAL EXAM"-NNP-0,"Examination"-text-0-"Examination"-NNP-0|text|2192/13;2208/13;5760/11|E01.370.600|
0121.txt|MMI|4.27|Hemorrhage|C0019080|[patf]|"Hemorrhage"-text-0-"hemorrhage"-NN-0,"Hemorrhage"-text-0-"hemorrhage"-NN-0,"Hemorrhage"-text-0-"hemorrhage"-NN-0|text|4675/10;5085/10;5169/10|C23.550.414|
0121.txt|MMI|4.21|Cerebrovascular accident|C0038454|[dsyn]|"Stroke"-text-0-"stroke"-NN-0|text|1184/6|C14.907.253.855;C10.228.140.300.775|
0121.txt|MMI|4.21|Muscle Hypertonia|C0026826|[fndg]|"Increased tone"-text-0-"Increased tone"-VBN-0|text|3073/14|C23.888.592.608.550;C10.597.613.550|
0121.txt|MMI|4.21|Ruta|C0330928|[plnt]|"Rue"-text-0-"RUE"-NNP-0|text|3371/3|B01.650.940.800.575.912.250.875.788|
0121.txt|MMI|4.19|Blood Pressure|C0005823|[orgf]|"Blood Pressure"-text-0-"Blood pressure"-NN-0|text|1127/14|G09.330.380.076;E01.370.600.875.249|
0121.txt|MMI|4.19|Systole|C0039155|[tmco]|"Systolic"-text-0-"systolic"-JJ-0|text|1154/8|G09.330.580.880;G11.427.494.570.880|
0121.txt|MMI|3.81|Cornea|C0010031|[bpoc]|"Corneal"-text-4-"corneal"-JJ-0,"Corneal"-text-0-"corneal"-NN-0|text|2922/7;6831/7|A09.371.060.217|
0121.txt|MMI|3.81|Coumadin|C0699129|[orch, phsu]|"Coumadin"-text-80-"coumadin"-NN-0,"Coumadin"-text-28-"coumadin"-NN-0|text|577/8;5367/8|x.x.x.x|
0121.txt|MMI|3.81|Facial Paresis|C0427055|[dsyn]|"Facial droop"-text-8-"facial droop"-JJ-0,"Facial droop"-text-0-"facial droop"-JJ-0|text|898/12;2975/12|x.x.x.x|
0121.txt|MMI|3.81|Fresh frozen plasma|C0016709|[bdsu]|"FFP"-text-4-"FFP"-IN-0,"Fresh frozen plasma"-text-0-"fresh frozen plasma"-JJ-0|text|1533/3;6578/19|x.x.x.x|
0121.txt|MMI|3.81|Leukocyte adhesion deficiency type 1|C0398738|[dsyn]|"LAD"-text-46-"LAD"-NN-0,"LAD"-text-0-"LAD"-NN-1|text|474/3;2472/3|x.x.x.x|
0121.txt|MMI|3.81|Presenile dementia|C0011265|[mobd]|"dementia"-text-60-"dementia"-NN-0,"dementia"-text-44-"dementia"-NN-0|text|508/8;5421/8|x.x.x.x|
0121.txt|MMI|3.77|Hospitals, General|C0020008|[mnob, hcro]|"General Hospital"-text-0-"General Hospital"-NNP-0,"General Hospital"-text-0-"General Hospital"-NNP-0|text|952/16;1031/16|N02.278.421.389|
0121.txt|MMI|3.75|Aortic Valve Stenosis|C0003507|[dsyn]|"Aortic Stenosis"-text-70-"aortic stenosis"-JJ-0|text|536/15|C14.280.484.150;C14.280.955.249|
0121.txt|MMI|3.75|Atrial Fibrillation|C0004238|[dsyn]|"Atrial Fibrillation"-text-76-"atrial fibrillation"-JJ-0|text|554/19|C23.550.073.198;C14.280.067.198|
0121.txt|MMI|3.75|Coitus|C0009253|[orgf]|"Sex"-text-24-"Sex"-NN-0|text|83/3|G08.686.784.041;F01.145.802.188|
0121.txt|MMI|3.75|Control Groups|C0009932|[grup]|"Control"-text-4-"control"-NN-0|text|1445/7|E05.581.500.149;E05.318.370.074|
0121.txt|MMI|3.75|Nose|C0028429|[bpoc]|"Nasal"-text-0-"nasal"-JJ-0|text|2807/5|A04.531;A01.456.505.733;A09.531|
0121.txt|MMI|3.75|Strikes, Employee|C0038452|[ocac]|"striking"-text-0-"Striking"-NNP-0|text|3266/8|N03.540.571.608;N04.452.677.842|
0121.txt|MMI|3.73|Blood pressure determination|C0005824|[hlca]|"blood pressure"-text-0-"Blood pressure"-NN-0|text|1127/14|E01.370.600.100;E01.370.370.140|
0121.txt|MMI|3.66|Facilitated oscillatory release technique|C1562169|[topp]|"FOR"-text-0-"for"-IN-0,"FOR"-text-0-"for"-IN-0,"FOR"-text-0-"for"-IN-0,"FOR"-text-12-"for"-IN-0,"FOR"-text-0-"for"-IN-0,"FOR"-text-0-"for"-IN-0,"FOR"-text-0-"for"-IN-0|text|969/3;1295/3;1438/3;5736/3;6287/3;6388/3;6608/3||
0121.txt|MMI|3.66|Preposition For|C0521125|[qlco]|"For"-text-0-"for"-IN-0,"For"-text-0-"for"-IN-0,"For"-text-0-"for"-IN-0,"For"-text-12-"for"-IN-0,"For"-text-0-"for"-IN-0,"For"-text-0-"for"-IN-0,"For"-text-0-"for"-IN-0|text|969/3;1295/3;1438/3;5736/3;6287/3;6388/3;6608/3||
0121.txt|MMI|3.66|WWOX gene|C1421525|[gngm]|"FOR"-text-0-"for"-IN-0,"FOR"-text-0-"for"-IN-0,"FOR"-text-0-"for"-IN-0,"FOR"-text-12-"for"-IN-0,"FOR"-text-0-"for"-IN-0,"FOR"-text-0-"for"-IN-0,"FOR"-text-0-"for"-IN-0|text|969/3;1295/3;1438/3;5736/3;6287/3;6388/3;6608/3||
0121.txt|MMI|3.66|WWOX wt Allele|C4321252|[gngm]|"FOR"-text-0-"for"-IN-0,"FOR"-text-0-"for"-IN-0,"FOR"-text-0-"for"-IN-0,"FOR"-text-12-"for"-IN-0,"FOR"-text-0-"for"-IN-0,"FOR"-text-0-"for"-IN-0,"FOR"-text-0-"for"-IN-0|text|969/3;1295/3;1438/3;5736/3;6287/3;6388/3;6608/3||
0121.txt|MMI|3.52|Negation|C1518422|[ftcn]|"Non"-text-0-"non"-FW-0,"Not"-text-0-"not"-RB-0,"Non"-text-0-"Non"-FW-0,"Not"-text-8-"not"-RB-0,"Not"-text-6-"not"-RB-0,"Not"-text-0-"not"-RB-0,"Not"-text-0-"not"-RB-0|text|1840/3;1868/3;2173/3;2374/3;6108/3;6915/3;7476/3||
0121.txt|MMI|3.29|Basal Ganglia|C0004781|[bpoc]|"Basal Ganglia"-text-10-"basal ganglia"-NN-0|text|5561/13|A08.186.211.200.885.287.249|
0121.txt|MMI|3.29|Hyperventilation|C0020578|[fndg]|"Overbreathing"-text-0-"overbreathing"-VBG-1|text|6919/13|C23.888.852.591;C08.618.501|
0121.txt|MMI|3.29|Physical activity|C0026606|[dora]|"activity"-text-32-"activity"-NN-1|text|6754/8|G11.427.410.698.277;I03.350|
0121.txt|MMI|3.29|Tongue|C0040408|[bpoc]|"Tongue"-text-0-"Tongue"-NNP-0|text|3034/6|A03.556.500.885;A14.549.885|
0121.txt|MMI|3.29|propofol|C0033487|[orch, phsu]|"propofol"-text-4-"Propofol"-NNP-0|text|2240/8|D02.455.426.559.389.657.773|
0121.txt|MMI|3.14|This (eukaryote)|C1080058|[euka]|"This"-text-0-"this"-DT-0,"This"-text-0-"This"-DT-0,"This"-text-0-"This"-DT-0,"This"-text-0-"this"-DT-0,"This"-text-0-"this"-DT-0,"This"-text-5-"this"-DT-0|text|779/4;4634/4;5128/4;5597/4;6953/4;7134/4||
0121.txt|MMI|2.89|Glycosaminoglycans|C0017973|[bacs, orch, phsu]|"GAG"-text-0-"gag"-NN-0,"GAG"-text-0-"gag"-NN-0|text|2993/3;6841/3|D09.698.373|
0121.txt|MMI|2.83|Blood Glucose|C0005802|[orch]|"Blood Glucose"-text-0-"blood glucose"-NN-0|text|1072/13|D09.947.875.359.448.500|
0121.txt|MMI|2.83|Toes|C0040357|[bpoc]|"Toes"-text-0-"Toes"-DT-0|text|3338/4|A01.378.610.250.300.792|
0121.txt|MMI|2.83|ethanol|C0001962|[orch, phsu]|"Alcohol"-text-0-"alcohol"-NN-0|text|2122/7|D02.033.375;D02.033.375|
0121.txt|MMI|2.62|NR4A2 gene|C1417836|[gngm]|"NOT"-text-0-"not"-RB-0,"NOT"-text-8-"not"-RB-0,"NOT"-text-6-"not"-RB-0,"NOT"-text-0-"not"-RB-0,"NOT"-text-0-"not"-RB-0|text|1868/3;2374/3;6108/3;6915/3;7476/3||
0121.txt|MMI|2.62|Post|C0687676|[tmco]|"After"-text-0-"after"-IN-0,"Post"-text-0-"post"-NN-0,"After"-text-0-"After"-IN-0,"After"-text-0-"After"-IN-0,"After"-text-0-"after"-IN-0|text|1326/5;5772/4;6179/5;6468/5;7094/5||
0121.txt|MMI|2.37|Myelofibrosis|C0026987|[neop]|"MMM"-text-0-"MMM"-NNP-0|text|2416/3|C15.378.190.636.765|
0121.txt|MMI|2.37|Overall|C1561607|[qlco]|"Overall"-text-0-"overall"-JJ-0|text|5899/7|V02.672;V02.270.500|
0121.txt|MMI|2.37|Sternum|C0038293|[bpoc]|"Sternal"-text-6-"sternal"-JJ-0|text|2781/7|A02.835.232.570.750|
0121.txt|MMI|2.37|Subarachnoid Space|C0038527|[bsoj]|"Subarachnoid"-text-0-"subarachnoid"-NN-0|text|4742/12|A08.186.566.166.686|
0121.txt|MMI|2.37|United Arab Emirates|C0041698|[geoa]|"ARE"-text-0-"are"-VBP-0|text|5030/3|Z01.252.245.500.900|
0121.txt|MMI|2.37|World Health Organization|C0043237|[hcro]|"WHO"-text-82-"who"-WP-0|text|586/3|N03.540.514.718.800|
0121.txt|MMI|2.37|etomidate|C0015131|[orch, phsu]|"etomidate"-text-6-"Etomidate"-NNP-0|text|1343/9|D03.383.129.308.265|
0121.txt|MMI|2.34|skilled nursing facility|C0037265|[mnob, hcro]|"Extended Care Facility"-text-0-"Extended Care
Facility"-JJ-0|text|7853/22|N02.278.825.610.770|
0121.txt|MMI|2.09|AKR1B10 gene|C1412323|[gngm]|"HIS"-text-88-"his"-PRP$-0,"HIS"-text-0-"his"-PRP$-0,"HIS"-text-0-"his"-PRP$-0,"HIS"-text-4-"his"-PRP$-0|text|605/3;705/3;6933/3;7528/3||
0121.txt|MMI|2.09|Administrative Sex - Not applicable|C1549103|[orga]|"Not applicable"-text-0-"Not applicable"-RB-0,"Not applicable"-text-0-"Not applicable"-RB-0,"Not applicable"-text-0-"Not applicable"-RB-0,"Not applicable"-text-0-"Not applicable"-RB-0|text|7919/14;7976/14;8018/14;8059/14||
0121.txt|MMI|2.09|CWE statuses - Not applicable|C1611147|[idcn]|"Not applicable"-text-0-"Not applicable"-RB-0,"Not applicable"-text-0-"Not applicable"-RB-0,"Not applicable"-text-0-"Not applicable"-RB-0,"Not applicable"-text-0-"Not applicable"-RB-0|text|7919/14;7976/14;8018/14;8059/14||
0121.txt|MMI|2.09|Derived specimen - Not Applicable|C1610044|[idcn]|"Not Applicable"-text-0-"Not applicable"-RB-0,"Not Applicable"-text-0-"Not applicable"-RB-0,"Not Applicable"-text-0-"Not applicable"-RB-0,"Not Applicable"-text-0-"Not applicable"-RB-0|text|7919/14;7976/14;8018/14;8059/14||
0121.txt|MMI|2.09|Dosage Form Not Applicable|C1705113|[qlco]|"Not Applicable"-text-0-"Not applicable"-RB-0,"Not Applicable"-text-0-"Not applicable"-RB-0,"Not Applicable"-text-0-"Not applicable"-RB-0,"Not Applicable"-text-0-"Not applicable"-RB-0|text|7919/14;7976/14;8018/14;8059/14||
0121.txt|MMI|2.09|Expanded yes/no indicator - not applicable|C1619691|[idcn]|"not applicable"-text-0-"Not applicable"-RB-0,"not applicable"-text-0-"Not applicable"-RB-0,"not applicable"-text-0-"Not applicable"-RB-0,"not applicable"-text-0-"Not applicable"-RB-0|text|7919/14;7976/14;8018/14;8059/14||
0121.txt|MMI|2.09|Have|C3539897|[qlco]|"Had"-text-2-"had"-VBD-0,"Had"-text-20-"had"-VBD-0,"Have"-text-2-"have"-VB-0,"Had"-text-4-"had"-VBD-0|text|5686/3;6719/3;6986/4;7379/3||
0121.txt|MMI|2.09|Histidine measurement|C0523697|[lbpr]|"HIS"-text-88-"his"-PRP$-0,"HIS"-text-0-"his"-PRP$-0,"HIS"-text-0-"his"-PRP$-0,"HIS"-text-4-"his"-PRP$-0|text|605/3;705/3;6933/3;7528/3||
0121.txt|MMI|2.09|Identity May Be Divulged - Not applicable|C1610595|[idcn]|"Not applicable"-text-0-"Not applicable"-RB-0,"Not applicable"-text-0-"Not applicable"-RB-0,"Not applicable"-text-0-"Not applicable"-RB-0,"Not applicable"-text-0-"Not applicable"-RB-0|text|7919/14;7976/14;8018/14;8059/14||
0121.txt|MMI|2.09|Neurology speciality|C0027855|[bmod]|"NEURO"-text-0-"Neuro"-NNP-0,"Neurology"-text-0-"Neurology"-NNP-0,"NEURO"-text-6-"neuro"-JJ-0,"Neurology"-text-0-"neurology"-NN-0|text|2734/5;5954/9;6232/5;6651/9||
0121.txt|MMI|2.09|No Application Type|C1546968|[idcn]|"Not Applicable"-text-0-"Not applicable"-RB-0,"Not Applicable"-text-0-"Not applicable"-RB-0,"Not Applicable"-text-0-"Not applicable"-RB-0,"Not Applicable"-text-0-"Not applicable"-RB-0|text|7919/14;7976/14;8018/14;8059/14||
0121.txt|MMI|2.09|Not Applicable|C1272460|[qlco]|"Not Applicable"-text-0-"Not applicable"-RB-0,"Not Applicable"-text-0-"Not applicable"-RB-0,"Not Applicable"-text-0-"Not applicable"-RB-0,"Not Applicable"-text-0-"Not applicable"-RB-0|text|7919/14;7976/14;8018/14;8059/14||
0121.txt|MMI|2.09|Package Type Not Applicable|C4049872|[ftcn]|"Not Applicable"-text-0-"Not applicable"-RB-0,"Not Applicable"-text-0-"Not applicable"-RB-0,"Not Applicable"-text-0-"Not applicable"-RB-0,"Not Applicable"-text-0-"Not applicable"-RB-0|text|7919/14;7976/14;8018/14;8059/14||
0121.txt|MMI|2.09|Patient Class - Not Applicable|C1609491|[idcn]|"Not Applicable"-text-0-"Not applicable"-RB-0,"Not Applicable"-text-0-"Not applicable"-RB-0,"Not Applicable"-text-0-"Not applicable"-RB-0,"Not Applicable"-text-0-"Not applicable"-RB-0|text|7919/14;7976/14;8018/14;8059/14||
0121.txt|MMI|2.09|Potency Not Applicable|C1705112|[qlco]|"NOT APPLICABLE"-text-0-"Not applicable"-RB-0,"NOT APPLICABLE"-text-0-"Not applicable"-RB-0,"NOT APPLICABLE"-text-0-"Not applicable"-RB-0,"NOT APPLICABLE"-text-0-"Not applicable"-RB-0|text|7919/14;7976/14;8018/14;8059/14||
0121.txt|MMI|2.09|Production Class Code - Not Applicable|C1547280|[inpr]|"Not Applicable"-text-0-"Not applicable"-RB-0,"Not Applicable"-text-0-"Not applicable"-RB-0,"Not Applicable"-text-0-"Not applicable"-RB-0,"Not Applicable"-text-0-"Not applicable"-RB-0|text|7919/14;7976/14;8018/14;8059/14||
0121.txt|MMI|2.09|Route of Administration Not Applicable|C1705512|[idcn]|"NOT APPLICABLE"-text-0-"Not applicable"-RB-0,"NOT APPLICABLE"-text-0-"Not applicable"-RB-0,"NOT APPLICABLE"-text-0-"Not applicable"-RB-0,"NOT APPLICABLE"-text-0-"Not applicable"-RB-0|text|7919/14;7976/14;8018/14;8059/14||
0121.txt|MMI|2.09|Status post|C0231290|[tmco]|"After"-text-0-"after"-IN-0,"After"-text-0-"After"-IN-0,"After"-text-0-"After"-IN-0,"After"-text-0-"after"-IN-0|text|1326/5;6179/5;6468/5;7094/5||
0121.txt|MMI|2.09|Structure of hippocampal fissure|C0228251|[bsoj]|"his"-text-88-"his"-PRP$-0,"his"-text-0-"his"-PRP$-0,"his"-text-0-"his"-PRP$-0,"his"-text-4-"his"-PRP$-0|text|605/3;705/3;6933/3;7528/3||
0121.txt|MMI|2.01|Left|C0205091|[spco]|"Left"-text-0-"left"-VBN-0,"Left"-text-0-"Left"-VBN-0,"Left"-text-14-"left"-NN-0,"left sided"-text-0-"left sided"-VBN-0|text|2912/4;2970/4;4890/4;4911/10||
0121.txt|MMI|2.01|Left sided|C0443246|[spco]|"Left"-text-0-"left"-VBN-0,"Left"-text-0-"Left"-VBN-0,"Left"-text-14-"left"-NN-0,"Left sided"-text-0-"left sided"-VBN-0|text|2912/4;2970/4;4890/4;4911/10||
0121.txt|MMI|1.97|Neurosurgical Procedures|C0524850|[topp]|"Neurosurgery"-text-0-"Neurosurgery"-NNP-0,"Neurosurgery"-text-0-"Neurosurgery"-NNP-0|text|5966/12;6074/12|E04.525|
0121.txt|MMI|1.90|ARID1A protein, human|C0675390|[bacs, aapp]|"hELD"-text-0-"held"-VBN-0|text|6273/4|x.x.x.x|
0121.txt|MMI|1.90|Aneurysm, Middle Cerebral Artery|C0740385|[anab]|"middle cerebral artery aneurysm"-text-20-"middle cerebral artery aneurysm"-NN-0|text|5213/31|x.x.x.x|
0121.txt|MMI|1.90|Brain Stem|C0006121|[bpoc]|"Brainstem"-text-30-"brainstem"-NN-0|text|6744/9|A08.186.211.132|
0121.txt|MMI|1.90|Coronary Arteriosclerosis|C0010054|[dsyn]|"coronary artery disease"-text-36-"coronary artery disease"-JJ-0|text|5378/23|x.x.x.x|
0121.txt|MMI|1.90|Cranial Nerves|C0010268|[bpoc]|"Cranial Nerves"-text-0-"Cranial Nerves"-NNP-0|text|2822/14|A08.800.800.120|
0121.txt|MMI|1.90|Deidentification|C1707660|[mcha]|"DID"-text-4-"did"-VBD-0|text|6104/3|x.x.x.x|
0121.txt|MMI|1.90|Development|C1527148|[ftcn]|"Development"-text-0-"development"-NN-0|text|861/11|x.x.x.x|
0121.txt|MMI|1.90|Do-Not-Resuscitate Orders|C0079252|[inpr]|"DNR"-text-11-"DNR"-NN-0|text|6533/3|x.x.x.x|
0121.txt|MMI|1.90|Feelings|C1527305|[menp]|"feel"-text-8-"feel"-VB-1|text|6112/4|x.x.x.x|
0121.txt|MMI|1.90|Gender|C0079399|[orga]|"sex"-text-24-"Sex"-NN-0|text|83/3|x.x.x.x|
0121.txt|MMI|1.90|Mechanical ventilation|C0199470|[topp]|"Mechanical ventilation"-text-4-"mechanical ventilation"-JJ-0|text|302/22|x.x.x.x|
0121.txt|MMI|1.90|Nicotiana tabacum|C0740009|[plnt]|"Tobacco"-text-0-"tobacco"-NN-0|text|2135/7|x.x.x.x|
0121.txt|MMI|1.90|Nipride|C0591866|[inch, phsu]|"Nipride"-text-0-"Nipride"-NNP-0|text|1425/7|x.x.x.x|
0121.txt|MMI|1.90|PDC protein, human|C1739685|[bacs, aapp]|"PHD"-text-0-"PHD"-NNP-0|text|8097/3|x.x.x.x|
0121.txt|MMI|1.90|PROGRESSIVE ENCEPHALOMYELITIS WITH RIGIDITY|C1861457|[dsyn]|"PER"-text-0-"per"-IN-1|text|7496/3|x.x.x.x|
0121.txt|MMI|1.90|Peru|C0031238|[geoa]|"PER"-text-0-"per"-IN-1|text|7496/3|Z01.107.757.702|
0121.txt|MMI|1.90|Ruta graveolens|C0330929|[plnt]|"Rue"-text-0-"RUE"-NNP-0|text|3371/3|x.x.x.x|
0121.txt|MMI|1.90|fentanyl|C0015846|[orch, phsu]|"fentanyl"-text-2-"Fentanyl"-NNP-0|text|1332/8|D03.383.621.265|
0121.txt|MMI|1.90|vecuronium|C0242531|[orch, phsu]|"vecuronium"-text-10-"Vecuronium"-NNP-0|text|1355/10|x.x.x.x|
0121.txt|MMI|1.88|Fixed Pupils|C0235804|[fndg]|"pupils fixed"-text-0-"Pupils fixed"-NNS-0|text|2839/12|x.x.x.x|
0121.txt|MMI|1.88|Intracranial Hypertension|C0151740|[fndg]|"Elevated Intracranial Pressure"-text-10-"elevated intracranial pressure"-JJ-0|text|5836/30|C10.228.140.631|
0121.txt|MMI|1.88|Rest|C0035253|[dora]|"Rest"-text-0-"Rest"-NNP-0|text|1092/4|I03.450.769.647|
0121.txt|MMI|1.88|Systolic Pressure|C0871470|[clna]|"Systolic blood pressure"-text-2-"systolic blood pressure"-JJ-0|text|6392/23|x.x.x.x|
0121.txt|MMI|1.57|HADH gene|C1415458|[gngm]|"HAD"-text-2-"had"-VBD-0,"HAD"-text-20-"had"-VBD-0,"HAD"-text-4-"had"-VBD-0|text|5686/3;6719/3;7379/3||
0121.txt|MMI|1.57|Inventory of Callous-Unemotional Traits|C4554035|[inpr]|"ICU"-text-2-"ICU"-NNP-0,"ICU"-text-0-"ICU"-NNP-0,"ICU"-text-0-"ICU"-NNP-0|text|5979/3;6200/3;6665/3||
0121.txt|MMI|1.57|LARGE1 gene|C1416798|[gngm]|"LARGE"-text-0-"large"-JJ-0,"LARGE"-text-0-"Large"-JJ-0,"LARGE"-text-0-"large"-JJ-0|text|1246/5;5062/5;5506/5||
0121.txt|MMI|1.57|Large|C0549177|[qnco]|"Large"-text-0-"large"-JJ-0,"Large"-text-0-"Large"-JJ-0,"Large"-text-0-"large"-JJ-0|text|1246/5;5062/5;5506/5||
0121.txt|MMI|1.57|Mannitol Measurement|C4722248|[lbpr]|"Mannitol"-text-0-"Mannitol"-NNP-0,"Mannitol"-text-0-"Mannitol"-NNP-0,"Mannitol"-text-0-"Mannitol"-NNP-0|text|1635/8;6004/8;6429/8||
0121.txt|MMI|1.57|PMH - past medical history|C0455458|[fndg]|"Past medical history of"-text-22-"past medical history of"-JJ-0,"Past medical history"-text-0-"Past Medical History"-NNP-0,"Past medical history of"-text-20-"past medical history of"-JJ-0|text|404/23;1683/20;5320/23||
0121.txt|MMI|1.51|Left hemiparesis|C0457436|[fndg]|"Left sided weakness"-text-111-"left sided weakness"-VBD-0,"Left sided weakness"-text-2-"left sided weakness"-VBN-0,"Left sided weakness"-text-56-"left sided weakness"-VBD-0|text|653/19;876/19;5448/19||
0121.txt|MMI|1.51|Male Gender, Self Report|C1706180|[qlco]|"Male"-text-12-"male"-NN-0,"Male"-text-0-"male"-NN-0,"Male"-text-10-"male"-NN-0|text|394/4;2331/4;5310/4||
0121.txt|MMI|1.51|Male Phenotype|C1706428|[qlco]|"Male"-text-12-"male"-NN-0,"Male"-text-0-"male"-NN-0,"Male"-text-10-"male"-NN-0|text|394/4;2331/4;5310/4||
0121.txt|MMI|1.51|Male, Self-Reported|C1706429|[orga]|"Male"-text-12-"male"-NN-0,"Male"-text-0-"male"-NN-0,"Male"-text-10-"male"-NN-0|text|394/4;2331/4;5310/4||
0121.txt|MMI|1.51|Table Cell Horizontal Align - left|C1552822|[ftcn]|"left"-text-0-"left"-VBN-0,"left"-text-0-"Left"-VBN-0,"left"-text-14-"left"-NN-0|text|2912/4;2970/4;4890/4||
0121.txt|MMI|1.44|Abdomen|C0000726|[blor]|"abd"-text-0-"Abd"-NNP-0|text|2624/3|A01.923.047|
0121.txt|MMI|1.44|Disease|C0012634|[dsyn]|"condition"-text-0-"Condition"-NNP-0|text|7964/9|C23.550.288|
0121.txt|MMI|1.44|Goiter|C0018021|[dsyn]|"Thyromegaly"-text-0-"thyromegaly"-NN-1|text|2490/11|C19.874.283|
0121.txt|MMI|1.44|Sex Behavior|C0036864|[bhvr]|"Sex"-text-24-"Sex"-NN-0|text|83/3|F01.145.802|
0121.txt|MMI|1.44|sex|C1522384|[orga]|"sex"-text-24-"Sex"-NN-0|text|83/3|G08.686.810|
0121.txt|MMI|1.05|Absent|C0332197|[ftcn]|"Absent"-text-0-"Absent"-JJ-0,"Absent"-text-0-"absent"-JJ-0|text|3237/6;3377/6||
0121.txt|MMI|1.05|Act Mood - Goal|C1571704|[idcn]|"Goal"-text-0-"goal"-NN-0,"Goal"-text-2-"goal"-NN-0|text|1471/4;6612/4||
0121.txt|MMI|1.05|ActInformationPrivacyReason <service>|C3245478|[idcn]|"service"-text-30-"Service"-NNP-0,"service"-text-0-"service"-NN-0|text|91/7;6087/7||
0121.txt|MMI|1.05|Address type - Office|C1549636|[idcn]|"Office"-text-99-"office"-NN-0,"Office"-text-0-"office"-NN-0|text|629/6;794/6||
0121.txt|MMI|1.05|Adverse Event Associated with Neurology|C1561270|[fndg]|"NEUROLOGY"-text-0-"Neurology"-NNP-0,"NEUROLOGY"-text-0-"neurology"-NN-0|text|5954/9;6651/9||
0121.txt|MMI|1.05|Airway structure|C0458827|[bpoc]|"Airway"-text-0-"airway"-NN-0,"Airway"-text-14-"airway"-NN-0|text|1299/6;5740/6||
0121.txt|MMI|1.05|Anterior descending branch of left coronary artery|C0226032|[bpoc]|"LAD"-text-46-"LAD"-NN-0,"LAD"-text-0-"LAD"-NN-1|text|474/3;2472/3||
0121.txt|MMI|1.05|Arrival - action|C1706079|[acty]|"Arrived"-text-0-"Arrived"-VBN-0,"Arrival"-text-0-"arrival"-NN-0|text|1010/7;6185/7||
0121.txt|MMI|1.05|Artificial Airways|C0178987|[medd]|"airway"-text-0-"airway"-NN-0,"airway"-text-14-"airway"-NN-0|text|1299/6;5740/6||
0121.txt|MMI|1.05|Attending (action)|C1999232|[ftcn]|"attending"-text-52-"Attending"-NNP-0,"attending"-text-0-"attending"-VBG-0|text|154/9;7619/9||
0121.txt|MMI|1.05|Attending (provider role)|C1547429|[prog]|"Attending"-text-52-"Attending"-NNP-0,"Attending"-text-0-"attending"-VBG-0|text|154/9;7619/9||
0121.txt|MMI|1.05|Butting|C0233535|[mobd]|"but"-text-0-"but"-CC-1,"but"-text-0-"but"-CC-0|text|3008/3;5788/3||
0121.txt|MMI|1.05|CAT scan of head|C0202691|[diap]|"head ct"-text-0-"Head CT"-NN-0,"head ct"-text-0-"Head CT"-NN-0|text|1231/7;5483/7||
0121.txt|MMI|1.05|Cessation of life|C0011065|[orgf]|"Patient Deceased"-text-2-"Patient deceased"-NNP-0,"Patient Deceased"-text-0-"patient deceased"-JJ-0|text|7878/16;7935/16||
0121.txt|MMI|1.05|Compatible|C1524057|[qlco]|"Consistent with"-text-0-"consistent with"-JJ-0,"Consistent with"-text-10-"consistent with"-JJ-0|text|4642/15;7006/15||
0121.txt|MMI|1.05|Computed tomography of entire head|C3853780|[diap]|"Head CT"-text-0-"Head CT"-NN-0,"Head CT"-text-0-"Head CT"-NN-0|text|1231/7;5483/7||
0121.txt|MMI|1.05|Consistent with|C0332290|[idcn]|"Consistent with"-text-0-"consistent with"-JJ-0,"Consistent with"-text-10-"consistent with"-JJ-0|text|4642/15;7006/15||
0121.txt|MMI|1.05|Continuous|C0549178|[idcn]|"Continued"-text-0-"continued"-VBN-0,"Continued"-text-0-"continued"-VBD-0|text|6456/9;7219/9||
0121.txt|MMI|1.05|DLD gene|C1414063|[gngm]|"LAD"-text-46-"LAD"-NN-0,"LAD"-text-0-"LAD"-NN-1|text|474/3;2472/3||
0121.txt|MMI|1.05|Dilated|C0700124|[fndg]|"Dilated"-text-0-"dilated"-VBN-0,"Dilated"-text-0-"dilated"-VBN-0|text|1582/7;6818/7||
0121.txt|MMI|1.05|Discussion (communication)|C2584313|[socb]|"Discussion"-text-0-"discussion"-NN-0,"Discussion"-text-0-"discussion"-NN-0|text|6482/10;7100/10||
0121.txt|MMI|1.05|Discussion (procedure)|C0557061|[topp]|"Discussion"-text-0-"discussion"-NN-0,"Discussion"-text-0-"discussion"-NN-0|text|6482/10;7100/10||
0121.txt|MMI|1.05|Doctor - Title|C2348314|[inpr]|"Doctor"-text-94-"doctor"-NN-0,"Doctor"-text-0-"doctor"-NN-0|text|619/6;784/6||
0121.txt|MMI|1.05|Dysarthria, CTCAE|C4553903|[fndg]|"Dysarthria"-text-115-"dysarthria"-NN-0,"Dysarthria"-text-60-"dysarthria"-NN-0|text|677/10;5470/10||
0121.txt|MMI|1.05|Entity Name Part Type - given|C1550718|[idcn]|"given"-text-16-"given"-VBN-0,"given"-text-0-"given"-VBN-0|text|1387/5;6602/5||
0121.txt|MMI|1.05|Evaluation|C0220825|[hlca]|"Evaluation"-text-0-"evaluation"-NN-0,"Evaluated"-text-0-"evaluated"-VBN-0|text|973/10;6057/9||
0121.txt|MMI|1.05|Firstly|C1279901|[qlco]|"Initial"-text-0-"Initial"-JJ-0,"First"-text-0-"first"-RB-0|text|1198/7;7339/5||
0121.txt|MMI|1.05|GAG (Organic Chemical)|C3669201|[orch]|"GAG"-text-0-"gag"-NN-0,"GAG"-text-0-"gag"-NN-0|text|2993/3;6841/3||
0121.txt|MMI|1.05|GIVEN|C1442162|[ftcn]|"GIVEN"-text-16-"given"-VBN-0,"GIVEN"-text-0-"given"-VBN-0|text|1387/5;6602/5||
0121.txt|MMI|1.05|Give - dosing instruction imperative|C1947971|[ftcn]|"Given"-text-16-"given"-VBN-0,"Given"-text-0-"given"-VBN-0|text|1387/5;6602/5||
0121.txt|MMI|1.05|Given name|C3244317|[inpr]|"given"-text-16-"given"-VBN-0,"given"-text-0-"given"-VBN-0|text|1387/5;6602/5||
0121.txt|MMI|1.05|Good|C0205170|[qlco]|"Well"-text-0-"well"-RB-0,"Well"-text-0-"well"-RB-0|text|2707/4;7645/4||
0121.txt|MMI|1.05|Hyperlipidemia, CTCAE|C4555212|[fndg]|"Hyperlipidemia"-text-64-"hyperlipidemia"-NN-0,"Hyperlipidemia"-text-40-"hyperlipidemia"-NN-0|text|519/14;5404/14||
0121.txt|MMI|1.05|Hypertensive (finding)|C0857121|[fndg]|"hypertensive"-text-4-"hypertensive"-NN-0,"hypertensive"-text-0-"hypertensive"-JJ-0|text|4700/12;5156/12||
0121.txt|MMI|1.05|ITGB2 wt Allele|C1706333|[gngm]|"LAD"-text-46-"LAD"-NN-0,"LAD"-text-0-"LAD"-NN-1|text|474/3;2472/3||
0121.txt|MMI|1.05|Intraparenchymal Route of Administration|C3898701|[ftcn]|"INTRAPARENCHYMAL"-text-0-"intraparenchymal"-JJ-0,"INTRAPARENCHYMAL"-text-0-"intraparenchymal"-JJ-0|text|4658/16;5068/16||
0121.txt|MMI|1.05|Intubated|C4698386|[fndg]|"Intubated"-text-0-"Intubated"-NNP-0,"Intubated"-text-4-"intubated"-JJ-0|text|1285/9;2362/9||
0121.txt|MMI|1.05|Ladino Language|C4724478|[lang]|"LAD"-text-46-"LAD"-NN-0,"LAD"-text-0-"LAD"-NN-1|text|474/3;2472/3||
0121.txt|MMI|1.05|Loading Technique|C1708715|[acty]|"Loaded"-text-0-"Loaded"-VBN-0,"Loaded"-text-0-"loaded"-VBN-0|text|1601/6;5992/6||
0121.txt|MMI|1.05|Median (qualifier value)|C2939193|[spco]|"Midline"-text-0-"midline"-NN-0,"Midline"-text-6-"midline"-JJ-0|text|3041/7;4859/7||
0121.txt|MMI|1.05|Microplate Well|C4283957|[spco]|"Well"-text-0-"well"-RB-0,"Well"-text-0-"well"-RB-0|text|2707/4;7645/4||
0121.txt|MMI|1.05|Midline (qualifier value)|C0549183|[spco]|"Midline"-text-0-"midline"-NN-0,"Midline"-text-6-"midline"-JJ-0|text|3041/7;4859/7||
0121.txt|MMI|1.05|Mycteroperca microlepis|C0328767|[fish]|"Gag"-text-0-"gag"-NN-0,"Gag"-text-0-"gag"-NN-0|text|2993/3;6841/3||
0121.txt|MMI|1.05|Notable|C4288581|[qlco]|"Noted"-text-0-"noted"-VBD-0,"Noted"-text-0-"noted"-VBD-0|text|855/5;1560/5||
0121.txt|MMI|1.05|Observation of reflex|C0596002|[fndg]|"Reflexes"-text-0-"Reflexes"-NNS-0,"Reflexes"-text-4-"reflexes"-NNS-0|text|3226/8;6883/8||
0121.txt|MMI|1.05|Off|C1518543|[qlco]|"Off"-text-0-"off"-RB-0,"Off"-text-0-"off"-IN-0|text|2233/3;5792/3||
0121.txt|MMI|1.05|Office|C0442603|[mnob]|"Office"-text-99-"office"-NN-0,"Office"-text-0-"office"-NN-0|text|629/6;794/6||
0121.txt|MMI|1.05|Old|C0580836|[tmco]|"Old"-text-6-"old"-JJ-0,"Old"-text-4-"old"-JJ-0|text|377/3;5293/3||
0121.txt|MMI|1.05|Old episode|C0677546|[tmco]|"Old"-text-6-"old"-JJ-0,"Old"-text-4-"old"-JJ-0|text|377/3;5293/3||
0121.txt|MMI|1.05|Organization unit type - Office|C1547198|[orgt]|"Office"-text-99-"office"-NN-0,"Office"-text-0-"office"-NN-0|text|629/6;794/6||
0121.txt|MMI|1.05|Overnight|C0439583|[tmco]|"Overnight"-text-0-"Overnight"-RB-0,"Overnight"-text-0-"overnight"-JJ-0|text|6566/9;7229/9||
0121.txt|MMI|1.05|Patient Deceased|C1555024|[fndg]|"Patient Deceased"-text-2-"Patient deceased"-NNP-0,"Patient Deceased"-text-0-"patient deceased"-JJ-0|text|7878/16;7935/16||
0121.txt|MMI|1.05|Pharyngeal Stripping Wave Absent|C4285062|[fndg]|"Absent"-text-0-"Absent"-JJ-0,"Absent"-text-0-"absent"-JJ-0|text|3237/6;3377/6||
0121.txt|MMI|1.05|Precision - year|C1561544|[idcn]|"year"-text-4-"year"-NN-0,"year"-text-2-"year"-NN-0|text|372/4;5288/4||
0121.txt|MMI|1.05|Presentation|C0449450|[idcn]|"Presented"-text-84-"presented"-VBD-0,"Present"-text-0-"present"-RB-0|text|590/9;4824/7||
0121.txt|MMI|1.05|Probable diagnosis|C0332148|[fndg]|"Likely"-text-2-"likely"-JJ-0,"Likely"-text-0-"likely"-JJ-0|text|4693/6;5606/6||
0121.txt|MMI|1.05|Probably|C0750492|[idcn]|"Likely"-text-2-"likely"-JJ-0,"Likely"-text-0-"likely"-JJ-0|text|4693/6;5606/6||
0121.txt|MMI|1.05|Protection|C1545588|[fndg]|"Protection"-text-0-"protection"-NN-0,"Protection"-text-16-"protection"-NN-0|text|1306/10;5747/10||
0121.txt|MMI|1.05|Reflex action|C0034929|[ortf]|"Reflexes"-text-0-"Reflexes"-NNS-0,"Reflexes"-text-4-"reflexes"-NNS-0|text|3226/8;6883/8||
0121.txt|MMI|1.05|Science of neurosurgery|C0027926|[bmod]|"Neurosurgery"-text-0-"Neurosurgery"-NNP-0,"Neurosurgery"-text-0-"Neurosurgery"-NNP-0|text|5966/12;6074/12||
0121.txt|MMI|1.05|Sedated state|C0235195|[fndg]|"Sedated"-text-10-"sedated"-JJ-1,"Sedation"-text-0-"Sedation"-NN-0|text|2378/7;6260/8||
0121.txt|MMI|1.05|Serum lipids high (finding)|C0428465|[fndg]|"Hyperlipidemia"-text-64-"hyperlipidemia"-NN-0,"Hyperlipidemia"-text-40-"hyperlipidemia"-NN-0|text|519/14;5404/14||
0121.txt|MMI|1.05|Services|C0557854|[ocac]|"service"-text-30-"Service"-NNP-0,"service"-text-0-"service"-NN-0|text|91/7;6087/7||
0121.txt|MMI|1.05|Software Service|C2825316|[mnob]|"Service"-text-30-"Service"-NNP-0,"Service"-text-0-"service"-NN-0|text|91/7;6087/7||
0121.txt|MMI|1.05|Stimulus|C0234402|[phpr]|"Stimuli"-text-0-"stimuli"-NNS-0,"Stimuli"-text-0-"stimuli"-NNS-0|text|3133/7;3216/7||
0121.txt|MMI|1.05|Structure|C0678594|[spco]|"structures"-text-8-"structures"-NNS-0,"structures"-text-0-"structures"-NNS-0|text|4867/10;4997/10||
0121.txt|MMI|1.05|Sudden onset (attribute)|C1276802|[tmco]|"Acute onset"-text-105-"acute onset"-JJ-0,"Sudden onset"-text-50-"sudden onset"-JJ-0|text|641/11;5435/12||
0121.txt|MMI|1.05|Then|C1883708|[tmco]|"Then"-text-0-"then"-RB-0,"Then"-text-2-"then"-RB-0|text|1420/4;7374/4||
0121.txt|MMI|1.05|Then - dosing instruction fragment|C1720594|[inpr]|"Then"-text-0-"then"-RB-0,"Then"-text-2-"then"-RB-0|text|1420/4;7374/4||
0121.txt|MMI|1.05|Transaction counts and value totals - year|C1561543|[inpr]|"year"-text-4-"year"-NN-0,"year"-text-2-"year"-NN-0|text|372/4;5288/4||
0121.txt|MMI|1.05|Unable to assess|C3845137|[fndg]|"Unable to assess"-text-0-"Unable to assess"-JJ-0,"Unable to assess"-text-0-"Unable to assess"-JJ-0|text|3413/16;3439/16||
0121.txt|MMI|1.05|Very|C0442824|[qlco]|"Very"-text-0-"Very"-RB-0,"Very"-text-6-"very"-RB-0|text|2874/4;7383/4||
0121.txt|MMI|1.05|Very Much|C2984081|[qlco]|"Very"-text-0-"Very"-RB-0,"Very"-text-6-"very"-RB-0|text|2874/4;7383/4||
0121.txt|MMI|1.05|Well|C3146287|[mnob]|"Well"-text-0-"well"-RB-0,"Well"-text-0-"well"-RB-0|text|2707/4;7645/4||
0121.txt|MMI|1.05|Well Marginated Nodule|C4761387|[fndg]|"Well"-text-0-"well"-RB-0,"Well"-text-0-"well"-RB-0|text|2707/4;7645/4||
0121.txt|MMI|1.05|Withdraw (activity)|C2349954|[acty]|"Withdrawal"-text-0-"withdrawal"-NN-1,"Withdrawal"-text-0-"withdrawal"-NN-1|text|3111/10;3194/10||
0121.txt|MMI|1.05|Withdrawal (dysfunction)|C2825032|[mobd]|"Withdrawal"-text-0-"withdrawal"-NN-1,"Withdrawal"-text-0-"withdrawal"-NN-1|text|3111/10;3194/10||
0121.txt|MMI|1.05|Withdrawal - birth control|C3812880|[topp]|"Withdrawal"-text-0-"withdrawal"-NN-1,"Withdrawal"-text-0-"withdrawal"-NN-1|text|3111/10;3194/10||
0121.txt|MMI|1.05|Withdrawal Scale (BASC-2)|C4049634|[inpr]|"Withdrawal"-text-0-"withdrawal"-NN-1,"Withdrawal"-text-0-"withdrawal"-NN-1|text|3111/10;3194/10||
0121.txt|MMI|1.05|Withdrawal by Subject|C1710677|[idcn]|"withdrawal"-text-0-"withdrawal"-NN-1,"withdrawal"-text-0-"withdrawal"-NN-1|text|3111/10;3194/10||
0121.txt|MMI|1.05|around|C0750503|[idcn]|"around"-text-4-"around"-IN-0,"around"-text-6-"around"-IN-0|text|737/6;5554/6||
0121.txt|MMI|1.05|midline cell component|C1660780|[celc]|"midline"-text-0-"midline"-NN-0,"midline"-text-6-"midline"-JJ-0|text|3041/7;4859/7||
0121.txt|MMI|1.05|objective (goal)|C0018017|[inpr]|"Goal"-text-0-"goal"-NN-0,"Goal"-text-2-"goal"-NN-0|text|1471/4;6612/4||
0121.txt|MMI|1.05|while|C0750519|[idcn]|"while"-text-6-"while"-NN-0,"while"-text-0-"While"-IN-0|text|1537/5;5641/5||
0121.txt|MMI|1.05|year|C0439234|[tmco]|"year"-text-4-"year"-NN-0,"year"-text-2-"year"-NN-0|text|372/4;5288/4||
0121.txt|MMI|1.01|130|C4319552|[qnco]|"130"-text-0-"130"-CD-0,"130"-text-6-"130"-CD-0|text|1482/3;6419/3||
0121.txt|MMI|1.01|160|C4319554|[qnco]|"160"-text-0-"160"-CD-0,"160"-text-8-"160"-CD-0|text|1486/3;6423/3||
0121.txt|MMI|1.01|Fix|C3714578|[phpr]|"Fixed"-text-0-"fixed"-VBN-0,"Fixed"-text-0-"fixed"-VBN-0|text|1572/5;6808/5||
0121.txt|MMI|1.01|Fixed Specimen|C2827483|[bdsu]|"Fixed"-text-0-"fixed"-VBN-0,"Fixed"-text-0-"fixed"-VBN-0|text|1572/5;6808/5||
0121.txt|MMI|1.01|Fixed behavior|C0443218|[qlco]|"Fixed"-text-0-"fixed"-VBN-0,"Fixed"-text-0-"fixed"-VBN-0|text|1572/5;6808/5||
0121.txt|MMI|1.01|NON Mouse|C1513853|[mamm]|"NON"-text-0-"non"-FW-0,"NON"-text-0-"Non"-FW-0|text|1840/3;2173/3||
0121.txt|MMI|1.01|Normal|C0205307|[qlco]|"Normal"-text-0-"Normal"-JJ-0,"Unremarkable"-text-2-"unremarkable"-JJ-0|text|3059/6;5034/12||
0121.txt|MMI|1.01|Right|C0205090|[spco]|"Right"-text-0-"right"-NN-0,"Right"-text-0-"right"-JJ-0|text|1252/5;5512/5||
0121.txt|MMI|1.01|Right handed|C0344333|[orga]|"Right handed"-text-10-"right handed"-NN-0,"Right handed"-text-8-"right handed"-NN-0|text|381/12;5297/12||
0121.txt|MMI|1.01|Right sided|C0444532|[spco]|"Right"-text-0-"right"-NN-0,"Right"-text-0-"right"-JJ-0|text|1252/5;5512/5||
0121.txt|MMI|1.01|Sign or Symptom|C3540840|[fndg]|"CLINICAL SIGNS"-text-26-"clinical signs"-JJ-1,"CLINICAL SIGNS"-text-6-"clinical signs"-JJ-0|text|6726/14;6991/14||
0121.txt|MMI|1.01|Structure of right hand|C0230370|[bpoc]|"right handed"-text-10-"right handed"-NN-0,"right handed"-text-8-"right handed"-NN-0|text|381/12;5297/12||
0121.txt|MMI|1.01|Table Cell Horizontal Align - right|C1552823|[ftcn]|"right"-text-0-"right"-NN-0,"right"-text-0-"right"-JJ-0|text|1252/5;5512/5||
0121.txt|MMI|0.98|Alcohols|C0001975|[orch, phsu]|"Alcohol"-text-0-"alcohol"-NN-0|text|2122/7|D02.033|
0121.txt|MMI|0.98|Heart|C0018787|[bpoc]|"Cardiac"-text-0-"Cardiac"-NNP-0|text|2571/7|A07.541|
0121.txt|MMI|0.98|Hypersensitivity|C0020517|[patf]|"Allergies"-text-36-"Allergies"-NNP-0|text|106/9|C20.543|
0121.txt|MMI|0.98|Lung|C0024109|[bpoc]|"Lungs"-text-0-"Lungs"-NNP-0|text|2524/5|A04.411|
0121.txt|MMI|0.98|Neck|C0027530|[blor]|"Neck"-text-0-"Neck"-NNP-0|text|2443/4|A01.598|
0121.txt|MMI|0.98|Periodicals|C0031082|[inpr]|"serial"-text-0-"serial"-NN-0|text|6635/6|V02.690|
0121.txt|MMI|0.98|Rupture|C3203359|[inpo]|"Ruptured"-text-10-"ruptured"-JJ-0|text|5198/8|C26.761|
0121.txt|MMI|0.96|Time|C0040223|[tmco]|"times"-text-2-"times"-NNS-0|text|3026/5|G01.910|
0121.txt|MMI|0.72|Admission date:Time Stamp -- Date and Time:Point in time:^Patient:Quantitative|C2598112|[clna]|"Admission date"-text-0-"Admission Date"-NNP-0|text|0/14||
0121.txt|MMI|0.72|Date of admission|C1302393|[tmco]|"Admission date"-text-0-"Admission Date"-NNP-0|text|0/14||
0121.txt|MMI|0.52|ABD tumor staging notation|C0449202|[inpr]|"ABD"-text-0-"Abd"-NNP-0|text|2624/3||
0121.txt|MMI|0.52|ARID1A wt Allele|C2985160|[gngm]|"hELD"-text-0-"held"-VBN-0|text|6273/4||
0121.txt|MMI|0.52|Absence of Biallelic TCRgamma Deletion|C3811055|[comd]|"ABD"-text-0-"Abd"-NNP-0|text|2624/3||
0121.txt|MMI|0.52|Academic Research Enhancement Awards|C1510751|[gora]|"AREA"-text-0-"area"-NN-0|text|2108/4||
0121.txt|MMI|0.52|Academic degree|C0542560|[inpr]|"degrees"-text-0-"degrees"-NNS-0|text|6335/7||
0121.txt|MMI|0.52|Acknowledgement Detail Type - Information|C1561528|[inpr]|"Information"-text-46-"Information"-NNP-0|text|134/11||
0121.txt|MMI|0.52|Act Relationship Subset - previous|C1552607|[tmco]|"previous"-text-0-"previous"-JJ-0|text|7500/8||
0121.txt|MMI|0.52|Active|C0205177|[qlco]|"Activity"-text-32-"activity"-NN-1|text|6754/8||
0121.txt|MMI|0.52|Activities|C0441655|[acty]|"Activity"-text-32-"activity"-NN-1|text|6754/8||
0121.txt|MMI|0.52|Activity (animal life circumstance)|C3668946|[fndg]|"Activity"-text-32-"activity"-NN-1|text|6754/8||
0121.txt|MMI|0.52|Admission activity|C0809949|[hlca]|"Admission"-text-16-"admission"-NN-0|text|760/9||
0121.txt|MMI|0.52|Admitted to|C4482331|[hlca]|"Admitted to"-text-0-"admitted to"-VBN-0|text|5938/11||
0121.txt|MMI|0.52|Afternoon|C0439550|[tmco]|"Afternoon"-text-15-"afternoon"-NN-0|text|6540/9||
0121.txt|MMI|0.52|Alcohol - Recreational Drug Use Code|C1547288|[inpr]|"Alcohol"-text-0-"alcohol"-NN-0|text|2122/7||
0121.txt|MMI|0.52|Androgen Response Element|C1515984|[nusq]|"ARE"-text-0-"are"-VBP-0|text|5030/3||
0121.txt|MMI|0.52|Anicteric|C0205180|[fndg]|"Anicteric"-text-0-"Anicteric"-NNP-0|text|2404/9||
0121.txt|MMI|0.52|Approximate|C0332232|[qlco]|"Approximately"-text-0-"approximately"-RB-0|text|7260/13||
0121.txt|MMI|0.52|Area|C0205146|[spco]|"Area"-text-0-"area"-NN-0|text|2108/4||
0121.txt|MMI|0.52|Atrial Fibrillation by ECG Finding|C0344434|[lbtr]|"Atrial Fibrillation"-text-76-"atrial fibrillation"-JJ-0|text|554/19||
0121.txt|MMI|0.52|Atrial Fibrillation, CTCAE|C1963067|[fndg]|"Atrial fibrillation"-text-76-"atrial fibrillation"-JJ-0|text|554/19||
0121.txt|MMI|0.52|Atrioventricular junctional rhythm|C0232208|[patf]|"Junctional rhythm"-text-0-"junctional rhythm"-JJ-0|text|7352/17||
0121.txt|MMI|0.52|BRIEF Health Literacy Screening Tool|C4724718|[inpr]|"BRIEF"-text-0-"Brief"-NNP-0|text|5247/5||
0121.txt|MMI|0.52|Barbara|C4223568|[euka]|"Barbara"-text-6-"Barbara"-NNP-0|text|8123/7||
0121.txt|MMI|0.52|Behavior Rating Inventory of Executive Function|C4050216|[inpr]|"BRIEF"-text-0-"Brief"-NNP-0|text|5247/5||
0121.txt|MMI|0.52|Biologic Development|C0678723|[orgf]|"Development"-text-0-"development"-NN-0|text|861/11||
0121.txt|MMI|0.52|Biting|C2584293|[phsf]|"Biting"-text-0-"biting"-VBG-0|text|3012/6||
0121.txt|MMI|0.52|Blood glucose measurement|C0392201|[lbpr]|"Blood Glucose"-text-0-"blood glucose"-NN-0|text|1072/13||
0121.txt|MMI|0.52|Bone Tissue, Human|C4520924|[tisu]|"Osseous"-text-0-"osseous"-JJ-0|text|4989/7||
0121.txt|MMI|0.52|Both feet|C0230473|[bpoc]|"Bilateral feet"-text-0-"Bilateral feet"-JJ-0|text|3143/14||
0121.txt|MMI|0.52|Brief|C1879313|[tmco]|"Brief"-text-0-"Brief"-NNP-0|text|5247/5||
0121.txt|MMI|0.52|Bulk (conceptual)|C1337615|[bodm]|"Bulk"-text-0-"bulk"-NN-0|text|3066/4||
0121.txt|MMI|0.52|CDISC SDTM Sex of Individual Terminology|C1879943|[inpr]|"SEX"-text-24-"Sex"-NN-0|text|83/3||
0121.txt|MMI|0.52|CONTROL veterinary product|C0308718|[phsu]|"CONTROL"-text-4-"control"-NN-0|text|1445/7||
0121.txt|MMI|0.52|Cardiac - anatomy qualifier|C1522601|[qlco]|"Cardiac"-text-0-"Cardiac"-NNP-0|text|2571/7||
0121.txt|MMI|0.52|Carotid bruit|C0007280|[fndg]|"carotid bruits"-text-0-"carotid bruits"-NN-1|text|2507/14||
0121.txt|MMI|0.52|Clinical|C0205210|[qlco]|"Clinical"-text-0-"clinical"-JJ-0|text|5815/8||
0121.txt|MMI|0.52|Clinical Batch|C4523057|[mnob]|"Clinical"-text-0-"clinical"-JJ-0|text|5815/8||
0121.txt|MMI|0.52|Clinical Lot|C3272565|[inpr]|"Clinical"-text-0-"clinical"-JJ-0|text|5815/8||
0121.txt|MMI|0.52|Coarse|C0205194|[qlco]|"Coarse"-text-0-"Coarse"-NNP-0|text|2532/6||
0121.txt|MMI|0.52|Condition|C0348080|[qlco]|"Condition"-text-0-"Condition"-NNP-0|text|7964/9||
0121.txt|MMI|0.52|Condition Domain|C4722256|[inpr]|"CONDITION"-text-0-"Condition"-NNP-0|text|7964/9||
0121.txt|MMI|0.52|Condition:Find:Pt:^Patient:Nom|C3864998|[clna]|"Condition"-text-0-"Condition"-NNP-0|text|7964/9||
0121.txt|MMI|0.52|Continuous infusion|C0444889|[topp]|"Continuous infusion"-text-0-"continuous infusion"-JJ-0|text|6355/19||
0121.txt|MMI|0.52|Contribution|C1880177|[acty]|"Contributory"-text-0-"contributory"-NN-0|text|2177/12||
0121.txt|MMI|0.52|Control - Relationship modifier|C1547100|[idcn]|"Control"-text-4-"control"-NN-0|text|1445/7||
0121.txt|MMI|0.52|Control function|C2587213|[ftcn]|"Control"-text-4-"control"-NN-0|text|1445/7||
0121.txt|MMI|0.52|Coordinated|C0700114|[ftcn]|"Coordination"-text-0-"Coordination"-NNP-0|text|3398/12||
0121.txt|MMI|0.52|Coordination of Benefits - Coordination|C1549570|[idcn]|"Coordination"-text-0-"Coordination"-NNP-0|text|3398/12||
0121.txt|MMI|0.52|Course|C0750729|[tmco]|"Course"-text-0-"course"-NN-0|text|1001/6||
0121.txt|MMI|0.52|DNR - Do not resuscitate|C0582114|[fndg]|"DNR"-text-11-"DNR"-NN-0|text|6533/3||
0121.txt|MMI|0.52|Daily|C0332173|[tmco]|"Day"-text-12-"day"-NN-0|text|753/3||
0121.txt|MMI|0.52|Decompensation|C0231187|[fndg]|"Decompensation"-text-6-"decompensation"-NN-0|text|5696/14||
0121.txt|MMI|0.52|Degree or extent|C0449286|[qnco]|"degrees"-text-0-"degrees"-NNS-0|text|6335/7||
0121.txt|MMI|0.52|Development Batch|C4521286|[mnob]|"Development"-text-0-"development"-NN-0|text|861/11||
0121.txt|MMI|0.52|Development Lot|C3272564|[inpr]|"Development"-text-0-"development"-NN-0|text|861/11||
0121.txt|MMI|0.52|Device Motor|C1705994|[mnob]|"Motor"-text-0-"Motor"-NNP-0|text|3051/5||
0121.txt|MMI|0.52|Discontinued|C1444662|[fndg]|"Discontinued"-text-0-"discontinued"-VBN-0|text|1455/12||
0121.txt|MMI|0.52|Do (activity)|C2828361|[acty]|"Did"-text-4-"did"-VBD-0|text|6104/3||
0121.txt|MMI|0.52|Do not resuscitate:Find:Pt:{Setting}:Doc:{Role}|C4285234|[clna]|"DNR"-text-11-"DNR"-NN-0|text|6533/3||
0121.txt|MMI|0.52|Doctor of Philosophy|C1512022|[inpr]|"PhD"-text-0-"PHD"-NNP-0|text|8097/3||
0121.txt|MMI|0.52|Doll's head reflex|C0234183|[fndg]|"Oculocephalic reflex"-text-0-"oculocephalic reflex"-JJ-1|text|2947/20||
0121.txt|MMI|0.52|Drop - Unit of Volume|C4048603|[qnco]|"Drip"-text-0-"drip"-VBD-0|text|1433/4||
0121.txt|MMI|0.52|EDQM-HC Release Characteristics Terminology|C4725622|[inpr]|"RCA"-text-0-"RCA"-NN-0|text|1857/3||
0121.txt|MMI|0.52|ENG gene|C1366583|[gngm]|"END"-text-10-"End"-NN-0|text|8246/3||
0121.txt|MMI|0.52|ENG wt Allele|C1704837|[gngm]|"END"-text-10-"End"-NN-0|text|8246/3||
0121.txt|MMI|0.52|Elicited by|C0449265|[qlco]|"elicited"-text-8-"elicited"-VBN-0|text|6897/8||
0121.txt|MMI|0.52|Encounter Referral Source - emergency room|C1546435|[idcn]|"Emergency room"-text-6-"emergency room"-NN-0|text|6033/14||
0121.txt|MMI|0.52|End|C0444930|[spco]|"End"-text-10-"End"-NN-0|text|8246/3||
0121.txt|MMI|0.52|Endoglin, human|C0082420|[imft, aapp]|"END"-text-10-"End"-NN-0|text|8246/3||
0121.txt|MMI|0.52|Endotracheal tube|C0336630|[medd]|"Endotracheal tube"-text-0-"Endotracheal tube"-JJ-0|text|2423/17||
0121.txt|MMI|0.52|Entire brainstem|C1306665|[bpoc]|"Brainstem"-text-30-"brainstem"-NN-0|text|6744/9||
0121.txt|MMI|0.52|Entire neck|C1281592|[bpoc]|"Neck"-text-0-"Neck"-NNP-0|text|2443/4||
0121.txt|MMI|0.52|Entire putamen|C1281335|[bpoc]|"Putamen"-text-14-"putamen"-NNS-0|text|5579/7||
0121.txt|MMI|0.52|Entire tongue|C1278913|[bpoc]|"Tongue"-text-0-"Tongue"-NNP-0|text|3034/6||
0121.txt|MMI|0.52|Error severity - Information|C1561527|[idcn]|"Information"-text-46-"Information"-NNP-0|text|134/11||
0121.txt|MMI|0.52|Esthesia|C0036658|[ortf]|"Sensation"-text-0-"Sensation"-NNP-0|text|3179/9||
0121.txt|MMI|0.52|Ethanol measurement|C0202304|[lbpr]|"Alcohol"-text-0-"alcohol"-NN-0|text|2122/7||
0121.txt|MMI|0.52|Etiology|C1314792|[ftcn]|"Etiology"-text-8-"etiology"-NN-0|text|4716/8|Y05|
0121.txt|MMI|0.52|Etiology aspects|C0015127|[ftcn]|"etiology"-text-8-"etiology"-NN-0|text|4716/8||
0121.txt|MMI|0.52|Evaluation procedure|C1261322|[hlca]|"Evaluation"-text-0-"evaluation"-NN-0|text|973/10||
0121.txt|MMI|0.52|Event Seriousness - Significant|C1546944|[qlco]|"Significant"-text-0-"significant"-JJ-0|text|4730/11||
0121.txt|MMI|0.52|Ever told you have or had atrial fibrillation:Finding:Point in time:^Patient:Ordinal|C2926591|[clna]|"Atrial fibrillation"-text-76-"atrial fibrillation"-JJ-0|text|554/19||
0121.txt|MMI|0.52|Every (qualifier)|C1948061|[qlco]|"Every"-text-10-"every"-DT-0|text|6245/5||
0121.txt|MMI|0.52|Every - dosing instruction fragment|C1720374|[inpr]|"Every"-text-10-"every"-DT-0|text|6245/5||
0121.txt|MMI|0.52|Examination|C4321457|[acty]|"Examination"-text-0-"Examination"-NNP-0|text|5760/11||
0121.txt|MMI|0.52|Examined|C0332128|[fndg]|"Examined"-text-0-"Examined"-VBN-0|text|2224/8||
0121.txt|MMI|0.52|Extrinsic|C0205101|[spco]|"Externally"-text-0-"externally"-RB-0|text|3158/10||
0121.txt|MMI|0.52|FDA Establishment Activity Terminology|C4049939|[inpr]|"ACTIVITY"-text-32-"activity"-NN-1|text|6754/8||
0121.txt|MMI|0.52|FUT3 gene|C1414864|[gngm]|"Les"-text-0-"LEs"-NNP-0|text|3096/3||
0121.txt|MMI|0.52|Family history|C0241889|[fndg]|"Family history"-text-0-"Family History"-NNP-0|text|2156/14||
0121.txt|MMI|0.52|Feels warm|C0582051|[fndg]|"Warm"-text-0-"Warm"-NNP-0|text|2698/4||
0121.txt|MMI|0.52|Fentanyl measurement|C0524136|[lbpr]|"Fentanyl"-text-2-"Fentanyl"-NNP-0|text|1332/8||
0121.txt|MMI|0.52|Finger-prick sampling (procedure)|C0457575|[diap]|"Finger stick"-text-0-"Finger stick"-NNP-0|text|1059/12||
0121.txt|MMI|0.52|First (number)|C0205435|[qnco]|"First"-text-0-"first"-RB-0|text|7339/5||
0121.txt|MMI|0.52|Follow|C4281991|[ftcn]|"Per"-text-0-"per"-IN-1|text|7496/3||
0121.txt|MMI|0.52|Followed by|C0332283|[tmco]|"followed"-text-2-"followed"-VBN-0|text|6218/8||
0121.txt|MMI|0.52|Forecast of outcome|C0033325|[hlca]|"Prognosis"-text-0-"prognosis"-NN-0|text|5907/9||
0121.txt|MMI|0.52|Frequently|C0332183|[tmco]|"Frequent"-text-0-"frequent"-JJ-0|text|6291/8||
0121.txt|MMI|0.52|From|C1517320|[qlco]|"From"-text-86-"from"-IN-0|text|600/4||
0121.txt|MMI|0.52|Full|C0443225|[qlco]|"Full"-text-0-"Full"-JJ-0|text|7187/4||
0121.txt|MMI|0.52|GDC Gender Terminology|C5203051|[inpr]|"GEN"-text-0-"Gen"-NNP-0|text|2319/3||
0121.txt|MMI|0.52|GEN1 gene|C2239486|[gngm]|"Gen"-text-0-"Gen"-NNP-0|text|2319/3||
0121.txt|MMI|0.52|GEN1 wt Allele|C4084748|[gngm]|"Gen"-text-0-"Gen"-NNP-0|text|2319/3||
0121.txt|MMI|0.52|Gari (substance)|C0458974|[food]|"gary"-text-10-"Gary"-NNP-0|text|1546/4||
0121.txt|MMI|0.52|Gender:Type:Point in time:^Patient:Nominal|C0804628|[clna]|"Sex"-text-24-"Sex"-NN-0|text|83/3||
0121.txt|MMI|0.52|Geographic Locations|C0017446|[geoa]|"Area"-text-0-"area"-NN-0|text|2108/4|Z01|
0121.txt|MMI|0.52|Grimaces|C0239779|[sosy]|"Grimaces"-text-0-"Grimaces"-NNS-0|text|2795/8||
0121.txt|MMI|0.52|Guarded prognosis|C0278253|[fndg]|"Guarded"-text-0-"guarded"-VBN-0|text|5921/7||
0121.txt|MMI|0.52|H/O: atrial fibrillation|C0729790|[fndg]|"History of atrial fibrillation"-text-24-"history of atrial fibrillation"-NN-0|text|5333/30||
0121.txt|MMI|0.52|HEENT|C1512338|[blor]|"HEENT"-text-0-"HEENT"-NNP-0|text|2388/5||
0121.txt|MMI|0.52|Have you felt weak (question)|C3538976|[inpr]|"Weak"-text-0-"weak"-JJ-0|text|2879/4||
0121.txt|MMI|0.52|Held - activity status|C1948036|[idcn]|"held"-text-0-"held"-VBN-0|text|6273/4||
0121.txt|MMI|0.52|Herniation under falx cerebri|C0393984|[dsyn]|"Subfalcine herniation"-text-0-"subfalcine herniation"-NN-0|text|4922/21||
0121.txt|MMI|0.52|History of present illness|C0262512|[fndg]|"History of present illness"-text-0-"History of Present Illness"-NN-0|text|327/26||
0121.txt|MMI|0.52|History of present illness:Finding:Point in time:^Patient:Nominal:Reported|C0488508|[clna]|"History of Present illness"-text-0-"History of Present Illness"-NN-0|text|327/26||
0121.txt|MMI|0.52|Hospital admission|C0184666|[hlca]|"Admission"-text-16-"admission"-NN-0|text|760/9||
0121.txt|MMI|0.52|Hospital course|C0489547|[fndg]|"Hospital course"-text-0-"Hospital Course"-NNP-0|text|5253/15||
0121.txt|MMI|0.52|Hospital course:Finding:Point in time:^Patient:Narrative|C0488549|[clna]|"Hospital course"-text-0-"Hospital Course"-NNP-0|text|5253/15||
0121.txt|MMI|0.52|Household ventilator|C1611144|[medd]|"Ventilator"-text-0-"ventilator"-NN-0|text|6937/10||
0121.txt|MMI|0.52|Hyperpnea|C0220854|[fndg]|"Overbreathing"-text-0-"overbreathing"-VBG-1|text|6919/13||
0121.txt|MMI|0.52|Hypertension, CTCAE|C1963138|[fndg]|"Hypertension"-text-0-"hypertension"-NN-0|text|5626/12||
0121.txt|MMI|0.52|Hypertensive disease|C0020538|[dsyn]|"Hypertension"-text-0-"hypertension"-NN-0|text|5626/12||
0121.txt|MMI|0.52|Impression|C1998467|[qlco]|"Impression"-text-0-"IMPRESSION"-NN-0|text|5049/10||
0121.txt|MMI|0.52|Inferior esophageal sphincter structure|C0227192|[bpoc]|"LES"-text-0-"LEs"-NNP-0|text|3096/3||
0121.txt|MMI|0.52|Information|C1533716|[idcn]|"Information"-text-46-"Information"-NNP-0|text|134/11||
0121.txt|MMI|0.52|Infrequent|C0521114|[tmco]|"Infrequent"-text-8-"infrequent"-JJ-0|text|7388/10||
0121.txt|MMI|0.52|Initial (abbreviation)|C1555582|[idcn]|"Initial"-text-0-"Initial"-JJ-0|text|1198/7||
0121.txt|MMI|0.52|Initial Adverse Event and Product Problem Report|C1705684|[inpr]|"INITIAL"-text-0-"Initial"-JJ-0|text|1198/7||
0121.txt|MMI|0.52|Initial Usage|C1705685|[ftcn]|"INITIAL"-text-0-"Initial"-JJ-0|text|1198/7||
0121.txt|MMI|0.52|Initially|C0205265|[tmco]|"Initial"-text-0-"Initial"-JJ-0|text|1198/7||
0121.txt|MMI|0.52|Inner Canthus|C1708516|[bpoc]|"Inner Canthus"-text-0-"inner canthus"-JJ-0|text|2895/13||
0121.txt|MMI|0.52|Instruction [Publication Type]|C0302828|[inpr]|"instructions"-text-0-"Instructions"-NNP-0|text|8044/12||
0121.txt|MMI|0.52|Instructions|C1442085|[inpr]|"Instructions"-text-0-"Instructions"-NNP-0|text|8044/12||
0121.txt|MMI|0.52|Instructions:Text:Point in time:^Patient:Narrative|C3263700|[clna]|"Instructions"-text-0-"Instructions"-NNP-0|text|8044/12||
0121.txt|MMI|0.52|Integrated Neuromusculoskeletal Release|C1704538|[topp]|"INR"-text-4-"INR"-NN-0|text|6617/3||
0121.txt|MMI|0.52|International Normalized Ratio of Prothrombin Time|C3853850|[lbpr]|"INR"-text-4-"INR"-NN-0|text|6617/3||
0121.txt|MMI|0.52|Into|C0332286|[ftcn]|"Into"-text-0-"into"-IN-0|text|7345/4||
0121.txt|MMI|0.52|Is a|C1292718|[ftcn]|"Is a"-text-0-"is a"-VBZ-0|text|364/4||
0121.txt|MMI|0.52|Jugular venous engorgement|C0425687|[fndg]|"jvd"-text-0-"JVD"-NNP-1|text|2481/3||
0121.txt|MMI|0.52|Known|C0205309|[qlco]|"Known"-text-0-"Known"-VBN-0|text|1834/5||
0121.txt|MMI|0.52|LRRC4B gene|C1537594|[gngm]|"HSM"-text-0-"HSM"-NNP-0|text|2683/3||
0121.txt|MMI|0.52|Lesion|C0221198|[fndg]|"Lesion"-text-0-"lesion"-NN-0|text|1861/6||
0121.txt|MMI|0.52|Lives with wife|C2960190|[fndg]|"Lives with wife"-text-0-"Lives with wife"-NNS-0|text|2077/15||
0121.txt|MMI|0.52|Location Equipment - Ventilator|C1547127|[spco]|"Ventilator"-text-0-"ventilator"-NN-0|text|6937/10||
0121.txt|MMI|0.52|Logical Condition|C1705253|[cnce]|"Condition"-text-0-"Condition"-NNP-0|text|7964/9||
0121.txt|MMI|0.52|Major|C0205164|[qlco]|"Major"-text-0-"Major"-NNP-0|text|248/5||
0121.txt|MMI|0.52|Major <insect>|C4318856|[euka]|"Major"-text-0-"Major"-NNP-0|text|248/5||
0121.txt|MMI|0.52|Make - Instruction Imperative|C1881534|[ftcn]|"Make"-text-7-"make"-VB-0|text|6524/4||
0121.txt|MMI|0.52|Manufacturer Name|C0947322|[inpr]|"Make"-text-7-"make"-VB-0|text|6524/4||
0121.txt|MMI|0.52|Mass Effect|C4086564|[fndg]|"Mass Effect"-text-0-"mass effect"-NN-0|text|4812/11||
0121.txt|MMI|0.52|Mechanical ventilation finding|C4760388|[fndg]|"Mechanical ventilation"-text-4-"mechanical ventilation"-JJ-0|text|302/22||
0121.txt|MMI|0.52|Medial part of medial mammillary nucleus|C0694605|[bpoc]|"MMM"-text-0-"MMM"-NNP-0|text|2416/3||
0121.txt|MMI|0.52|Medical Examination|C0582103|[hlca]|"Examination"-text-0-"Examination"-NNP-0|text|5760/11||
0121.txt|MMI|0.52|Medical History|C0262926|[fndg]|"Past Medical History"-text-0-"Past Medical History"-NNP-0|text|1683/20||
0121.txt|MMI|0.52|Medical care|C0496675|[hlca]|"Medical care"-text-0-"medical care"-JJ-0|text|7192/12||
0121.txt|MMI|0.52|Medications on admission|C1627937|[fndg]|"Medications on admission"-text-0-"Medications on Admission"-NNS-0|text|7652/24||
0121.txt|MMI|0.52|Mental Status, CTCAE|C2004284|[fndg]|"Mental status"-text-0-"Mental status"-JJ-0|text|2742/13||
0121.txt|MMI|0.52|Mental state|C0278060|[fndg]|"Mental status"-text-0-"Mental status"-JJ-0|text|2742/13||
0121.txt|MMI|0.52|Mental status:Finding:Point in time:^Patient:Narrative:Observed|C0488568|[clna]|"Mental status"-text-0-"Mental status"-JJ-0|text|2742/13||
0121.txt|MMI|0.52|Mental status:Finding:Point in time:^Patient:Nominal:Observed|C0488569|[clna]|"Mental status"-text-0-"Mental status"-JJ-0|text|2742/13||
0121.txt|MMI|0.52|Mongolian language|C0026409|[lang]|"MON"-text-0-"MON"-NNP-0|text|8220/3||
0121.txt|MMI|0.52|More|C0205172|[qnco]|"More"-text-0-"more"-RBR-0|text|4688/4||
0121.txt|MMI|0.52|Morning|C0332170|[tmco]|"in the morning"-text-6-"in the morning"-IN-0|text|6680/14||
0121.txt|MMI|0.52|NIH stroke scale|C1697238|[inpr]|"NIH stroke scale"-text-0-"NIH stroke scale"-NNP-0|text|1206/16||
0121.txt|MMI|0.52|NIH stroke scale:-:Point in time:^Patient:-:NIHSS|C3484372|[clna]|"NIH Stroke Scale"-text-0-"NIH stroke scale"-NNP-0|text|1206/16||
0121.txt|MMI|0.52|Nasal (intended site)|C4520890|[fndg]|"Nasal"-text-0-"nasal"-JJ-0|text|2807/5||
0121.txt|MMI|0.52|Nasal Route of Drug Administration|C1522019|[ftcn]|"Nasal"-text-0-"nasal"-JJ-0|text|2807/5||
0121.txt|MMI|0.52|Nasal dosage form|C1272939|[bodm]|"Nasal"-text-0-"nasal"-JJ-0|text|2807/5||
0121.txt|MMI|0.52|Nasal sinus|C0030471|[bsoj]|"Paranasal Sinuses"-text-0-"paranasal sinuses"-NN-0|text|5012/17||
0121.txt|MMI|0.52|Neck of pancreas|C0447556|[blor]|"Neck"-text-0-"Neck"-NNP-0|text|2443/4||
0121.txt|MMI|0.52|Neck of urinary bladder|C0227716|[bpoc]|"Neck"-text-0-"Neck"-NNP-0|text|2443/4||
0121.txt|MMI|0.52|No Response - Disease Response|C3844738|[fndg]|"No Response"-text-0-"No response"-DT-1|text|2758/11||
0121.txt|MMI|0.52|No hydrocephalus|C4012110|[fndg]|"No hydrocephalus"-text-0-"no hydrocephalus"-DT-1|text|4955/16||
0121.txt|MMI|0.52|No response|C4282382|[fndg]|"No response"-text-0-"No response"-DT-1|text|2758/11||
0121.txt|MMI|0.52|Non-Q wave myocardial infarction|C0542269|[dsyn]|"nqwmi"-text-34-"NQWMI"-NNP-0|text|456/5||
0121.txt|MMI|0.52|Numerous|C0439064|[qnco]|"More"-text-0-"more"-RBR-0|text|4688/4||
0121.txt|MMI|0.52|Observation of Sensation|C0542538|[fndg]|"sensation"-text-0-"Sensation"-NNP-0|text|3179/9||
0121.txt|MMI|0.52|Operative Surgical Procedures|C0543467|[topp]|"Surgical"-text-0-"Surgical"-NNP-0|text|254/8|E04|
0121.txt|MMI|0.52|Overall Publication Type|C0282416|[inpr]|"Overall"-text-0-"overall"-JJ-0|text|5899/7||
0121.txt|MMI|0.52|PDC wt Allele|C1705998|[gngm]|"PHD"-text-0-"PHD"-NNP-0|text|8097/3||
0121.txt|MMI|0.52|PER tumor staging notation|C0449201|[blor]|"PER"-text-0-"per"-IN-1|text|7496/3||
0121.txt|MMI|0.52|PER1 gene|C1418464|[gngm]|"PER"-text-0-"per"-IN-1|text|7496/3||
0121.txt|MMI|0.52|PER1 wt Allele|C3273590|[gngm]|"PER"-text-0-"per"-IN-1|text|7496/3||
0121.txt|MMI|0.52|PLXNA3 gene|C1418662|[gngm]|"SEX"-text-24-"Sex"-NN-0|text|83/3||
0121.txt|MMI|0.52|PRPF6 gene|C1826706|[gngm]|"TOM"-text-0-"Tom"-NNP-0|text|997/3||
0121.txt|MMI|0.52|Patient date of birth|C0421451|[tmco]|"Date of birth"-text-14-"Date of Birth"-NNP-0|text|56/13||
0121.txt|MMI|0.52|Per (qualifier)|C3887962|[qlco]|"Per"-text-0-"per"-IN-1|text|7496/3||
0121.txt|MMI|0.52|Per - dosing instruction fragment|C1704764|[inpr]|"Per"-text-0-"per"-IN-1|text|7496/3||
0121.txt|MMI|0.52|Personal History of Coronary Artery Disease|C1881055|[clna]|"History of Coronary Artery Disease"-text-28-"history of coronary artery disease"-NN-0|text|417/34||
0121.txt|MMI|0.52|Photopsia|C0085635|[dsyn]|"flicker"-text-0-"flicker"-NN-0|text|2884/7||
0121.txt|MMI|0.52|Physical Activity Measurement|C4049938|[lbpr]|"Activity"-text-32-"activity"-NN-1|text|6754/8||
0121.txt|MMI|0.52|Physical Shift|C2347509|[phpr]|"Shift"-text-0-"shift"-NN-0|text|4837/5||
0121.txt|MMI|0.52|Physiologic Coordination|C0242414|[phsf]|"Coordination"-text-0-"Coordination"-NNP-0|text|3398/12||
0121.txt|MMI|0.52|Planned|C1301732|[ftcn]|"Planned"-text-15-"planned"-VBN-0|text|7163/7||
0121.txt|MMI|0.52|Point|C3714763|[spco]|"Point"-text-0-"point"-NN-0|text|6958/5||
0121.txt|MMI|0.52|Point Name|C2347617|[qnco]|"point"-text-0-"point"-NN-0|text|6958/5||
0121.txt|MMI|0.52|Possess|C3154893|[idcn]|"Have"-text-2-"have"-VB-0|text|6986/4||
0121.txt|MMI|0.52|Post Device|C1704687|[mnob]|"Post"-text-0-"post"-NN-0|text|5772/4||
0121.txt|MMI|0.52|Posterior fossa compression syndrome|C0270680|[dsyn]|"Brainstem compression"-text-16-"brainstem compression"-NN-0|text|5871/21||
0121.txt|MMI|0.52|Precision - day|C1561539|[idcn]|"day"-text-12-"day"-NN-0|text|753/3||
0121.txt|MMI|0.52|Present|C0150312|[fndg]|"Present"-text-0-"present"-RB-0|text|4824/7||
0121.txt|MMI|0.52|Previous|C0205156|[tmco]|"Previous"-text-0-"previous"-JJ-0|text|7500/8||
0121.txt|MMI|0.52|Processing type - Evaluation|C1550157|[idcn]|"Evaluation"-text-0-"evaluation"-NN-0|text|973/10||
0121.txt|MMI|0.52|Prognosis:Find:Pt:^Patient:Nom|C3854082|[clna]|"Prognosis"-text-0-"prognosis"-NN-0|text|5907/9||
0121.txt|MMI|0.52|Pronounced Dead|C3274944|[fndg]|"Pronounced Dead"-text-0-"pronounced dead"-VBN-0|text|7550/15||
0121.txt|MMI|0.52|Protective muscle spasm|C0427198|[fndg]|"Guarding"-text-0-"guarding"-VBG-1|text|2669/8||
0121.txt|MMI|0.52|Radiologic Impression|C4049863|[fndg]|"Impression"-text-0-"IMPRESSION"-NN-0|text|5049/10||
0121.txt|MMI|0.52|Rapid|C0456962|[qlco]|"Rapid"-text-4-"rapid"-JJ-0|text|5690/5||
0121.txt|MMI|0.52|Receive|C1514756|[qlco]|"RECEIVED"-text-0-"Received"-VBN-0|text|1493/8||
0121.txt|MMI|0.52|Regulatory Report|C3273238|[inpr]|"Report"-text-14-"Report"-NNP-0|text|8253/6||
0121.txt|MMI|0.52|Relate - vinyl resin|C0163712|[orch]|"relates"-text-0-"relates"-NNS-0|text|5145/7||
0121.txt|MMI|0.52|Report (document)|C0684224|[inpr]|"Report"-text-14-"Report"-NNP-0|text|8253/6||
0121.txt|MMI|0.52|Report:Finding:Point in time:{Setting}:Document:{Role}|C4255046|[clna]|"Report"-text-14-"Report"-NNP-0|text|8253/6||
0121.txt|MMI|0.52|Reporting|C0700287|[hlca]|"report"-text-14-"Report"-NNP-0|text|8253/6||
0121.txt|MMI|0.52|Residue on Tongue|C4283818|[fndg]|"Tongue"-text-0-"Tongue"-NNP-0|text|3034/6||
0121.txt|MMI|0.52|Response to voice|C0423528|[fndg]|"Response to voice"-text-2-"response to voice"-NN-1|text|2761/17||
0121.txt|MMI|0.52|Room type - Intensive care unit|C1549475|[idcn]|"Intensive care unit"-text-0-"intensive care unit"-JJ-0|text|1661/19||
0121.txt|MMI|0.52|Rotated|C0231458|[spco]|"Rotated"-text-0-"rotated"-VBD-0|text|3169/7||
0121.txt|MMI|0.52|Rubricyte Count|C4283816|[lbpr]|"RUB"-text-8-"rub"-NN-0|text|2789/3||
0121.txt|MMI|0.52|Ruptured behavior|C0443294|[ftcn]|"Ruptured"-text-10-"ruptured"-JJ-0|text|5198/8||
0121.txt|MMI|0.52|Ruta graveolens preparation|C0939812|[orch, phsu]|"RUE"-text-0-"RUE"-NNP-0|text|3371/3||
0121.txt|MMI|0.52|SHORT STATURE, ONYCHODYSPLASIA, FACIAL DYSMORPHISM, AND HYPOTRICHOSIS SYNDROME|C3542022|[dsyn]|"SOFT"-text-0-"Soft"-NNP-0|text|2630/4||
0121.txt|MMI|0.52|SLC35G1 gene|C3469826|[gngm]|"POST"-text-0-"post"-NN-0|text|5772/4||
0121.txt|MMI|0.52|SON gene|C1420310|[gngm]|"SON"-text-0-"son"-NN-0|text|2099/3||
0121.txt|MMI|0.52|Science of Etiology|C1524003|[cnce]|"Etiology"-text-8-"etiology"-NN-0|text|4716/8||
0121.txt|MMI|0.52|Scientific Control|C1882979|[cnce]|"Control"-text-4-"control"-NN-0|text|1445/7||
0121.txt|MMI|0.52|Sedation procedure|C0344106|[topp]|"Sedation"-text-0-"Sedation"-NN-0|text|6260/8||
0121.txt|MMI|0.52|Send (transmission)|C1519246|[ftcn]|"Sent"-text-0-"Sent"-NNP-0|text|934/4||
0121.txt|MMI|0.52|Sensation quality|C1455667|[qlco]|"Sensation"-text-0-"Sensation"-NNP-0|text|3179/9||
0121.txt|MMI|0.52|Serial|C4554600|[tmco]|"Serial"-text-0-"serial"-NN-0|text|6635/6||
0121.txt|MMI|0.52|Serial Number|C2348188|[inpr]|"SERIAL"-text-0-"serial"-NN-0|text|6635/6||
0121.txt|MMI|0.52|Severe (severity modifier)|C0205082|[fndg]|"Major"-text-0-"Major"-NNP-0|text|248/5||
0121.txt|MMI|0.52|Sexual intercourse - finding|C1314687|[fndg]|"Sex"-text-24-"Sex"-NN-0|text|83/3||
0121.txt|MMI|0.52|Shortened|C1282927|[qlco]|"brief"-text-0-"Brief"-NNP-0|text|5247/5||
0121.txt|MMI|0.52|Signature|C1519316|[inpr]|"Signed"-text-26-"Signed"-VBN-0|text|8169/6||
0121.txt|MMI|0.52|Significant|C0750502|[idcn]|"Significant"-text-0-"significant"-JJ-0|text|4730/11||
0121.txt|MMI|0.52|Skeletal bone|C0262950|[bpoc]|"Osseous"-text-0-"osseous"-JJ-0|text|4989/7||
0121.txt|MMI|0.52|Slurred speech|C0234518|[fndg]|"Slurring"-text-12-"slurring"-VBG-0|text|913/8||
0121.txt|MMI|0.52|Social|C0728831|[ftcn]|"Social"-text-0-"Social"-JJ-0|text|2115/6||
0121.txt|MMI|0.52|Soft|C0205358|[qlco]|"Soft"-text-0-"Soft"-NNP-0|text|2630/4||
0121.txt|MMI|0.52|Son (person)|C0037683|[famg]|"Son"-text-0-"son"-NN-0|text|2099/3||
0121.txt|MMI|0.52|Specimen Source Codes - Lesion|C1546698|[inpr]|"Lesion"-text-0-"lesion"-NN-0|text|1861/6||
0121.txt|MMI|0.52|Started|C1272689|[qlco]|"Started"-text-0-"Started"-VBN-0|text|1395/7||
0121.txt|MMI|0.52|Statistical Significance|C0237881|[qnco]|"significant"-text-0-"significant"-JJ-0|text|4730/11||
0121.txt|MMI|0.52|Stent, device|C0038257|[medd]|"Stent"-text-52-"stent"-JJ-0|text|494/5||
0121.txt|MMI|0.52|Stimulation (motivation)|C1948023|[npop]|"Stimulation"-text-6-"stimulation"-NN-0|text|2930/11||
0121.txt|MMI|0.52|Stimulation procedure|C1292856|[topp]|"Stimulation"-text-6-"stimulation"-NN-0|text|2930/11||
0121.txt|MMI|0.52|Stop (qualifier value)|C2746065|[tmco]|"End"-text-10-"End"-NN-0|text|8246/3||
0121.txt|MMI|0.52|Stroke, CTCAE|C4554100|[fndg]|"Stroke"-text-0-"stroke"-NN-0|text|1184/6||
0121.txt|MMI|0.52|Structure of putamen|C0034169|[bpoc]|"Putamen"-text-14-"putamen"-NNS-0|text|5579/7||
0121.txt|MMI|0.52|Study Control|C4553389|[cnce]|"control"-text-4-"control"-NN-0|text|1445/7||
0121.txt|MMI|0.52|Subarachnoid Route of Drug Administration|C1515008|[ftcn]|"Subarachnoid"-text-0-"subarachnoid"-NN-0|text|4742/12||
0121.txt|MMI|0.52|Sudden onset (contextual qualifier) (qualifier value)|C1272517|[inpr]|"Sudden onset"-text-50-"sudden onset"-JJ-0|text|5435/12||
0121.txt|MMI|0.52|Supple|C0332254|[ftcn]|"Supple"-text-0-"Supple"-NNP-0|text|2450/6||
0121.txt|MMI|0.52|Surgical intervention (finding)|C0549433|[fndg]|"surgical intervention"-text-14-"surgical intervention"-JJ-1|text|6119/21||
0121.txt|MMI|0.52|Surgical service|C0587668|[hlca]|"Surgical"-text-0-"Surgical"-NNP-0|text|254/8||
0121.txt|MMI|0.52|Team|C0871489|[grup]|"Team"-text-0-"team"-NN-0|text|1191/4||
0121.txt|MMI|0.52|Tickling sensation quality|C0234201|[orgf]|"Tickle"-text-0-"tickle"-NN-0|text|2813/6||
0121.txt|MMI|0.52|Towards|C3875150|[idcn]|"Towards"-text-10-"towards"-IN-0|text|4878/7||
0121.txt|MMI|0.52|Transaction counts and value totals - day|C1561538|[inpr]|"day"-text-12-"day"-NN-0|text|753/3||
0121.txt|MMI|0.52|Transferred to|C4049693|[fndg]|"Transferred to"-text-0-"Transferred to"-VBN-0|text|1646/14||
0121.txt|MMI|0.52|Transferred to:Loc:Pt:^Patient:Nom|C4049692|[clna]|"Transferred to"-text-0-"Transferred to"-VBN-0|text|1646/14||
0121.txt|MMI|0.52|Triggered by|C1444748|[qlco]|"Provoked"-text-0-"provoked"-VBD-0|text|2997/8||
0121.txt|MMI|0.52|True Control Status|C3274648|[qlco]|"Control"-text-4-"control"-NN-0|text|1445/7||
0121.txt|MMI|0.52|Undifferentiated (Embryonal) Sarcoma|C0855073|[neop]|"UES"-text-0-"UEs"-NNP-0|text|3102/3||
0121.txt|MMI|0.52|Unit|C0439148|[qnco]|"Units"-text-2-"units"-NNS-0|text|1527/5||
0121.txt|MMI|0.52|Unit - NCI Thesaurus Property|C3853603|[qnco]|"Units"-text-2-"units"-NNS-0|text|1527/5||
0121.txt|MMI|0.52|Unit of Measure|C1519795|[qnco]|"Units"-text-2-"units"-NNS-0|text|1527/5||
0121.txt|MMI|0.52|United States Military Commissioned Officer O10|C4521767|[clas]|"GEN"-text-0-"Gen"-NNP-0|text|2319/3||
0121.txt|MMI|0.52|United States Military Commissioned Officer O4|C4521762|[clas]|"Major"-text-0-"Major"-NNP-0|text|248/5||
0121.txt|MMI|0.52|Unresponsive to Treatment|C0205269|[ftcn]|"Unresponsive"-text-0-"unresponsive"-JJ-0|text|6781/12||
0121.txt|MMI|0.52|Until|C1720302|[inpr]|"Until"-text-2-"until"-IN-0|text|731/5||
0121.txt|MMI|0.52|Up|C0547043|[spco]|"Up to"-text-0-"up to"-IN-0|text|1142/5||
0121.txt|MMI|0.52|Upon - dosing instruction fragment|C1720176|[ftcn]|"Upon"-text-3-"upon"-IN-0|text|1883/4||
0121.txt|MMI|0.52|Usual|C3538928|[qlco]|"Usual"-text-0-"usual"-JJ-0|text|709/5||
0121.txt|MMI|0.52|Ventilated|C0231923|[ftcn]|"Ventilated"-text-0-"ventilated"-VBN-0|text|2306/10||
0121.txt|MMI|0.52|Ventilator - respiratory equipment|C0087153|[medd]|"Ventilator"-text-0-"ventilator"-NN-0|text|6937/10||
0121.txt|MMI|0.52|Ventricular escape beat|C0232214|[fndg]|"Ventricular Escape Beats"-text-14-"ventricular escape beats"-JJ-0|text|7399/24||
0121.txt|MMI|0.52|Visual|C0234621|[ftcn]|"Visualized"-text-0-"visualized"-JJ-0|text|4978/10||
0121.txt|MMI|0.52|Vitamin K Assay|C0042879|[lbpr]|"Vitamin K"-text-0-"Vitamin K"-NNP-0|text|1511/9||
0121.txt|MMI|0.52|Vitamin K Drug Class|C3714648|[vita, phsu]|"VITAMIN K"-text-0-"Vitamin K"-NNP-0|text|1511/9||
0121.txt|MMI|0.52|Vitamin K [EPC]|C2936884|[phsu]|"Vitamin K"-text-0-"Vitamin K"-NNP-0|text|1511/9||
0121.txt|MMI|0.52|Vitamin K containing hemostatics|C3541380|[vita, orch, phsu]|"Vitamin K"-text-0-"Vitamin K"-NNP-0|text|1511/9||
0121.txt|MMI|0.52|WAS A|C1278569|[ftcn]|"WAS A"-text-0-"was a"-VBD-0|text|5279/5||
0121.txt|MMI|0.52|WHO Temperature/Humidity Storage Condition|C3272598|[qlco]|"WHO"-text-82-"who"-WP-0|text|586/3||
0121.txt|MMI|0.52|Weak|C1762617|[qlco]|"Weak"-text-0-"weak"-JJ-0|text|2879/4||
0121.txt|MMI|0.52|Weakness|C3714552|[sosy]|"Weak"-text-0-"weak"-JJ-0|text|2879/4||
0121.txt|MMI|0.52|White Blood Cell Count procedure|C0023508|[lbpr]|"WBC"-text-4-"WBC"-NNP-0|text|3498/3||
0121.txt|MMI|0.52|Within|C0332285|[spco]|"Within"-text-0-"within"-IN-0|text|5096/6||
0121.txt|MMI|0.52|acute|C0205178|[tmco]|"Acute onset"-text-105-"acute onset"-JJ-0|text|641/11||
0121.txt|MMI|0.52|allowing|C0683607|[socb]|"allow"-text-0-"allow"-VB-0|text|6281/5||
0121.txt|MMI|0.52|are unit of measure|C1551058|[qnco]|"Are"-text-0-"are"-VBP-0|text|5030/3||
0121.txt|MMI|0.52|arrival - ActRelationshipType|C1555577|[ftcn]|"arrival"-text-0-"arrival"-NN-0|text|6185/7||
0121.txt|MMI|0.52|bite injury|C0005658|[inpo]|"biting"-text-0-"biting"-VBG-0|text|3012/6||
0121.txt|MMI|0.52|control act - information|C0870705|[idcn]|"information"-text-46-"Information"-NNP-0|text|134/11||
0121.txt|MMI|0.52|control aspects|C0243148|[qlco]|"control"-text-4-"control"-NN-0|text|1445/7||
0121.txt|MMI|0.52|control substance|C1550141|[sbst]|"Control"-text-4-"control"-NN-0|text|1445/7||
0121.txt|MMI|0.52|conversation|C0871703|[socb]|"conversations"-text-0-"conversations"-NNS-0|text|7509/13||
0121.txt|MMI|0.52|day|C0439228|[tmco]|"day"-text-12-"day"-NN-0|text|753/3||
0121.txt|MMI|0.52|dendritic spine neck|C3159206|[celc]|"neck"-text-0-"Neck"-NNP-0|text|2443/4||
0121.txt|MMI|0.52|development aspects|C0243107|[ftcn]|"development"-text-0-"development"-NN-0|text|861/11||
0121.txt|MMI|0.52|end - ActRelationshipCheckpoint|C1561490|[ftcn]|"end"-text-10-"End"-NN-0|text|8246/3||
0121.txt|MMI|0.52|flicker bird|C0326259|[bird]|"Flicker"-text-0-"flicker"-NN-0|text|2884/7||
0121.txt|MMI|0.52|follow-up|C1522577|[hlca]|"Followup"-text-0-"Followup"-NNP-0|text|8035/8||
0121.txt|MMI|0.52|gram|C0439208|[qnco]|"grams"-text-0-"grams"-NNS-0|text|1629/5||
0121.txt|MMI|0.52|head of bed|C2709195|[mnob]|"head of bed"-text-0-"Head of bed"-NN-0|text|6308/11||
0121.txt|MMI|0.52|headache severe|C2957106|[sosy]|"severe headache"-text-7-"severe headache"-JJ-0|text|819/15||
0121.txt|MMI|0.52|impression (attitude)|C0596764|[menp]|"Impression"-text-0-"IMPRESSION"-NN-0|text|5049/10||
0121.txt|MMI|0.52|most likely|C0750501|[idcn]|"most likely"-text-0-"most likely"-RBS-0|text|5133/11||
0121.txt|MMI|0.52|motor movement|C1513492|[ftcn]|"Motor"-text-0-"Motor"-NNP-0|text|3051/5||
0121.txt|MMI|0.52|no drug allergy|C0262579|[fndg]|"no drug allergy"-text-44-"No Drug Allergy"-DT-1|text|118/15||
0121.txt|MMI|0.52|personal health|C0683314|[fndg]|"state of health"-text-0-"state of health"-NN-0|text|715/15||
0121.txt|MMI|0.52|phenylalanine dehydrogenase activity|C1324593|[moft]|"PHD"-text-0-"PHD"-NNP-0|text|8097/3||
0121.txt|MMI|0.52|point - UnitsOfMeasure|C1552961|[qnco]|"Point"-text-0-"point"-NN-0|text|6958/5||
0121.txt|MMI|0.52|seen|C0205397|[qlco]|"seen"-text-0-"Seen"-JJ-0|text|1165/4||
0121.txt|MMI|0.52|shift displacement|C0333051|[ftcn]|"Shift"-text-0-"shift"-NN-0|text|4837/5||
0121.txt|MMI|0.52|signed - ParticipationSignature|C1561610|[inpr]|"signed"-text-26-"Signed"-VBN-0|text|8169/6||
0121.txt|MMI|0.52|unresponsive behavior|C0237284|[fndg]|"Unresponsive"-text-0-"unresponsive"-JJ-0|text|6781/12||
0121.txt|MMI|0.52|warming process|C0687712|[npop]|"warm"-text-0-"Warm"-NNP-0|text|2698/4||
0121.txt|MMI|0.50|1 (finding)|C5201140|[fndg]|"One"-text-0-"One"-CD-0|text|2095/3||
0121.txt|MMI|0.50|1 Hour|C1442450|[tmco]|"1 Hour"-text-14-"1 hour"-CD-0|text|6251/6||
0121.txt|MMI|0.50|11-12|C3843712|[qnco]|"11-12"-text-14-"11-12"-CD-0|text|6703/5||
0121.txt|MMI|0.50|112|C4319548|[qnco]|"112"-text-0-"112"-CD-0|text|1110/3||
0121.txt|MMI|0.50|120|C4319550|[qnco]|"120"-text-0-"120"-CD-0|text|1086/3||
0121.txt|MMI|0.50|7 mm|C3842085|[fndg]|"7 mm"-text-0-"7 mm"-CD-0|text|2855/4||
0121.txt|MMI|0.50|Angioplasty - Consent Type|C1548817|[hlca]|"Angioplasty"-text-48-"angioplasty"-JJ-0|text|478/11||
0121.txt|MMI|0.50|Arabic numeral 100|C1704407|[qnco]|"100"-text-0-"100"-CD-0|text|2299/3||
0121.txt|MMI|0.50|Blood Product Code - Fresh Frozen Plasma|C1547245|[inpr]|"Fresh Frozen Plasma"-text-0-"fresh frozen plasma"-JJ-0|text|6578/19||
0121.txt|MMI|0.50|Blood Products Laboratory Testing|C3831328|[lbpr]|"Test"-text-13-"test"-NN-0|text|7158/4||
0121.txt|MMI|0.50|Blood pressure finding|C1271104|[fndg]|"Blood Pressure"-text-0-"Blood pressure"-NN-0|text|1127/14||
0121.txt|MMI|0.50|Body Fluid Discharge|C0012621|[bdsu]|"Discharge"-text-0-"Discharge"-NNP-0|text|7954/9||
0121.txt|MMI|0.50|Breath sounds:Finding:Point in time:^Patient:Ordinal|C3484186|[clna]|"Breath sounds"-text-0-"breath sounds"-NN-0|text|2539/13||
0121.txt|MMI|0.50|CDISC SDTM Discharge Disposition Terminology|C3541348|[inpr]|"Discharge Disposition"-text-0-"Discharge Disposition"-NNP-0|text|7829/21||
0121.txt|MMI|0.50|Central|C0205099|[spco]|"centered"-text-4-"centered"-VBN-0|text|5545/8||
0121.txt|MMI|0.50|Completed By (qualifier)|C2349181|[qlco]|"Completed By"-text-2-"Completed by"-VBN-0|text|8108/12||
0121.txt|MMI|0.50|Discharge date|C2361123|[tmco]|"Discharge date"-text-0-"Discharge Date"-JJ-0|text|28/14||
0121.txt|MMI|0.50|Discharge date:Time Stamp -- Date and Time:Point in time:^Patient:Quantitative|C2361122|[clna]|"Discharge date"-text-0-"Discharge Date"-JJ-0|text|28/14||
0121.txt|MMI|0.50|Discharge disposition:Type:Point in time:^Patient:Nominal|C2708314|[clna]|"Discharge disposition"-text-0-"Discharge Disposition"-NNP-0|text|7829/21||
0121.txt|MMI|0.50|Discharge instructions|C4282220|[inpr]|"Discharge instructions"-text-0-"Discharge Instructions"-NNP-0|text|7993/22||
0121.txt|MMI|0.50|Discharge instructions:Find:Pt:{Setting}:Doc:{Provider}|C3669312|[clna]|"Discharge instructions"-text-0-"Discharge Instructions"-NNP-0|text|7993/22||
0121.txt|MMI|0.50|Discharge, Body Substance, Sample|C0600083|[bdsu]|"Discharge"-text-0-"Discharge"-NNP-0|text|7954/9||
0121.txt|MMI|0.50|Discharge, body substance|C2926602|[sosy]|"Discharge"-text-0-"Discharge"-NNP-0|text|7954/9||
0121.txt|MMI|0.50|Disposition of patient discharged|C4759848|[fndg]|"Discharge disposition"-text-0-"Discharge Disposition"-NNP-0|text|7829/21||
0121.txt|MMI|0.50|Dominant|C1527180|[ftcn]|"Dominant"-text-0-"dominant"-JJ-0|text|1844/8||
0121.txt|MMI|0.50|Drain - SpecimenType|C1550628|[sbst]|"Drain"-text-20-"drain"-NN-0|text|6157/5||
0121.txt|MMI|0.50|Drain Specimen Code|C1546604|[inpr]|"Drain"-text-20-"drain"-NN-0|text|6157/5||
0121.txt|MMI|0.50|Drain device|C0180499|[medd]|"Drain"-text-20-"drain"-NN-0|text|6157/5||
0121.txt|MMI|0.50|Drainage procedure|C0013103|[topp]|"drain"-text-20-"drain"-NN-0|text|6157/5||
0121.txt|MMI|0.50|Drug usage|C0242510|[mobd]|"Drug use"-text-0-"drug use"-NN-1|text|2145/8||
0121.txt|MMI|0.50|Entire left ankle|C1280015|[bpoc]|"Left ankle"-text-0-"left ankle"-VBD-0|text|3253/10||
0121.txt|MMI|0.50|Entire left lower leg|C1279606|[bpoc]|"Left leg"-text-6-"left leg"-JJ-0|text|3327/8||
0121.txt|MMI|0.50|Entire right ankle|C1280013|[bpoc]|"Right ankle"-text-0-"right ankle"-JJ-0|text|3384/11||
0121.txt|MMI|0.50|Entire right frontal lobe|C1281954|[bpoc]|"Right frontal lobe"-text-4-"right frontal lobe"-JJ-0|text|5107/18||
0121.txt|MMI|0.50|Entire right middle cerebral artery|C1267298|[bpoc]|"Right middle cerebral artery"-text-18-"right middle cerebral artery"-JJ-0|text|5207/28||
0121.txt|MMI|0.50|Evidence of (contextual qualifier)|C0332120|[ftcn]|"Evidence of"-text-4-"evidence of"-NN-0|text|5824/11||
0121.txt|MMI|0.50|File (record)|C0016094|[ocac]|"File"-text-50-"File"-NNP-0|text|149/4||
0121.txt|MMI|0.50|Filed|C1522646|[ftcn]|"File"-text-50-"File"-NNP-0|text|149/4||
0121.txt|MMI|0.50|How Often Felt Normal question|C4553972|[inpr]|"Normal"-text-0-"Normal"-JJ-0|text|3059/6||
0121.txt|MMI|0.50|Intravascular systolic:Pressure:Point in time:Arterial system:Quantitative|C0488055|[clna]|"Systolic blood pressure"-text-2-"systolic blood pressure"-JJ-0|text|6392/23||
0121.txt|MMI|0.50|Invasive procedure|C4048276|[topp]|"Invasive procedure"-text-0-"Invasive Procedure"-NNP-0|text|266/18||
0121.txt|MMI|0.50|Irregular|C0205271|[qlco]|"Irregular"-text-0-"irregular"-JJ-0|text|2593/9||
0121.txt|MMI|0.50|Karnofsky Performance Status 100|C3829431|[fndg]|"100"-text-0-"100"-CD-0|text|2299/3||
0121.txt|MMI|0.50|Laboratory Procedures|C0022885|[lbpr]|"Test"-text-13-"test"-NN-0|text|7158/4||
0121.txt|MMI|0.50|Left patellar ligament|C0835250|[bpoc]|"Left patellar tendon"-text-0-"left patellar tendon"-VBD-0|text|3275/20||
0121.txt|MMI|0.50|Measles-rubella vaccine (live)|C0457610|[imft, aapp, phsu]|"M/R"-text-0-"M/R"-NNP-0|text|2616/3||
0121.txt|MMI|0.50|Normal Gait|C5200925|[fndg]|"Normal"-text-0-"Normal"-JJ-0|text|3059/6||
0121.txt|MMI|0.50|Normal Immune Presence|C5202633|[fndg]|"Normal"-text-0-"Normal"-JJ-0|text|3059/6||
0121.txt|MMI|0.50|Normal Observation Interpretation|C1550457|[fndg]|"Normal"-text-0-"Normal"-JJ-0|text|3059/6||
0121.txt|MMI|0.50|Normal Reference Range|C2698497|[inpr]|"Normal"-text-0-"Normal"-JJ-0|text|3059/6||
0121.txt|MMI|0.50|Normal assessment finding|C1873497|[fndg]|"Normal"-text-0-"Normal"-JJ-0|text|3059/6||
0121.txt|MMI|0.50|Normal, Unit of Concentration|C1704701|[qnco]|"Normal"-text-0-"Normal"-JJ-0|text|3059/6||
0121.txt|MMI|0.50|One|C0205447|[qnco]|"One"-text-0-"One"-CD-0|text|2095/3||
0121.txt|MMI|0.50|Open approach|C0348025|[spco]|"Invasive procedure"-text-0-"Invasive Procedure"-NNP-0|text|266/18||
0121.txt|MMI|0.50|REST gene|C1419346|[gngm]|"REST"-text-0-"Rest"-NNP-0|text|1092/4||
0121.txt|MMI|0.50|Right frontal lobe structure|C0228193|[bpoc]|"Right frontal lobe"-text-4-"right frontal lobe"-JJ-0|text|5107/18||
0121.txt|MMI|0.50|Secondary to|C0175668|[qlco]|"Secondary to"-text-0-"secondary to"-JJ-0|text|5613/12||
0121.txt|MMI|0.50|Skin appearance normal (finding)|C0558145|[fndg]|"NORMAL"-text-0-"Normal"-JJ-0|text|3059/6||
0121.txt|MMI|0.50|Specimen Source Codes - Discharge|C1546601|[inpr]|"Discharge"-text-0-"Discharge"-NNP-0|text|7954/9||
0121.txt|MMI|0.50|Structure of left ankle|C0230448|[bpoc]|"Left ankle"-text-0-"left ankle"-VBD-0|text|3253/10||
0121.txt|MMI|0.50|Structure of left lower leg|C0230443|[bpoc]|"Left leg"-text-6-"left leg"-JJ-0|text|3327/8||
0121.txt|MMI|0.50|Structure of right ankle|C0230447|[blor]|"Right ankle"-text-0-"right ankle"-JJ-0|text|3384/11||
0121.txt|MMI|0.50|Structure of right middle cerebral artery|C0226213|[bpoc]|"Right middle cerebral artery"-text-18-"right middle cerebral artery"-JJ-0|text|5207/28||
0121.txt|MMI|0.50|Sustained clonus|C0277817|[spco]|"Sustained clonus"-text-0-"sustained clonus"-JJ-0|text|3307/16||
0121.txt|MMI|0.50|Systemic arterial pressure|C1272641|[fndg]|"blood pressure"-text-0-"Blood pressure"-NN-0|text|1127/14||
0121.txt|MMI|0.50|Systolic blood pressure measurement|C1306620|[diap]|"systolic blood pressure"-text-2-"systolic blood pressure"-JJ-0|text|6392/23||
0121.txt|MMI|0.50|Test - temporal region|C4318744|[blor]|"Test"-text-13-"test"-NN-0|text|7158/4||
0121.txt|MMI|0.50|Test Dosing Unit|C1704435|[qnco]|"Test"-text-13-"test"-NN-0|text|7158/4||
0121.txt|MMI|0.50|Test Name|C2826273|[inpr]|"TEST"-text-13-"test"-NN-0|text|7158/4||
0121.txt|MMI|0.50|Test Result|C0456984|[lbtr]|"Test"-text-13-"test"-NN-0|text|7158/4||
0121.txt|MMI|0.50|Testing|C0039593|[ftcn]|"Test"-text-13-"test"-NN-0|text|7158/4||
0121.txt|MMI|0.50|Tests (qualifier value)|C0392366|[inpr]|"test"-text-13-"test"-NN-0|text|7158/4||
0121.txt|MMI|0.50|Times|C1632851|[qnco]|"Times"-text-2-"times"-NNS-0|text|3026/5||
0121.txt|MMI|0.50|URL Scheme - File|C1555017|[inpr]|"File"-text-50-"File"-NNP-0|text|149/4||
0121.txt|MMI|0.50|Ventricular hemorrhage|C0240059|[patf]|"Intraventricular hemorrhage"-text-0-"intraventricular hemorrhage"-JJ-1|text|4758/27||
0121.txt|MMI|0.50|apnea test|C1096023|[diap]|"apnea testing"-text-0-"apnea testing"-NN-0|text|7068/13||
0121.txt|MMI|0.50|discharge diagnosis|C1555319|[fndg]|"discharge diagnosis"-text-0-"Discharge Diagnosis"-NNP-0|text|7897/19||
0121.txt|MMI|0.50|file device|C0180853|[medd]|"File"-text-50-"File"-NNP-0|text|149/4||
0121.txt|MMI|0.50|normal Act Status|C1553386|[inpr]|"normal"-text-0-"Normal"-JJ-0|text|3059/6||
0121.txt|MMI|0.50|normal Confidentiality|C1550469|[idcn]|"normal"-text-0-"Normal"-JJ-0|text|3059/6||
0121.txt|MMI|0.50|normal Device Alert Level|C1551394|[fndg]|"Normal"-text-0-"Normal"-JJ-0|text|3059/6||
0121.txt|MMI|0.50|normal Entity Status|C1553406|[qlco]|"normal"-text-0-"Normal"-JJ-0|text|3059/6||
0121.txt|MMI|0.50|normal Managed Participation Status|C1553399|[idcn]|"normal"-text-0-"Normal"-JJ-0|text|3059/6||
0121.txt|MMI|0.50|normal Role Status|C1553402|[idcn]|"normal"-text-0-"Normal"-JJ-0|text|3059/6||
0121.txt|MMI|0.50|site-specific telomere resolvase activity|C1622890|[moft]|"ResT"-text-0-"Rest"-NNP-0|text|1092/4||
