0162.txt|MMI|113.25|Wiskott-Aldrich Syndrome|C0043194|[dsyn]|"WAS"-text-0-"was"-VBD-0,"WAS"-text-0-"was"-VBD-0,"WAS"-text-0-"was"-VBD-0,"WAS"-text-0-"was"-VBD-0,"WAS"-text-0-"was"-VBD-0,"WAS"-text-0-"was"-VBD-0,"WAS"-text-14-"was"-VBD-0|text|747/3;1621/3;1642/3;1850/3;1926/3;2285/3;2736/3|C20.673.627.900;C15.378.553.546.605.900;C16.320.798.875;C20.673.795.875;C16.320.322.937;C15.378.463.960;C16.320.099.970;C15.378.100.100.970|
0162.txt|MMI|22.18|Patient Discharge|C0030685|[hlca]|"Discharge"-text-8-"discharge"-NN-0,"Discharge"-text-0-"DISCHARGE"-NNP-0|text|2711/9;2976/9|N04.590.233.727.210.125;E02.760.169.125;N02.421.585.169.125;E02.760.400.610;N02.421.585.400.610|
0162.txt|MMI|21.67|Andorra|C0002838|[geoa]|"AND"-text-0-"AND"-CC-0,"AND"-text-24-"and"-CC-0,"AND"-text-72-"and"-CC-0,"AND"-text-0-"and"-CC-0,"AND"-text-22-"and"-CC-0,"AND"-text-0-"and"-CC-0,"AND"-text-18-"and"-CC-0,"AND"-text-6-"and"-CC-0,"AND"-text-0-"and"-CC-0,"AND"-text-0-"and"-CC-0,"AND"-text-6-"and"-CC-0,"AND"-text-0-"and"-CC-0,"AND"-text-26-"and"-CC-0,"AND"-text-34-"and"-CC-0,"AND"-text-0-"AND"-CC-0|text|377/3;524/3;659/3;821/3;948/3;1117/3;1309/3;1525/3;1790/3;1859/3;2063/3;2343/3;2447/3;2459/3;3117/3|Z01.542.049|
0162.txt|MMI|13.33|WAS protein, human|C1565156|[bacs, aapp]|"WAS"-text-0-"was"-VBD-0,"WAS"-text-0-"was"-VBD-0,"WAS"-text-0-"was"-VBD-0,"WAS"-text-0-"was"-VBD-0,"WAS"-text-0-"was"-VBD-0,"WAS"-text-0-"was"-VBD-0,"WAS"-text-14-"was"-VBD-0|text|747/3;1621/3;1642/3;1850/3;1926/3;2285/3;2736/3|x.x.x.x|
0162.txt|MMI|13.02|vinblastine|C0042670|[bacs, orch, phsu]|"vinblastine"-text-12-"Vinblastine"-NNP-0,"vinblastine"-text-18-"Vinblastine"-NNP-0|text|1283/11;2426/11|D03.633.100.473.402.681.827.650;D03.132.436.681.827.650|
0162.txt|MMI|12.62|cisplatin|C0008838|[inch, phsu]|"Cisplatinum"-text-64-"Cisplatinum"-NNP-0,"Cisplatinum"-text-16-"Cisplatinum"-NNP-0,"Cisplatinum"-text-36-"Cisplatinum"-NN-0|text|640/11;1297/11;2463/11|D01.710.100;D01.625.125;D01.210.375|
0162.txt|MMI|11.57|Myelin Associated Glycoprotein|C0129439|[bacs, aapp]|"MAG"-text-0-"Mag"-NNP-0|text|2999/3|D12.776.503.921.049;D12.776.631.580.500;D12.776.395.550.570;D12.776.543.550.555;D12.776.543.620.530|
0162.txt|MMI|11.11|Temperature|C0039476|[qnco]|"Temperature"-text-0-"temperature"-NN-0|text|1428/11|G01.906.595;N06.230.150.450;G16.500.750.775.710;G16.500.275.063.725.710;N06.230.300.100.725.710|
0162.txt|MMI|9.52|Chemotherapy|C3665472|[topp]|"Chemotherapy"-text-60-"chemotherapy"-NN-0,"Chemotherapy"-text-2-"chemotherapy"-NN-0,"Chemotherapy"-text-0-"chemotherapy"-NN-0,"Chemotherapy"-text-4-"chemotherapy"-NN-0,"Chemotherapy"-text-0-"chemotherapy"-NN-0|text|622/12;1257/12;2504/12;2804/12;2847/12|E02.319;Y11.020|
0162.txt|MMI|9.52|Pharmacotherapy|C0013216|[topp]|"Chemotherapy"-text-60-"chemotherapy"-NN-0,"Chemotherapy"-text-2-"chemotherapy"-NN-0,"Chemotherapy"-text-0-"chemotherapy"-NN-0,"Chemotherapy"-text-4-"chemotherapy"-NN-0,"Chemotherapy"-text-0-"chemotherapy"-NN-0|text|622/12;1257/12;2504/12;2804/12;2847/12|E02.319;Y11.020|
0162.txt|MMI|8.79|Vision|C0042789|[orgf]|"Ocular"-text-14-"ocular"-JJ-0|text|1551/6|F02.830.816.964;G02.111.820.480.900;G11.561.790.964;G14.935;G04.835.480.900|
0162.txt|MMI|8.41|fluorouracil|C0016360|[nnon, phsu]|"5-FU"-text-70-"5-FU"-CD-0,"5 fu"-text-8-"5 FU"-CD-0,"5-FU"-text-14-"5-FU"-CD-0|text|654/4;1276/4;2419/4|D03.383.742.698.875.404|
0162.txt|MMI|7.89|Bronchoscopy|C0006290|[diap]|"Bronchoscopy"-text-0-"Bronchoscopy"-NNP-0|text|808/12|E04.502.250.100;E01.370.388.250.100;E04.928.600.080;E01.370.386.105|
0162.txt|MMI|7.85|And|C1515981|[idcn]|"And"-text-0-"AND"-CC-0,"And"-text-24-"and"-CC-0,"And"-text-72-"and"-CC-0,"And"-text-0-"and"-CC-0,"And"-text-22-"and"-CC-0,"And"-text-0-"and"-CC-0,"And"-text-18-"and"-CC-0,"And"-text-6-"and"-CC-0,"And"-text-0-"and"-CC-0,"And"-text-0-"and"-CC-0,"And"-text-6-"and"-CC-0,"And"-text-0-"and"-CC-0,"And"-text-26-"and"-CC-0,"And"-text-34-"and"-CC-0,"And"-text-0-"AND"-CC-0|text|377/3;524/3;659/3;821/3;948/3;1117/3;1309/3;1525/3;1790/3;1859/3;2063/3;2343/3;2447/3;2459/3;3117/3||
0162.txt|MMI|7.85|And - dosing instruction fragment|C1706368|[inpr]|"And"-text-0-"AND"-CC-0,"And"-text-24-"and"-CC-0,"And"-text-72-"and"-CC-0,"And"-text-0-"and"-CC-0,"And"-text-22-"and"-CC-0,"And"-text-0-"and"-CC-0,"And"-text-18-"and"-CC-0,"And"-text-6-"and"-CC-0,"And"-text-0-"and"-CC-0,"And"-text-0-"and"-CC-0,"And"-text-6-"and"-CC-0,"And"-text-0-"and"-CC-0,"And"-text-26-"and"-CC-0,"And"-text-34-"and"-CC-0,"And"-text-0-"AND"-CC-0|text|377/3;524/3;659/3;821/3;948/3;1117/3;1309/3;1525/3;1790/3;1859/3;2063/3;2343/3;2447/3;2459/3;3117/3||
0162.txt|MMI|7.85|RelationshipConjunction - and|C1550557|[inpr]|"and"-text-0-"AND"-CC-0,"and"-text-24-"and"-CC-0,"and"-text-72-"and"-CC-0,"and"-text-0-"and"-CC-0,"and"-text-22-"and"-CC-0,"and"-text-0-"and"-CC-0,"and"-text-18-"and"-CC-0,"and"-text-6-"and"-CC-0,"and"-text-0-"and"-CC-0,"and"-text-0-"and"-CC-0,"and"-text-6-"and"-CC-0,"and"-text-0-"and"-CC-0,"and"-text-26-"and"-CC-0,"and"-text-34-"and"-CC-0,"and"-text-0-"AND"-CC-0|text|377/3;524/3;659/3;821/3;948/3;1117/3;1309/3;1525/3;1790/3;1859/3;2063/3;2343/3;2447/3;2459/3;3117/3||
0162.txt|MMI|7.43|Blood Urea Nitrogen|C0600137|[bacs, inch]|"BUN"-text-0-"BUN"-NNP-0|text|2230/3|E05.200.124.100.115;E01.370.225.124.100.115;E01.370.390.400.100|
0162.txt|MMI|7.43|Probability|C0033204|[qnco]|"Probable"-text-0-"PROBABLE"-NN-0|text|3121/8|N06.850.520.830.600;G17.680;E05.318.740.600;N05.715.360.750.625|
0162.txt|MMI|6.97|Acute lymphocytic leukemia|C0023449|[neop]|"ALL"-text-6-"all"-DT-0|text|1148/3|C04.557.337.428.600;C15.604.515.560.600;C20.683.515.528.600|
0162.txt|MMI|6.97|Blood|C0005767|[bdsu]|"Blood"-text-0-"blood"-NN-0|text|2098/5|A12.207.152;A15.145;Y01.010;Y08.040.020;Y01.010;Y08.040.020|
0162.txt|MMI|6.97|Precursor Cell Lymphoblastic Leukemia Lymphoma|C1961102|[neop]|"ALL"-text-6-"all"-DT-0|text|1148/3|C04.557.337.428.600;C15.604.515.560.600;C20.683.515.528.600|
0162.txt|MMI|5.59|Mediastinoscopy|C0025065|[diap]|"Mediastinoscopy"-text-0-"mediastinoscopy"-NN-0|text|825/15|E04.502.250.560;E04.928.490;E01.370.388.250.560|
0162.txt|MMI|4.73|Adenocarcinoma|C0001418|[neop]|"Adenocarcinoma"-text-22-"adenocarcinoma"-NN-0,"Adenocarcinoma"-text-0-"adenocarcinoma"-NN-0|text|509/14;1057/14|C04.557.470.200.025|
0162.txt|MMI|4.71|In addition to|C0332287|[ftcn]|"With"-text-12-"with"-IN-0,"With"-text-62-"with"-IN-0,"With"-text-4-"with"-IN-0,"With"-text-2-"with"-IN-0,"With"-text-0-"with"-IN-0,"With"-text-4-"with"-IN-0,"With"-text-0-"with"-IN-0,"With"-text-0-"with"-IN-0,"With"-text-0-"with"-IN-0|text|485/4;635/4;786/4;884/4;1072/4;1801/4;2381/4;2522/4;3169/4||
0162.txt|MMI|4.71|With - dosing instruction fragment|C1705690|[inpr]|"With"-text-12-"with"-IN-0,"With"-text-62-"with"-IN-0,"With"-text-4-"with"-IN-0,"With"-text-2-"with"-IN-0,"With"-text-0-"with"-IN-0,"With"-text-4-"with"-IN-0,"With"-text-0-"with"-IN-0,"With"-text-0-"with"-IN-0,"With"-text-0-"with"-IN-0|text|485/4;635/4;786/4;884/4;1072/4;1801/4;2381/4;2522/4;3169/4||
0162.txt|MMI|4.67|Anthracosis|C0003165|[dsyn]|"Anthracosis"-text-36-"anthracosis"-NN-0|text|993/11|C08.381.520.702.062;C08.381.483.581.062|
0162.txt|MMI|3.81|HAC protocol|C0062074|[topp]|"HAD"-text-0-"had"-VBD-0,"HAD"-text-0-"had"-VBD-0|text|2558/3;2671/3|x.x.x.x|
0162.txt|MMI|3.81|Negative Surgical Margin|C1709157|[fndg]|"Clear"-text-0-"clear"-JJ-0,"Clear"-text-12-"clear"-JJ-0|text|1625/5;1743/5|x.x.x.x|
0162.txt|MMI|3.75|Mediastinal Neoplasms|C0025063|[neop]|"Mediastinal Tumor"-text-0-"mediastinal tumor"-JJ-0|text|866/17|C08.846.187.580;C04.588.894.479|
0162.txt|MMI|3.66|WAS gene|C1421478|[gngm]|"WAS"-text-0-"was"-VBD-0,"WAS"-text-0-"was"-VBD-0,"WAS"-text-0-"was"-VBD-0,"WAS"-text-0-"was"-VBD-0,"WAS"-text-0-"was"-VBD-0,"WAS"-text-0-"was"-VBD-0,"WAS"-text-14-"was"-VBD-0|text|747/3;1621/3;1642/3;1850/3;1926/3;2285/3;2736/3||
0162.txt|MMI|3.66|Washoe language|C1555640|[lang]|"WAS"-text-0-"was"-VBD-0,"WAS"-text-0-"was"-VBD-0,"WAS"-text-0-"was"-VBD-0,"WAS"-text-0-"was"-VBD-0,"WAS"-text-0-"was"-VBD-0,"WAS"-text-0-"was"-VBD-0,"WAS"-text-14-"was"-VBD-0|text|747/3;1621/3;1642/3;1850/3;1926/3;2285/3;2736/3||
0162.txt|MMI|3.29|Body Temperature|C0005903|[orga]|"Temperature"-text-0-"temperature"-NN-0|text|1428/11|G07.110;E01.370.600.875.374|
0162.txt|MMI|3.29|Hospitalization|C0019993|[hlca]|"Hospitalization"-text-4-"hospitalization"-NN-0|text|2607/15|N02.421.585.400;E02.760.400|
0162.txt|MMI|3.29|Neoplasm Metastasis|C0027627|[neop]|"metastatic disease"-text-18-"metastatic disease"-JJ-1|text|1177/18|C04.697.650;C23.550.727.650|
0162.txt|MMI|3.29|Physicians|C0031831|[prog]|"doctors"-text-0-"DOCTORS"-VB-0|text|2968/7|M01.526.485.810;N02.360.810|
0162.txt|MMI|3.14|Herero language|C0574443|[lang]|"HER"-text-0-"Her"-PRP$-0,"HER"-text-0-"her"-PRP$-0,"HER"-text-0-"her"-PRP$-0,"HER"-text-0-"her"-PRP$-0,"HER"-text-10-"her"-PRP-0,"HER"-text-0-"her"-PRP$-0|text|672/3;712/3;1369/3;2579/3;2721/3;2829/3||
0162.txt|MMI|3.14|SHE gene|C1822717|[gngm]|"SHE"-text-0-"she"-PRP-0,"SHE"-text-0-"She"-PRP-0,"SHE"-text-0-"She"-PRP-0,"SHE"-text-0-"She"-PRP-0,"SHE"-text-0-"She"-PRP-0,"SHE"-text-0-"she"-PRP-0|text|743/3;1345/3;2486/3;2554/3;2662/3;2862/3||
0162.txt|MMI|3.14|She Chinese|C4761447|[popg]|"SHE"-text-0-"she"-PRP-0,"SHE"-text-0-"She"-PRP-0,"SHE"-text-0-"She"-PRP-0,"SHE"-text-0-"She"-PRP-0,"SHE"-text-0-"She"-PRP-0,"SHE"-text-0-"she"-PRP-0|text|743/3;1345/3;2486/3;2554/3;2662/3;2862/3||
0162.txt|MMI|2.95|Patients|C0030705|[podg]|"Patient"-text-0-"patient"-NN-0,"Patient"-text-0-"patient"-NN-0,"Patient"-text-0-"patient"-NN-0|text|454/7;1202/7;2277/7|M01.643|
0162.txt|MMI|2.89|Neoadjuvant Therapy|C0600558|[topp]|"Neoadjuvant"-text-58-"Neoadjuvant"-NNP-0,"Neoadjuvant"-text-0-"neoadjuvant"-JJ-0|text|610/11;1245/11|E02.186.450|
0162.txt|MMI|2.85|Volition|C0042950|[menp]|"Will"-text-0-"will"-MD-0,"Will"-text-0-"will"-MD-0|text|2866/4;3161/4|F02.463.902|
0162.txt|MMI|2.80|Eye|C0015392|[bpoc]|"Ocular"-text-14-"ocular"-JJ-0|text|1551/6|A09.371;A01.456.505.420|
0162.txt|MMI|2.62|Chemotherapy Regimen|C0392920|[topp]|"chemotherapy"-text-60-"chemotherapy"-NN-0,"chemotherapy"-text-2-"chemotherapy"-NN-0,"chemotherapy"-text-0-"chemotherapy"-NN-0,"chemotherapy"-text-4-"chemotherapy"-NN-0,"chemotherapy"-text-0-"chemotherapy"-NN-0|text|622/12;1257/12;2504/12;2804/12;2847/12||
0162.txt|MMI|2.62|Intravenous chemotherapy|C0413365|[topp]|"Intravenous chemotherapy"-text-14-"INTRAVENOUS CHEMOTHERAPY"-JJ-0,"Intravenous chemotherapy"-text-30-"INTRAVENOUS CHEMOTHERAPY"-NNP-0,"Intravenous chemotherapy"-text-6-"Intravenous chemotherapy"-JJ-0,"Intravenous chemotherapy"-text-0-"intravenous chemotherapy"-JJ-0,"Intravenous chemotherapy"-text-0-"Intravenous chemotherapy"-NNP-0|text|62/24;198/24;394/24;2356/24;2925/24||
0162.txt|MMI|2.62|pharmacotherapeutic|C0013217|[ftcn]|"chemotherapy"-text-60-"chemotherapy"-NN-0,"chemotherapy"-text-2-"chemotherapy"-NN-0,"chemotherapy"-text-0-"chemotherapy"-NN-0,"chemotherapy"-text-4-"chemotherapy"-NN-0,"chemotherapy"-text-0-"chemotherapy"-NN-0|text|622/12;1257/12;2504/12;2804/12;2847/12||
0162.txt|MMI|2.37|Carcinoma, Large Cell|C0206704|[neop]|"Large cell carcinoma"-text-30-"large cell carcinoma"-JJ-0|text|528/20|C04.557.470.200.260|
0162.txt|MMI|2.37|Laboratory|C0022877|[mnob, hcro]|"Laboratory"-text-0-"LABORATORY"-NNP-0|text|2074/10|J03.520;N02.278.487|
0162.txt|MMI|2.37|Movement|C0026649|[orgf]|"Movements"-text-16-"movements"-NNS-0|text|1558/9|G07.568;G11.427.410|
0162.txt|MMI|2.37|Overall|C1561607|[qlco]|"Overall"-text-0-"Overall"-RB-0|text|2747/7|V02.672;V02.270.500|
0162.txt|MMI|2.37|Pathology|C0030664|[bmod]|"Pathology"-text-0-"pathology"-NN-0|text|1014/9|H02.403.650;Y02.050|
0162.txt|MMI|2.37|World Health Organization|C0043237|[hcro]|"WHO"-text-48-"who"-WP-0|text|584/3|N03.540.514.718.800|
0162.txt|MMI|2.37|creatinine|C0010294|[bacs, orch]|"creatinine"-text-0-"creatinine"-CD-0|text|2238/10|D03.383.129.308.207|
0162.txt|MMI|2.37|guaiac|C0018302|[irda, orch]|"guaiac"-text-0-"guaiac"-JJ-0|text|1930/6|D20.215.721.500.490|
0162.txt|MMI|1.97|Diagnosis|C0011900|[diap]|"Diagnosis"-text-0-"DIAGNOSIS"-NNP-0,"diagnosed"-text-0-"diagnosed"-VBN-0|text|236/9;762/9|E01;Y04|
0162.txt|MMI|1.90|Abdominal Cavity|C0230168|[blor]|"Abdomen"-text-0-"Abdomen"-NNP-0|text|1842/7|A01.923.047.025|
0162.txt|MMI|1.90|Adverse effects|C0879626|[patf]|"side effects"-text-0-"side effects"-NN-1|text|2783/12|Y10.020;Y07.020|
0162.txt|MMI|1.90|Ativan|C0699194|[orch, phsu]|"Ativan"-text-0-"Ativan"-NNP-0|text|3049/6|x.x.x.x|
0162.txt|MMI|1.90|BCR protein, human|C0105421|[enzy, aapp]|"ALL"-text-6-"all"-DT-0|text|1148/3|x.x.x.x|
0162.txt|MMI|1.90|Clubbed Fingers|C0009080|[anab]|"Clubbing"-text-0-"clubbing"-VBG-1|text|1973/8|x.x.x.x|
0162.txt|MMI|1.90|Deafness, Sensorineural, And Male Infertility|C1970187|[dsyn]|"DIS"-text-0-"DIS"-NNPS-0|text|98/3|x.x.x.x|
0162.txt|MMI|1.90|Hand|C0018563|[bpoc]|"Hand"-text-8-"hand"-NN-0|text|2067/4|A01.378.800.667|
0162.txt|MMI|1.90|Hypoparathyroidism familial isolated|C1832648|[dsyn]|"FIH"-text-0-"FIH"-NNP-0|text|10/3|x.x.x.x|
0162.txt|MMI|1.90|MAG protein, human|C0758772|[aapp]|"MAG"-text-0-"Mag"-NNP-0|text|2999/3|x.x.x.x|
0162.txt|MMI|1.90|Malignant Neoplasms|C0006826|[neop]|"Cancer"-text-18-"cancer"-NN-0|text|939/6|x.x.x.x|
0162.txt|MMI|1.90|Nausea|C0027497|[sosy]|"Nausea"-text-0-"nausea"-NN-0|text|3092/6|C23.888.821.712|
0162.txt|MMI|1.90|Stelazine|C0733842|[orch, phsu]|"Stelazine"-text-0-"Stelazine"-NN-0|text|3023/9|x.x.x.x|
0162.txt|MMI|1.90|TNFSF13 protein, human|C0757844|[rcpt, aapp]|"APRIL"-text-0-"April"-NNP-0|text|775/5|x.x.x.x|
0162.txt|MMI|1.90|Velban|C0728761|[orch, phsu]|"Velban"-text-74-"Velban"-NNP-0|text|663/6|x.x.x.x|
0162.txt|MMI|1.88|Caucasoid Race|C0007457|[popg]|"White"-text-0-"white"-JJ-0|text|2092/5|x.x.x.x|
0162.txt|MMI|1.88|Liver Function Tests|C0023901|[lbpr]|"Liver Function Tests"-text-0-"liver function tests"-NN-0|text|2181/20|E01.370.372.460|
0162.txt|MMI|1.88|Resting Tremor|C0234379|[sosy]|"Resting Tremor"-text-0-"resting tremor"-VBG-0|text|2031/14|x.x.x.x|
0162.txt|MMI|1.57|Disabled Person Code - Patient|C1578486|[inpr]|"Patient"-text-0-"patient"-NN-0,"Patient"-text-0-"patient"-NN-0,"Patient"-text-0-"patient"-NN-0|text|454/7;1202/7;2277/7||
0162.txt|MMI|1.57|Exam|C4284036|[ftcn]|"Exam"-text-0-"exam"-NN-0,"Exam"-text-0-"exam"-NN-0,"Exam"-text-0-"exam"-NN-0|text|1763/4;1921/4;2015/4||
0162.txt|MMI|1.57|Facilitated oscillatory release technique|C1562169|[topp]|"FOR"-text-56-"for"-IN-0,"FOR"-text-0-"for"-IN-0,"FOR"-text-0-"for"-IN-0|text|606/3;1365/3;2950/3||
0162.txt|MMI|1.57|Have|C3539897|[qlco]|"Has"-text-0-"has"-VBZ-0,"Had"-text-0-"had"-VBD-0,"Had"-text-0-"had"-VBD-0|text|684/3;2558/3;2671/3||
0162.txt|MMI|1.57|History of present illness|C0262512|[fndg]|"History of present illness"-text-0-"HISTORY OF PRESENT ILLNESS"-NN-0,"History of"-text-18-"history of"-NN-0,"history"-text-0-"history"-NN-0|text|421/26;492/10;676/7||
0162.txt|MMI|1.57|Mail Claim Party - Patient|C1578481|[idcn]|"Patient"-text-0-"patient"-NN-0,"Patient"-text-0-"patient"-NN-0,"Patient"-text-0-"patient"-NN-0|text|454/7;1202/7;2277/7||
0162.txt|MMI|1.57|Medical Examination|C0582103|[hlca]|"Exam"-text-0-"exam"-NN-0,"Exam"-text-0-"exam"-NN-0,"Exam"-text-0-"exam"-NN-0|text|1763/4;1921/4;2015/4||
0162.txt|MMI|1.57|Preposition For|C0521125|[qlco]|"For"-text-56-"for"-IN-0,"For"-text-0-"for"-IN-0,"For"-text-0-"for"-IN-0|text|606/3;1365/3;2950/3||
0162.txt|MMI|1.57|Relationship modifier - Patient|C1578484|[idcn]|"Patient"-text-0-"patient"-NN-0,"Patient"-text-0-"patient"-NN-0,"Patient"-text-0-"patient"-NN-0|text|454/7;1202/7;2277/7||
0162.txt|MMI|1.57|Report source - Patient|C1578483|[idcn]|"Patient"-text-0-"patient"-NN-0,"Patient"-text-0-"patient"-NN-0,"Patient"-text-0-"patient"-NN-0|text|454/7;1202/7;2277/7||
0162.txt|MMI|1.57|Revealed|C0443289|[qlco]|"Revealed"-text-0-"revealed"-VBD-0,"Revealed"-text-0-"revealed"-VBD-0,"Revealed"-text-0-"revealed"-VBD-0|text|841/8;1024/8;2020/8||
0162.txt|MMI|1.57|Specimen Source Codes - Patient|C1578485|[inpr]|"Patient"-text-0-"patient"-NN-0,"Patient"-text-0-"patient"-NN-0,"Patient"-text-0-"patient"-NN-0|text|454/7;1202/7;2277/7||
0162.txt|MMI|1.57|Specimen Type - Patient|C1550655|[bdsu]|"Patient"-text-0-"patient"-NN-0,"Patient"-text-0-"patient"-NN-0,"Patient"-text-0-"patient"-NN-0|text|454/7;1202/7;2277/7||
0162.txt|MMI|1.57|Veterinary Patient|C1705908|[orgm]|"Patient"-text-0-"patient"-NN-0,"Patient"-text-0-"patient"-NN-0,"Patient"-text-0-"patient"-NN-0|text|454/7;1202/7;2277/7||
0162.txt|MMI|1.57|WWOX gene|C1421525|[gngm]|"FOR"-text-56-"for"-IN-0,"FOR"-text-0-"for"-IN-0,"FOR"-text-0-"for"-IN-0|text|606/3;1365/3;2950/3||
0162.txt|MMI|1.57|WWOX wt Allele|C4321252|[gngm]|"FOR"-text-56-"for"-IN-0,"FOR"-text-0-"for"-IN-0,"FOR"-text-0-"for"-IN-0|text|606/3;1365/3;2950/3||
0162.txt|MMI|1.57|Without|C0332288|[qlco]|"Without"-text-0-"without"-IN-0,"Without"-text-0-"without"-IN-0,"Without"-text-0-"without"-IN-0|text|1653/7;1875/7;1965/7||
0162.txt|MMI|1.44|Abdomen|C0000726|[blor]|"Abdomen"-text-0-"Abdomen"-NNP-0|text|1842/7|A01.923.047|
0162.txt|MMI|1.44|Anemia|C0002871|[dsyn]|"Anemia"-text-0-"anemia"-NN-0|text|2687/6|C15.378.071|
0162.txt|MMI|1.44|Cyanosis|C0010520|[sosy]|"Cyanosis"-text-0-"cyanosis"-NN-1|text|1984/8|C23.888.248|
0162.txt|MMI|1.44|Disease|C0012634|[dsyn]|"DIS"-text-0-"DIS"-NNPS-0|text|98/3|C23.550.288|
0162.txt|MMI|1.44|Edema|C0013604|[patf]|"Edema"-text-0-"edema"-NN-1|text|1996/5|C23.888.277|
0162.txt|MMI|1.44|History|C0019664|[ocdi]|"History"-text-0-"history"-NN-0|text|676/7|K01.400;Y27|
0162.txt|MMI|1.44|Physical Examination|C0031809|[hlca]|"Physical Examination"-text-0-"PHYSICAL EXAMINATION"-NNP-0|text|1405/20|E01.370.600|
0162.txt|MMI|1.44|Sclera|C0036410|[bpoc]|"Sclera"-text-0-"Sclera"-NNP-0|text|1582/6|A09.371.784|
0162.txt|MMI|1.05|Admission activity|C0809949|[hlca]|"Admitted"-text-54-"admitted"-VBN-0,"Admitted"-text-0-"admitted"-VBN-0|text|597/8;1356/8||
0162.txt|MMI|1.05|Carcinoma of lung|C0684249|[neop]|"LUNG CARCINOMA"-text-8-"lung carcinoma"-NN-0,"LUNG CANCER"-text-0-"lung cancer"-NN-0|text|791/14;2954/11||
0162.txt|MMI|1.05|Cervical Adenocarcinoma|C0279672|[neop]|"Adenocarcinoma"-text-22-"adenocarcinoma"-NN-0,"Adenocarcinoma"-text-0-"adenocarcinoma"-NN-0|text|509/14;1057/14||
0162.txt|MMI|1.05|Clear|C2963144|[qlco]|"Clear"-text-0-"clear"-JJ-0,"Clear"-text-12-"clear"-JJ-0|text|1625/5;1743/5||
0162.txt|MMI|1.05|Epidermal cGVHD Score 0|C4761489|[inpr]|"Clear"-text-0-"clear"-JJ-0,"Clear"-text-12-"clear"-JJ-0|text|1625/5;1743/5||
0162.txt|MMI|1.05|Epidermal cGVHD Score 2|C4761314|[inpr]|"Mild"-text-0-"mild"-JJ-0,"Mild"-text-0-"mild"-JJ-0|text|2527/4;2562/4||
0162.txt|MMI|1.05|Exist|C2987476|[qlco]|"Being"-text-52-"being"-VBG-0,"Being"-text-0-"being"-VBG-0|text|591/5;1213/5||
0162.txt|MMI|1.05|Good|C0205170|[qlco]|"Well"-text-0-"well"-RB-0,"Well"-text-0-"well"-RB-0|text|693/4;2517/4||
0162.txt|MMI|1.05|HADH gene|C1415458|[gngm]|"HAD"-text-0-"had"-VBD-0,"HAD"-text-0-"had"-VBD-0|text|2558/3;2671/3||
0162.txt|MMI|1.05|Hospital admission|C0184666|[hlca]|"admitted"-text-54-"admitted"-VBN-0,"admitted"-text-0-"admitted"-VBN-0|text|597/8;1356/8||
0162.txt|MMI|1.05|Medical History|C0262926|[fndg]|"History of"-text-18-"history of"-NN-0,"History"-text-0-"history"-NN-0|text|492/10;676/7||
0162.txt|MMI|1.05|Microplate Well|C4283957|[spco]|"Well"-text-0-"well"-RB-0,"Well"-text-0-"well"-RB-0|text|693/4;2517/4||
0162.txt|MMI|1.05|Mild (qualifier value)|C2945599|[qlco]|"Mild"-text-0-"mild"-JJ-0,"Mild"-text-0-"mild"-JJ-0|text|2527/4;2562/4||
0162.txt|MMI|1.05|Mild Adverse Event|C1513302|[fndg]|"MILD"-text-0-"mild"-JJ-0,"MILD"-text-0-"mild"-JJ-0|text|2527/4;2562/4||
0162.txt|MMI|1.05|Mild Allergy Severity|C1563320|[qlco]|"Mild"-text-0-"mild"-JJ-0,"Mild"-text-0-"mild"-JJ-0|text|2527/4;2562/4||
0162.txt|MMI|1.05|Mild Hallucination|C4722210|[fndg]|"Mild"-text-0-"mild"-JJ-0,"Mild"-text-0-"mild"-JJ-0|text|2527/4;2562/4||
0162.txt|MMI|1.05|Mild Severity of Illness Code|C1547225|[inpr]|"Mild"-text-0-"mild"-JJ-0,"Mild"-text-0-"mild"-JJ-0|text|2527/4;2562/4||
0162.txt|MMI|1.05|No Effort|C5202819|[fndg]|"None"-text-0-"None"-NN-0,"None"-text-0-"None"-NN-0|text|324/4;353/4||
0162.txt|MMI|1.05|No Hand Mobility|C4050154|[inpr]|"None"-text-0-"None"-NN-0,"None"-text-0-"None"-NN-0|text|324/4;353/4||
0162.txt|MMI|1.05|No Support Needed|C4050155|[inpr]|"None"-text-0-"None"-NN-0,"None"-text-0-"None"-NN-0|text|324/4;353/4||
0162.txt|MMI|1.05|None|C0549184|[fndg]|"None"-text-0-"None"-NN-0,"None"-text-0-"None"-NN-0|text|324/4;353/4||
0162.txt|MMI|1.05|None (no infant feeding)|C5200984|[fndg]|"None"-text-0-"None"-NN-0,"None"-text-0-"None"-NN-0|text|324/4;353/4||
0162.txt|MMI|1.05|None - Action Taken in Response to the Event|C1556148|[ftcn]|"None"-text-0-"None"-NN-0,"None"-text-0-"None"-NN-0|text|324/4;353/4||
0162.txt|MMI|1.05|None - Additive/Preservative|C1556152|[ftcn]|"None"-text-0-"None"-NN-0,"None"-text-0-"None"-NN-0|text|324/4;353/4||
0162.txt|MMI|1.05|None - ContainerSeparator|C1551387|[ftcn]|"None"-text-0-"None"-NN-0,"None"-text-0-"None"-NN-0|text|324/4;353/4||
0162.txt|MMI|1.05|None - Eligibility Source|C1556147|[idcn]|"None"-text-0-"None"-NN-0,"None"-text-0-"None"-NN-0|text|324/4;353/4||
0162.txt|MMI|1.05|None - Language Proficiency|C1556151|[ftcn]|"None"-text-0-"None"-NN-0,"None"-text-0-"None"-NN-0|text|324/4;353/4||
0162.txt|MMI|1.05|None - ObservationValue|C1556150|[idcn]|"None"-text-0-"None"-NN-0,"None"-text-0-"None"-NN-0|text|324/4;353/4||
0162.txt|MMI|1.05|None - Relationship|C1556146|[idcn]|"None"-text-0-"None"-NN-0,"None"-text-0-"None"-NN-0|text|324/4;353/4||
0162.txt|MMI|1.05|None - Sequencing|C1550437|[ftcn]|"None"-text-0-"None"-NN-0,"None"-text-0-"None"-NN-0|text|324/4;353/4||
0162.txt|MMI|1.05|None - Specimen Additive|C1550083|[inpr]|"None"-text-0-"None"-NN-0,"None"-text-0-"None"-NN-0|text|324/4;353/4||
0162.txt|MMI|1.05|None Device|C1706277|[mnob]|"None"-text-0-"None"-NN-0,"None"-text-0-"None"-NN-0|text|324/4;353/4||
0162.txt|MMI|1.05|Null Value|C0456148|[qnco]|"None"-text-0-"None"-NN-0,"None"-text-0-"None"-NN-0|text|324/4;353/4||
0162.txt|MMI|1.05|Probable diagnosis|C0332148|[fndg]|"Likely"-text-8-"likely"-JJ-0,"Probable"-text-0-"PROBABLE"-NN-0|text|2625/6;3121/8||
0162.txt|MMI|1.05|Remote control command - Clear|C1550016|[idcn]|"Clear"-text-0-"clear"-JJ-0,"Clear"-text-12-"clear"-JJ-0|text|1625/5;1743/5||
0162.txt|MMI|1.05|Well|C3146287|[mnob]|"Well"-text-0-"well"-RB-0,"Well"-text-0-"well"-RB-0|text|693/4;2517/4||
0162.txt|MMI|1.05|Well Marginated Nodule|C4761387|[fndg]|"Well"-text-0-"well"-RB-0,"Well"-text-0-"well"-RB-0|text|693/4;2517/4||
0162.txt|MMI|1.05|none - ResponseLevel|C1547191|[qlco]|"none"-text-0-"None"-NN-0,"none"-text-0-"None"-NN-0|text|324/4;353/4||
0162.txt|MMI|1.05|none - SubstanceAdminSubstitution|C1553523|[fndg]|"none"-text-0-"None"-NN-0,"none"-text-0-"None"-NN-0|text|324/4;353/4||
0162.txt|MMI|1.05|none - TableRules|C1546509|[qnco]|"none"-text-0-"None"-NN-0,"none"-text-0-"None"-NN-0|text|324/4;353/4||
0162.txt|MMI|1.01|1 Day|C1442449|[tmco]|"Day 1"-text-24-"day 1"-NN-0,"Day 1"-text-42-"day 1"-NN-0|text|2441/5;2478/5||
0162.txt|MMI|1.01|Body Fluid Discharge|C0012621|[bdsu]|"Discharge"-text-8-"discharge"-NN-0,"Discharge"-text-0-"DISCHARGE"-NNP-0|text|2711/9;2976/9||
0162.txt|MMI|1.01|Discharge, Body Substance, Sample|C0600083|[bdsu]|"Discharge"-text-8-"discharge"-NN-0,"Discharge"-text-0-"DISCHARGE"-NNP-0|text|2711/9;2976/9||
0162.txt|MMI|1.01|Discharge, body substance|C2926602|[sosy]|"Discharge"-text-8-"discharge"-NN-0,"Discharge"-text-0-"DISCHARGE"-NNP-0|text|2711/9;2976/9||
0162.txt|MMI|1.01|Negative|C0205160|[fndg]|"Negative for"-text-10-"negative for"-JJ-1,"Negative"-text-0-"negative"-JJ-0|text|1152/12;1937/8||
0162.txt|MMI|1.01|Positive|C1446409|[fndg]|"Positive for"-text-16-"positive for"-JJ-0,"Positive for"-text-34-"positive for"-JJ-0|text|926/12;980/12||
0162.txt|MMI|1.01|Right|C0205090|[spco]|"Right"-text-26-"right"-JJ-0,"Right"-text-2-"right"-JJ-0|text|956/5;1715/5||
0162.txt|MMI|1.01|Right sided|C0444532|[spco]|"Right"-text-26-"right"-JJ-0,"Right"-text-2-"right"-JJ-0|text|956/5;1715/5||
0162.txt|MMI|1.01|Specimen Source Codes - Discharge|C1546601|[inpr]|"Discharge"-text-8-"discharge"-NN-0,"Discharge"-text-0-"DISCHARGE"-NNP-0|text|2711/9;2976/9||
0162.txt|MMI|1.01|Structure of left upper lobe of lung|C1261076|[bpoc]|"Left upper lobe"-text-0-"LEFT UPPER LOBE"-NNP-0,"Left upper lobe"-text-40-"left upper lobe"-JJ-0|text|248/15;556/15||
0162.txt|MMI|1.01|Table Cell Horizontal Align - right|C1552823|[ftcn]|"right"-text-26-"right"-JJ-0,"right"-text-2-"right"-JJ-0|text|956/5;1715/5||
0162.txt|MMI|0.98|Alkalies|C0002055|[inch]|"base"-text-4-"base"-NN-0|text|1721/4|D01.045|
0162.txt|MMI|0.98|Heart|C0018787|[bpoc]|"Cardiac"-text-0-"cardiac"-NN-0|text|1755/7|A07.541|
0162.txt|MMI|0.98|Lung|C0024109|[bpoc]|"Lungs"-text-0-"lungs"-NNS-0|text|1671/5|A04.411|
0162.txt|MMI|0.98|Neck|C0027530|[blor]|"Neck"-text-0-"neck"-NN-0|text|1637/4|A01.598|
0162.txt|MMI|0.98|Scleral Diseases|C0036412|[dsyn]|"sclera"-text-0-"Sclera"-NNP-0|text|1582/6|C11.790|
0162.txt|MMI|0.98|Woman|C0043210|[popg]|"Woman"-text-10-"woman"-NN-0|text|479/5|M01.975|
0162.txt|MMI|0.96|Giant Cells|C0017526|[cell]|"Giant Cells"-text-6-"giant cells"-JJ-0|text|1083/11|A11.500|
0162.txt|MMI|0.96|Time|C0040223|[tmco]|"Time"-text-4-"time"-NN-0|text|2703/4|G01.910|
0162.txt|MMI|0.96|Work|C0043227|[ocac]|"Work"-text-0-"WORK"-NN-0|text|3101/4|I03.946|
0162.txt|MMI|0.52|A Proliferation-Inducing Ligand Measurement|C3811652|[lbpr]|"APRIL"-text-0-"April"-NNP-0|text|775/5||
0162.txt|MMI|0.52|ANP32B gene|C1332090|[gngm]|"APRIL"-text-0-"April"-NNP-0|text|775/5||
0162.txt|MMI|0.52|ANP32B wt Allele|C1704953|[gngm]|"APRIL"-text-0-"April"-NNP-0|text|775/5||
0162.txt|MMI|0.52|Abdominopelvic structure|C1508499|[blor]|"Abdomen"-text-0-"Abdomen"-NNP-0|text|1842/7||
0162.txt|MMI|0.52|Accommodation|C1832072|[fndg]|"Accommodation"-text-8-"accommodation"-NN-0|text|1529/13||
0162.txt|MMI|0.52|Act Class - accommodation|C1553447|[idcn]|"accommodation"-text-8-"accommodation"-NN-0|text|1529/13||
0162.txt|MMI|0.52|Act Relationship Subset - previous|C1552607|[tmco]|"previous"-text-2-"previous"-JJ-0|text|716/8||
0162.txt|MMI|0.52|ActInformationPrivacyReason <operations>|C3244305|[ftcn]|"operations"-text-0-"OPERATIONS"-NNPS-0|text|381/10||
0162.txt|MMI|0.52|Admission date:Time Stamp -- Date and Time:Point in time:^Patient:Quantitative|C2598112|[clna]|"Admission date"-text-0-"ADMISSION DATE"-NNP-0|text|127/14||
0162.txt|MMI|0.52|Admitted to|C4482331|[hlca]|"Admitted to"-text-0-"admitted to"-VBN-0|text|2289/11||
0162.txt|MMI|0.52|Adverse event|C0877248|[patf]|"side effects"-text-0-"side effects"-NN-1|text|2783/12||
0162.txt|MMI|0.52|Adverse reaction to drug|C0041755|[patf]|"Adverse Drug Reactions"-text-0-"ADVERSE DRUG REACTIONS"-NNP-0|text|299/22||
0162.txt|MMI|0.52|All|C0444868|[qnco]|"All"-text-6-"all"-DT-0|text|1148/3||
0162.txt|MMI|0.52|All extremities|C0278454|[bpoc]|"extremities"-text-0-"Extremities"-NNS-0|text|1948/11||
0162.txt|MMI|0.52|Anatomic Node|C0746922|[bpoc]|"Node"-text-12-"node"-NN-0|text|921/4||
0162.txt|MMI|0.52|Anatomical base|C2987514|[blor]|"Base"-text-4-"base"-NN-0|text|1721/4||
0162.txt|MMI|0.52|Anemia, CTCAE|C4554633|[fndg]|"Anemia"-text-0-"anemia"-NN-0|text|2687/6||
0162.txt|MMI|0.52|Anicteric|C0205180|[fndg]|"Anicteric"-text-0-"anicteric"-JJ-0|text|1594/9||
0162.txt|MMI|0.52|April|C3715024|[tmco]|"April"-text-0-"April"-NNP-0|text|775/5||
0162.txt|MMI|0.52|Associated with|C0332281|[qlco]|"associated"-text-0-"ASSOCIATED"-NNP-0|text|225/10||
0162.txt|MMI|0.52|BCR gene|C0812385|[gngm]|"ALL"-text-6-"all"-DT-0|text|1148/3||
0162.txt|MMI|0.52|BCR wt Allele|C1704799|[gngm]|"ALL"-text-6-"all"-DT-0|text|1148/3||
0162.txt|MMI|0.52|BPIFA4P gene|C1843354|[gngm]|"BASE"-text-4-"base"-NN-0|text|1721/4||
0162.txt|MMI|0.52|Base|C0178499|[chvf]|"Base"-text-4-"base"-NN-0|text|1721/4||
0162.txt|MMI|0.52|Base - General Qualifier|C1705938|[idcn]|"Base"-text-4-"base"-NN-0|text|1721/4||
0162.txt|MMI|0.52|Base - RX Component Type|C1549548|[idcn]|"Base"-text-4-"base"-NN-0|text|1721/4||
0162.txt|MMI|0.52|Blood urea nitrogen measurement|C0005845|[lbpr]|"BUN"-text-0-"BUN"-NNP-0|text|2230/3||
0162.txt|MMI|0.52|Bothered by Nausea|C4085862|[inpr]|"Nausea"-text-0-"nausea"-NN-0|text|3092/6||
0162.txt|MMI|0.52|CAT scan of head|C0202691|[diap]|"head ct"-text-0-"head CT"-NN-0|text|1109/7||
0162.txt|MMI|0.52|Cancer Genus|C0998265|[euka]|"Cancer"-text-18-"cancer"-NN-0|text|939/6||
0162.txt|MMI|0.52|Cancer:-:Point in time:^Patient:-|C2707253|[clna]|"Cancer"-text-18-"cancer"-NN-0|text|939/6||
0162.txt|MMI|0.52|Cardiac - anatomy qualifier|C1522601|[qlco]|"Cardiac"-text-0-"cardiac"-NN-0|text|1755/7||
0162.txt|MMI|0.52|Clinical infection|C0275521|[dsyn]|"clinical infections"-text-0-"CLINICAL INFECTIONS"-JJ-0|text|331/19||
0162.txt|MMI|0.52|Clubbing|C0149651|[sosy]|"Clubbing"-text-0-"clubbing"-VBG-1|text|1973/8||
0162.txt|MMI|0.52|Computed tomography of entire head|C3853780|[diap]|"Head CT"-text-0-"head CT"-NN-0|text|1109/7||
0162.txt|MMI|0.52|Concept History|C1705255|[cnce]|"History"-text-0-"history"-NN-0|text|676/7||
0162.txt|MMI|0.52|Continuous infusion|C0444889|[topp]|"Continuous infusion"-text-8-"continuous infusion"-JJ-0|text|2396/19||
0162.txt|MMI|0.52|Count|C0750480|[qnco]|"Count"-text-0-"count"-NN-0|text|2104/5||
0162.txt|MMI|0.52|Count Dosing Unit|C1705566|[qnco]|"Count"-text-0-"count"-NN-0|text|2104/5||
0162.txt|MMI|0.52|Course|C0750729|[tmco]|"Course"-text-0-"course"-NN-0|text|1380/6||
0162.txt|MMI|0.52|Creatinine measurement|C0201975|[lbpr]|"Creatinine"-text-0-"creatinine"-CD-0|text|2238/10||
0162.txt|MMI|0.52|Creatinine, CTCAE|C1561535|[fndg]|"Creatinine"-text-0-"creatinine"-CD-0|text|2238/10||
0162.txt|MMI|0.52|Cyanosis, CTCAE|C4553646|[fndg]|"Cyanosis"-text-0-"cyanosis"-NN-1|text|1984/8||
0162.txt|MMI|0.52|Data|C1511726|[idcn]|"Data"-text-0-"DATA"-NNP-0|text|2085/4||
0162.txt|MMI|0.52|Data (eukaryote)|C3714741|[euka]|"Data"-text-0-"DATA"-NNP-0|text|2085/4||
0162.txt|MMI|0.52|Data call receiving device|C3245479|[medd]|"data"-text-0-"DATA"-NNP-0|text|2085/4||
0162.txt|MMI|0.52|Date of admission|C1302393|[tmco]|"Admission date"-text-0-"ADMISSION DATE"-NNP-0|text|127/14||
0162.txt|MMI|0.52|Dental Base|C1880279|[bodm]|"Base"-text-4-"base"-NN-0|text|1721/4||
0162.txt|MMI|0.52|Diagnosis Classification - Diagnosis|C1546899|[clas]|"Diagnosis"-text-0-"DIAGNOSIS"-NNP-0|text|236/9||
0162.txt|MMI|0.52|Diagnosis Code|C1550350|[inpr]|"DIAGNOSIS"-text-0-"DIAGNOSIS"-NNP-0|text|236/9||
0162.txt|MMI|0.52|Diagnosis Study|C1704656|[resa]|"DIAGNOSIS"-text-0-"DIAGNOSIS"-NNP-0|text|236/9||
0162.txt|MMI|0.52|Diagnosis:Impression/interpretation of study:Point in time:^Patient:Nominal|C0945731|[clna]|"Diagnosis"-text-0-"DIAGNOSIS"-NNP-0|text|236/9||
0162.txt|MMI|0.52|Diagnostic Service Section ID - Laboratory|C1571737|[inpr]|"Laboratory"-text-0-"LABORATORY"-NNP-0|text|2074/10||
0162.txt|MMI|0.52|Diagnostic Service Section ID - Radiation Therapy|C1578499|[inpr]|"Radiation Therapy"-text-24-"radiation therapy"-NN-0|text|1325/17||
0162.txt|MMI|0.52|Diagnostic interview schedule|C0451119|[inpr]|"DIS"-text-0-"DIS"-NNPS-0|text|98/3||
0162.txt|MMI|0.52|Disability|C0231170|[fndg]|"Disability"-text-0-"DISABILITY"-NN-0|text|3106/10||
0162.txt|MMI|0.52|Discontinued|C1444662|[fndg]|"DIS"-text-0-"DIS"-NNPS-0|text|98/3||
0162.txt|MMI|0.52|Document completion status - Documented|C1609436|[inpr]|"documented"-text-0-"documented"-VBN-0|text|698/10||
0162.txt|MMI|0.52|Documented|C1301725|[hlca]|"Documented"-text-0-"documented"-VBN-0|text|698/10||
0162.txt|MMI|0.52|Duration|C2926735|[orch, phsu]|"Duration"-text-0-"DURATION"-NN-0|text|3130/8||
0162.txt|MMI|0.52|Duration (temporal concept)|C0449238|[tmco]|"Duration"-text-0-"DURATION"-NN-0|text|3130/8||
0162.txt|MMI|0.52|Duration brand of oxymetazoline|C0720099|[phsu]|"Duration"-text-0-"DURATION"-NN-0|text|3130/8||
0162.txt|MMI|0.52|During|C0347984|[tmco]|"During"-text-0-"during"-IN-0|text|2596/6||
0162.txt|MMI|0.52|During - dosing instruction fragment|C1706551|[inpr]|"During"-text-0-"during"-IN-0|text|2596/6||
0162.txt|MMI|0.52|ERCC2 gene|C1333356|[gngm]|"MAG"-text-0-"Mag"-NNP-0|text|2999/3||
0162.txt|MMI|0.52|ERCC2 wt Allele|C1705972|[gngm]|"MAG"-text-0-"Mag"-NNP-0|text|2999/3||
0162.txt|MMI|0.52|Edema:Finding:Point in time:^Patient:Ordinal|C1717255|[clna]|"Edema"-text-0-"edema"-NN-1|text|1996/5||
0162.txt|MMI|0.52|Entire abdomen|C1281594|[bpoc]|"Abdomen"-text-0-"Abdomen"-NNP-0|text|1842/7||
0162.txt|MMI|0.52|Entire hand|C1281583|[bpoc]|"Hand"-text-8-"hand"-NN-0|text|2067/4||
0162.txt|MMI|0.52|Entire neck|C1281592|[bpoc]|"Neck"-text-0-"neck"-NN-0|text|1637/4||
0162.txt|MMI|0.52|Entire oropharynx|C1280659|[bpoc]|"Oropharynx"-text-0-"oropharynx"-NN-0|text|1610/10||
0162.txt|MMI|0.52|Entire sclera|C1278890|[bpoc]|"Sclera"-text-0-"Sclera"-NNP-0|text|1582/6||
0162.txt|MMI|0.52|Equine laminitis|C0263541|[dsyn]|"Founder"-text-10-"Founder"-NNP-0|text|2325/7||
0162.txt|MMI|0.52|Existential restriction modifier (core metadata concept)|C3540770|[inpr]|"Some"-text-0-"some"-DT-0|text|2675/4||
0162.txt|MMI|0.52|Feel Nausea|C4552889|[inpr]|"Nausea"-text-0-"nausea"-NN-0|text|3092/6||
0162.txt|MMI|0.52|Fluid overload|C0546817|[patf]|"Fluid overload"-text-16-"fluid overload"-JJ-0|text|2645/14||
0162.txt|MMI|0.52|Focal|C0205234|[spco]|"Focal"-text-2-"focal"-JJ-0|text|1077/5||
0162.txt|MMI|0.52|Following|C0332282|[tmco]|"Following"-text-0-"Following"-VBG-0|text|2819/9||
0162.txt|MMI|0.52|From|C1517320|[qlco]|"From"-text-0-"from"-IN-0|text|2842/4||
0162.txt|MMI|0.52|Gender Status - Intact|C1554187|[fndg]|"Intact"-text-20-"intact"-JJ-0|text|1573/6||
0162.txt|MMI|0.52|Genus Anemia|C1000483|[plnt]|"Anemia"-text-0-"anemia"-NN-0|text|2687/6||
0162.txt|MMI|0.52|Graph Node|C2697524|[cnce]|"Node"-text-12-"node"-NN-0|text|921/4||
0162.txt|MMI|0.52|HEENT|C1512338|[blor]|"HEENT"-text-0-"HEENT"-NNP-0|text|1476/5||
0162.txt|MMI|0.52|HL7PublishingSubSection <operations>|C3244306|[inpr]|"operations"-text-0-"OPERATIONS"-NNPS-0|text|381/10||
0162.txt|MMI|0.52|Have Nausea|C2984057|[inpr]|"Nausea"-text-0-"nausea"-NN-0|text|3092/6||
0162.txt|MMI|0.52|Hematocrit level|C0518014|[fndg]|"Hematocrit"-text-12-"hematocrit"-NN-0|text|2725/10||
0162.txt|MMI|0.52|Hematocrit procedure|C0018935|[lbpr]|"Hematocrit"-text-12-"hematocrit"-NN-0|text|2725/10||
0162.txt|MMI|0.52|Hepatosplenomegaly|C0019214|[sosy]|"Hepatosplenomegaly"-text-4-"hepatosplenomegaly"-NN-1|text|1893/18||
0162.txt|MMI|0.52|Historical aspects qualifier|C0019665|[ftcn]|"history"-text-0-"history"-NN-0|text|676/7||
0162.txt|MMI|0.52|History of present illness:Finding:Point in time:^Patient:Nominal:Reported|C0488508|[clna]|"History of Present illness"-text-0-"HISTORY OF PRESENT ILLNESS"-NN-0|text|421/26||
0162.txt|MMI|0.52|History of previous events|C2004062|[fndg]|"History"-text-0-"history"-NN-0|text|676/7||
0162.txt|MMI|0.52|Hospital course|C0489547|[fndg]|"Hospital course"-text-0-"HOSPITAL COURSE"-NNP-0|text|2255/15||
0162.txt|MMI|0.52|Hospital course:Finding:Point in time:^Patient:Narrative|C0488549|[clna]|"Hospital course"-text-0-"HOSPITAL COURSE"-NNP-0|text|2255/15||
0162.txt|MMI|0.52|How Much Distress Nausea|C4085222|[inpr]|"Nausea"-text-0-"nausea"-NN-0|text|3092/6||
0162.txt|MMI|0.52|How Much Nausea During This Period|C3829611|[inpr]|"Nausea"-text-0-"nausea"-NN-0|text|3092/6||
0162.txt|MMI|0.52|How Often Nausea|C4084796|[inpr]|"Nausea"-text-0-"nausea"-NN-0|text|3092/6||
0162.txt|MMI|0.52|Human, Female adult|C4281745|[humn]|"Woman"-text-10-"woman"-NN-0|text|479/5||
0162.txt|MMI|0.52|Hypertension, CTCAE|C1963138|[fndg]|"Hypertension"-text-0-"hypertension"-NN-0|text|2583/12||
0162.txt|MMI|0.52|Hypertensive disease|C0020538|[dsyn]|"Hypertension"-text-0-"hypertension"-NN-0|text|2583/12||
0162.txt|MMI|0.52|In Blood|C0005768|[bdsu]|"blood"-text-0-"blood"-NN-0|text|2098/5||
0162.txt|MMI|0.52|Increase|C0442805|[ftcn]|"Increase"-text-0-"increase"-NN-0|text|2567/8||
0162.txt|MMI|0.52|Intact|C0205266|[qlco]|"Intact"-text-20-"intact"-JJ-0|text|1573/6||
0162.txt|MMI|0.52|Interventional procedure|C0184661|[topp]|"Procedures"-text-0-"PROCEDURES"-NNPS-0|text|366/10||
0162.txt|MMI|0.52|Is a|C1292718|[ftcn]|"Is a"-text-2-"is a"-VBZ-0|text|462/4||
0162.txt|MMI|0.52|Jugular venous engorgement|C0425687|[fndg]|"jvd"-text-0-"JVD"-NNP-1|text|1661/3||
0162.txt|MMI|0.52|KCNMA1 gene|C1416602|[gngm]|"SLO"-text-0-"Slo"-NNP-0|text|2995/3||
0162.txt|MMI|0.52|KCNMA1 wt Allele|C3539661|[gngm]|"SLO"-text-0-"Slo"-NNP-0|text|2995/3||
0162.txt|MMI|0.52|Laboratory domain|C3244292|[ftcn]|"laboratory"-text-0-"LABORATORY"-NNP-0|text|2074/10||
0162.txt|MMI|0.52|Laboratory observation|C4283904|[lbtr]|"Laboratory"-text-0-"LABORATORY"-NNP-0|text|2074/10||
0162.txt|MMI|0.52|Laboratory:-:Point in time:^Patient:-|C2598148|[clna]|"Laboratory"-text-0-"LABORATORY"-NNP-0|text|2074/10||
0162.txt|MMI|0.52|Large cell carcinoma of lung|C0345958|[neop]|"Large Cell Carcinoma of the Lung"-text-8-"LARGE CELL CARCINOMA OF THE LUNG"-NNP-0|text|264/32||
0162.txt|MMI|0.52|Limb structure|C0015385|[bpoc]|"Extremities"-text-0-"Extremities"-NNS-0|text|1948/11||
0162.txt|MMI|0.52|MAG gene|C1416969|[gngm]|"MAG"-text-0-"Mag"-NNP-0|text|2999/3||
0162.txt|MMI|0.52|Magahi Language|C4724763|[lang]|"MAG"-text-0-"Mag"-NNP-0|text|2999/3||
0162.txt|MMI|0.52|Malignant neoplasm of lung|C0242379|[neop]|"Lung Cancer"-text-0-"lung cancer"-NN-0|text|2954/11||
0162.txt|MMI|0.52|Metastatic Neoplasm|C2939420|[neop]|"Metastatic Disease"-text-18-"metastatic disease"-JJ-1|text|1177/18||
0162.txt|MMI|0.52|Methods aspects|C0025664|[ftcn]|"procedures"-text-0-"PROCEDURES"-NNPS-0|text|366/10||
0162.txt|MMI|0.52|Modest Extremity Pain|C4054480|[inpr]|"Modest"-text-0-"modest"-JJ-0|text|2680/6||
0162.txt|MMI|0.52|Nausea Subscale|C4761315|[inpr]|"Nausea"-text-0-"nausea"-NN-0|text|3092/6||
0162.txt|MMI|0.52|Nausea Visual Analogue Scale|C4552888|[inpr]|"Nausea"-text-0-"nausea"-NN-0|text|3092/6||
0162.txt|MMI|0.52|Nausea, CTCAE 3.0|C1963179|[fndg]|"Nausea"-text-0-"nausea"-NN-0|text|3092/6||
0162.txt|MMI|0.52|Nausea, CTCAE 5.0|C4553767|[fndg]|"Nausea"-text-0-"nausea"-NN-0|text|3092/6||
0162.txt|MMI|0.52|Nausea:Presence or Threshold:Point in time:^Patient:Ordinal|C4255480|[clna]|"Nausea"-text-0-"nausea"-NN-0|text|3092/6||
0162.txt|MMI|0.52|Neck of pancreas|C0447556|[blor]|"Neck"-text-0-"neck"-NN-0|text|1637/4||
0162.txt|MMI|0.52|Neck of urinary bladder|C0227716|[bpoc]|"Neck"-text-0-"neck"-NN-0|text|1637/4||
0162.txt|MMI|0.52|Neurologic (qualifier value)|C0205494|[qlco]|"Neurologic"-text-0-"Neurologic"-NNP-0|text|2004/10||
0162.txt|MMI|0.52|Node - plant part|C2700445|[plnt]|"Node"-text-12-"node"-NN-0|text|921/4||
0162.txt|MMI|0.52|Non-tender|C0520960|[qlco]|"Nontender"-text-0-"nontender"-JJ-0|text|1863/9||
0162.txt|MMI|0.52|Note (document)|C1317574|[inpr]|"notes"-text-4-"notes"-NNS-0|text|725/5||
0162.txt|MMI|0.52|Now (cigarettes)|C4760243|[mnob]|"Now"-text-0-"now"-RB-0|text|1352/3||
0162.txt|MMI|0.52|Now (temporal qualifier)|C1948052|[tmco]|"Now"-text-0-"now"-RB-0|text|1352/3||
0162.txt|MMI|0.52|Now - dosing instruction fragment|C1720566|[inpr]|"Now"-text-0-"now"-RB-0|text|1352/3||
0162.txt|MMI|0.52|Old|C0580836|[tmco]|"Old"-text-8-"old"-JJ-0|text|475/3||
0162.txt|MMI|0.52|Old episode|C0677546|[tmco]|"Old"-text-8-"old"-JJ-0|text|475/3||
0162.txt|MMI|0.52|Oncology Service|C1555459|[hlca]|"Oncology Service"-text-6-"Oncology Service"-NNP-0|text|2305/16||
0162.txt|MMI|0.52|Oropharyngeal|C0521367|[blor]|"Oropharynx"-text-0-"oropharynx"-NN-0|text|1610/10||
0162.txt|MMI|0.52|Overall Publication Type|C0282416|[inpr]|"Overall"-text-0-"Overall"-RB-0|text|2747/7||
0162.txt|MMI|0.52|Paratracheal lymph node group|C0229754|[bpoc]|"Paratracheal node"-text-30-"paratracheal node"-NN-0|text|962/17||
0162.txt|MMI|0.52|Past history of|C0332119|[fndg]|"History of"-text-18-"history of"-NN-0|text|492/10||
0162.txt|MMI|0.52|Pathological aspects|C0205469|[ftcn]|"pathology"-text-0-"pathology"-NN-0|text|1014/9||
0162.txt|MMI|0.52|Pathology procedure|C0919386|[lbpr]|"Pathology"-text-0-"pathology"-NN-0|text|1014/9||
0162.txt|MMI|0.52|Pathology processes|C0677042|[patf]|"pathology"-text-0-"pathology"-NN-0|text|1014/9||
0162.txt|MMI|0.52|Physical Exam Domain|C1744699|[inpr]|"Physical Examination"-text-0-"PHYSICAL EXAMINATION"-NNP-0|text|1405/20||
0162.txt|MMI|0.52|Precision - year|C1561544|[idcn]|"year"-text-6-"year"-NN-0|text|470/4||
0162.txt|MMI|0.52|Preoperative|C0445204|[tmco]|"Preoperative"-text-0-"preoperative"-JJ-0|text|1232/12||
0162.txt|MMI|0.52|Previous|C0205156|[tmco]|"Previous"-text-2-"previous"-JJ-0|text|716/8||
0162.txt|MMI|0.52|Primary malignant neoplasm|C1306459|[neop]|"Cancer"-text-18-"cancer"-NN-0|text|939/6||
0162.txt|MMI|0.52|Primary malignant neoplasm of lung|C1306460|[neop]|"Lung cancer"-text-0-"lung cancer"-NN-0|text|2954/11||
0162.txt|MMI|0.52|Probably|C0750492|[idcn]|"Likely"-text-8-"likely"-JJ-0|text|2625/6||
0162.txt|MMI|0.52|Procedure (set of actions)|C2700391|[ftcn]|"Procedures"-text-0-"PROCEDURES"-NNPS-0|text|366/10||
0162.txt|MMI|0.52|Procedure Code|C1550373|[inpr]|"PROCEDURES"-text-0-"PROCEDURES"-NNPS-0|text|366/10||
0162.txt|MMI|0.52|Procedure Domain|C3538935|[inpr]|"Procedures"-text-0-"PROCEDURES"-NNPS-0|text|366/10||
0162.txt|MMI|0.52|Receive|C1514756|[qlco]|"RECEIVED"-text-0-"received"-VBD-0|text|2347/8||
0162.txt|MMI|0.52|Recovery - action|C0237820|[acty]|"Recovery"-text-0-"recovery"-NN-0|text|2833/8||
0162.txt|MMI|0.52|Recovery - healing process|C2004454|[orgf]|"Recovery"-text-0-"recovery"-NN-0|text|2833/8||
0162.txt|MMI|0.52|Rectal (intended site)|C4521903|[fndg]|"Rectal"-text-0-"Rectal"-NNP-0|text|1914/6||
0162.txt|MMI|0.52|Rectal Dosage Form|C1272938|[bodm]|"Rectal"-text-0-"Rectal"-NNP-0|text|1914/6||
0162.txt|MMI|0.52|Rectal Route of Drug Administration|C1527425|[ftcn]|"Rectal"-text-0-"Rectal"-NNP-0|text|1914/6||
0162.txt|MMI|0.52|Referral type - Laboratory|C1548427|[inpr]|"Laboratory"-text-0-"LABORATORY"-NNP-0|text|2074/10||
0162.txt|MMI|0.52|Report status (finding)|C0586177|[fndg]|"Report status"-text-0-"Report Status"-NNP-0|text|102/13||
0162.txt|MMI|0.52|Report status:Type:Point in time:Report:Nominal|C4760061|[clna]|"Report status"-text-0-"Report Status"-NNP-0|text|102/13||
0162.txt|MMI|0.52|Rhythm|C0871269|[fndg]|"Rhythm"-text-2-"rhythm"-NN-0|text|1794/6||
0162.txt|MMI|0.52|Round Nodule|C4761390|[fndg]|"Round"-text-0-"round"-RB-0|text|1499/5||
0162.txt|MMI|0.52|Round shape|C0332490|[spco]|"Round"-text-0-"round"-RB-0|text|1499/5||
0162.txt|MMI|0.52|SHORT STATURE, ONYCHODYSPLASIA, FACIAL DYSMORPHISM, AND HYPOTRICHOSIS SYNDROME|C3542022|[dsyn]|"SOFT"-text-0-"soft"-JJ-0|text|1854/4||
0162.txt|MMI|0.52|Scientific Study|C0947630|[lbpr]|"studies"-text-2-"studies"-NNS-0|text|1135/7||
0162.txt|MMI|0.52|Secondary Neoplasm|C2939419|[neop]|"Metastatic disease"-text-18-"metastatic disease"-JJ-1|text|1177/18||
0162.txt|MMI|0.52|Simultaneous|C0521115|[tmco]|"Concomitant"-text-20-"concomitant"-JJ-0|text|1313/11||
0162.txt|MMI|0.52|Soft|C0205358|[qlco]|"Soft"-text-0-"soft"-JJ-0|text|1854/4||
0162.txt|MMI|0.52|Some (qualifier value)|C0205392|[qnco]|"Some"-text-0-"some"-DT-0|text|2675/4||
0162.txt|MMI|0.52|Specialty Type - cancer|C1547140|[bmod]|"Cancer"-text-18-"cancer"-NN-0|text|939/6||
0162.txt|MMI|0.52|Status post|C0231290|[tmco]|"Following"-text-0-"Following"-VBG-0|text|2819/9||
0162.txt|MMI|0.52|Structure of base of prostate|C0227958|[bpoc]|"Base"-text-4-"base"-NN-0|text|1721/4||
0162.txt|MMI|0.52|Structure of upper lobe of lung|C0225756|[bpoc]|"Upper Lobe of the Lung"-text-46-"upper lobe of the lung"-JJ-0|text|561/22||
0162.txt|MMI|0.52|Supernumerary|C1883702|[qnco]|"Extra"-text-12-"extra"-JJ-0|text|1545/5||
0162.txt|MMI|0.52|Supple|C0332254|[ftcn]|"Supple"-text-0-"supple"-NN-0|text|1646/6||
0162.txt|MMI|0.52|Surgical aspects|C0038895|[ftcn]|"operations"-text-0-"OPERATIONS"-NNPS-0|text|381/10||
0162.txt|MMI|0.52|TNFSF13 gene|C1420815|[gngm]|"APRIL"-text-0-"April"-NNP-0|text|775/5||
0162.txt|MMI|0.52|TNFSF13 wt Allele|C3715025|[gngm]|"APRIL"-text-0-"April"-NNP-0|text|775/5||
0162.txt|MMI|0.52|TUBE,RECTAL,24FR,PLASTIC B#6510|C2746628|[medd]|"RECTAL"-text-0-"Rectal"-NNP-0|text|1914/6||
0162.txt|MMI|0.52|Tablet Dosage Form|C0039225|[bodm]|"tab"-text-0-"tab"-NN-0|text|3007/3||
0162.txt|MMI|0.52|Tablet Dosing Unit|C1705223|[qnco]|"tab"-text-0-"tab"-NN-0|text|3007/3||
0162.txt|MMI|0.52|Therapeutic procedure|C0087111|[topp]|"Therapy"-text-6-"therapy"-NN-0|text|1395/7||
0162.txt|MMI|0.52|Therapeutic radiology procedure|C1522449|[topp]|"Radiation Therapy"-text-24-"radiation therapy"-NN-0|text|1325/17||
0162.txt|MMI|0.52|Therapy Object (animal model)|C1363945|[fndg]|"Therapy"-text-6-"therapy"-NN-0|text|1395/7||
0162.txt|MMI|0.52|This (eukaryote)|C1080058|[euka]|"This"-text-2-"this"-DT-0|text|2799/4||
0162.txt|MMI|0.52|Tracheobronchial|C0450123|[spco]|"Tracheobronchial"-text-8-"tracheobronchial"-JJ-0|text|898/16||
0162.txt|MMI|0.52|Transaction counts and value totals - year|C1561543|[inpr]|"year"-text-6-"year"-NN-0|text|470/4||
0162.txt|MMI|0.52|Treated with|C0332293|[topp]|"Treated with"-text-0-"treated with"-VBN-0|text|1219/12||
0162.txt|MMI|0.52|Treating|C1522326|[ftcn]|"treated with"-text-0-"treated with"-VBN-0|text|1219/12||
0162.txt|MMI|0.52|Tree Node|C1706163|[cnce]|"Node"-text-12-"node"-NN-0|text|921/4||
0162.txt|MMI|0.52|Unit dose - Base|C1626935|[qnco]|"Base"-text-4-"base"-NN-0|text|1721/4||
0162.txt|MMI|0.52|Universal restriction modifier (core metadata concept)|C3539085|[idcn]|"All"-text-6-"all"-DT-0|text|1148/3||
0162.txt|MMI|0.52|Unresectable|C1519810|[clna]|"Unresectable"-text-0-"unresectable"-JJ-0|text|853/12||
0162.txt|MMI|0.52|Use of|C1524063|[ftcn]|"Using"-text-4-"using"-VBG-0|text|1270/5||
0162.txt|MMI|0.52|Usual Severity Nausea|C4085661|[inpr]|"Nausea"-text-0-"nausea"-NN-0|text|3092/6||
0162.txt|MMI|0.52|Visual Accommodation|C0000936|[ortf]|"Accommodation"-text-8-"accommodation"-NN-0|text|1529/13||
0162.txt|MMI|0.52|WHO Temperature/Humidity Storage Condition|C3272598|[qlco]|"WHO"-text-48-"who"-WP-0|text|584/3||
0162.txt|MMI|0.52|With staging|C0332305|[ftcn]|"Staging"-text-0-"staging"-NN-0|text|1127/7||
0162.txt|MMI|0.52|all - LocalMarkupIgnore|C1552816|[inpr]|"all"-text-6-"all"-DT-0|text|1148/3||
0162.txt|MMI|0.52|all - TableRules|C1552837|[idcn]|"all"-text-6-"all"-DT-0|text|1148/3||
0162.txt|MMI|0.52|aspects of adverse effects|C0001688|[ftcn]|"side effects"-text-0-"side effects"-NN-1|text|2783/12||
0162.txt|MMI|0.52|base - RoleClass|C1550601|[chvf]|"base"-text-4-"base"-NN-0|text|1721/4||
0162.txt|MMI|0.52|dendritic spine neck|C3159206|[celc]|"neck"-text-0-"neck"-NN-0|text|1637/4||
0162.txt|MMI|0.52|diagnosis aspect|C1704338|[ftcn]|"diagnosis"-text-0-"DIAGNOSIS"-NNP-0|text|236/9||
0162.txt|MMI|0.52|follow-up|C1522577|[hlca]|"Followup"-text-0-"Followup"-NN-0|text|3152/8||
0162.txt|MMI|0.52|hand - unit of measure|C1552914|[qnco]|"hand"-text-8-"hand"-NN-0|text|2067/4||
0162.txt|MMI|0.52|nitrogenous base|C1704464|[nnon]|"Base"-text-4-"base"-NN-0|text|1721/4||
0162.txt|MMI|0.52|orders - HL7PublishingDomain|C3244315|[inpr]|"orders"-text-0-"ORDERS"-NNS-0|text|2986/6||
0162.txt|MMI|0.52|peripheral blood|C0229664|[bdsu]|"Blood"-text-0-"blood"-NN-0|text|2098/5||
0162.txt|MMI|0.52|radiotherapeutic|C0034619|[inpr]|"radiation therapy"-text-24-"radiation therapy"-NN-0|text|1325/17||
0162.txt|MMI|0.52|recovery - adjustment|C1555688|[qnco]|"recovery"-text-0-"recovery"-NN-0|text|2833/8||
0162.txt|MMI|0.52|rectal|C0205052|[spco]|"rectal"-text-0-"Rectal"-NNP-0|text|1914/6||
0162.txt|MMI|0.52|rhythmic process (biological)|C1523018|[phsf]|"rhythm"-text-2-"rhythm"-NN-0|text|1794/6||
0162.txt|MMI|0.52|therapeutic aspects|C0039798|[ftcn]|"therapy"-text-6-"therapy"-NN-0|text|1395/7||
0162.txt|MMI|0.52|year|C0439234|[tmco]|"year"-text-6-"year"-NN-0|text|470/4||
0162.txt|MMI|0.50|1 (finding)|C5201140|[fndg]|"One"-text-0-"one"-CD-0|text|3003/3||
0162.txt|MMI|0.50|72 Hours|C1292423|[tmco]|"72 hour"-text-4-"72 hour"-CD-0|text|2388/7||
0162.txt|MMI|0.50|Amount type - Rate|C1549480|[idcn]|"Rate"-text-0-"rate"-NN-0|text|1785/4||
0162.txt|MMI|0.50|Angular|C0205143|[spco]|"Angle"-text-10-"angle"-NN-0|text|915/5||
0162.txt|MMI|0.50|Caucasians|C0043157|[popg]|"White"-text-0-"white"-JJ-0|text|2092/5||
0162.txt|MMI|0.50|Complete|C0205197|[qlco]|"Complete"-text-0-"COMPLETE"-NNP-0|text|3141/8||
0162.txt|MMI|0.50|Complete Pharyngeal Contraction|C4283785|[fndg]|"Complete"-text-0-"COMPLETE"-NNP-0|text|3141/8||
0162.txt|MMI|0.50|Completion Status for valid values - Complete|C1548561|[idcn]|"Complete"-text-0-"COMPLETE"-NNP-0|text|3141/8||
0162.txt|MMI|0.50|Data operation - complete|C3853530|[ftcn]|"complete"-text-0-"COMPLETE"-NNP-0|text|3141/8||
0162.txt|MMI|0.50|Data types - Time|C1547403|[idcn]|"Time"-text-4-"time"-NN-0|text|2703/4||
0162.txt|MMI|0.50|Day 3|C3842675|[fndg]|"Day 3"-text-30-"day 3"-NN-0|text|2451/5||
0162.txt|MMI|0.50|Decreased breath sounds|C0238844|[fndg]|"Decreased breath sounds"-text-0-"decreased breath sounds"-VBN-0|text|1684/23||
0162.txt|MMI|0.50|Discharge date|C2361123|[tmco]|"Discharge date"-text-12-"DISCHARGE DATE"-NN-0|text|152/14||
0162.txt|MMI|0.50|Discharge date:Time Stamp -- Date and Time:Point in time:^Patient:Quantitative|C2361122|[clna]|"Discharge date"-text-12-"DISCHARGE DATE"-NN-0|text|152/14||
0162.txt|MMI|0.50|Entire right upper arm|C1268255|[bpoc]|"Right arm"-text-4-"right arm"-JJ-0|text|2053/9||
0162.txt|MMI|0.50|Evidence of (contextual qualifier)|C0332120|[ftcn]|"Evidence of"-text-14-"evidence of"-NN-0|text|1165/11||
0162.txt|MMI|0.50|Excision|C0728940|[topp]|"Surgical Resection"-text-8-"surgical resection"-JJ-0|text|2882/18||
0162.txt|MMI|0.50|Finish - dosing instruction imperative|C1706059|[ftcn]|"Complete"-text-0-"COMPLETE"-NNP-0|text|3141/8||
0162.txt|MMI|0.50|Left|C0205091|[spco]|"Left"-text-6-"left"-JJ-0|text|893/4||
0162.txt|MMI|0.50|Left sided|C0443246|[spco]|"Left"-text-6-"left"-JJ-0|text|893/4||
0162.txt|MMI|0.50|Mixed (qualifier value)|C0205430|[ftcn]|"Mixed"-text-20-"mixed"-JJ-0|text|503/5||
0162.txt|MMI|0.50|Mixed Cell Morphology|C3160715|[fndg]|"Mixed"-text-20-"mixed"-JJ-0|text|503/5||
0162.txt|MMI|0.50|Morphology within normal limits|C1265570|[fndg]|"Within Normal Limits"-text-0-"within normal limits"-IN-0|text|2207/20||
0162.txt|MMI|0.50|Nausea and vomiting|C0027498|[sosy]|"Nausea and vomiting"-text-4-"nausea and vomiting"-NN-0|text|2532/19||
0162.txt|MMI|0.50|Negative - answer|C3853545|[qlco]|"Negative"-text-0-"negative"-JJ-0|text|1937/8||
0162.txt|MMI|0.50|Negative Charge|C2825491|[qlco]|"Negative"-text-0-"negative"-JJ-0|text|1937/8||
0162.txt|MMI|0.50|Negative Finding|C1513916|[fndg]|"Negative"-text-0-"negative"-JJ-0|text|1937/8||
0162.txt|MMI|0.50|Negative Number|C2825415|[cnce]|"Negative"-text-0-"negative"-JJ-0|text|1937/8||
0162.txt|MMI|0.50|Normal limits|C0442816|[fndg]|"within normal limits"-text-0-"within normal limits"-IN-0|text|2207/20||
0162.txt|MMI|0.50|Ocular (intended site)|C4521296|[fndg]|"Ocular"-text-14-"ocular"-JJ-0|text|1551/6||
0162.txt|MMI|0.50|Ocular (qualifier)|C1299003|[ftcn]|"Ocular"-text-14-"ocular"-JJ-0|text|1551/6||
0162.txt|MMI|0.50|One|C0205447|[qnco]|"One"-text-0-"one"-CD-0|text|3003/3||
0162.txt|MMI|0.50|Orbital region|C0700042|[blor]|"Ocular"-text-14-"ocular"-JJ-0|text|1551/6||
0162.txt|MMI|0.50|Poorly differentiated|C0205617|[qlco]|"Poorly differentiated"-text-0-"poorly differentiated"-RB-0|text|1035/21||
0162.txt|MMI|0.50|Precision - second|C1561503|[idcn]|"second"-text-0-"second"-JJ-0|text|1373/6||
0162.txt|MMI|0.50|Principal Diagnosis:-:Point in time:^Patient:-|C2598194|[clna]|"Principal Diagnosis"-text-24-"PRINCIPAL DIAGNOSIS"-NNP-0|text|176/19||
0162.txt|MMI|0.50|Principal diagnosis|C0332137|[qlco]|"Principal diagnosis"-text-24-"PRINCIPAL DIAGNOSIS"-NNP-0|text|176/19||
0162.txt|MMI|0.50|Pupils equal|C0578617|[fndg]|"Pupils equal"-text-0-"pupils equal"-NNS-0|text|1484/12||
0162.txt|MMI|0.50|Radioisotope scan of bone|C0203668|[diap]|"Bone scan"-text-0-"Bone scan"-NNP-0|text|1097/9||
0162.txt|MMI|0.50|Rate|C1521828|[qnco]|"Rate"-text-0-"rate"-NN-0|text|1785/4||
0162.txt|MMI|0.50|Rating (action)|C0871208|[acty]|"Rate"-text-0-"rate"-NN-0|text|1785/4||
0162.txt|MMI|0.50|Reactive to light|C4068744|[fndg]|"Reactive to light"-text-4-"reactive to light"-NN-0|text|1507/17||
0162.txt|MMI|0.50|Regular|C0205272|[qlco]|"Regular"-text-0-"regular"-JJ-0|text|1777/7||
0162.txt|MMI|0.50|Right arm|C4048756|[bpoc]|"Right arm"-text-4-"right arm"-JJ-0|text|2053/9||
0162.txt|MMI|0.50|Right upper arm structure|C0230346|[bpoc]|"Right arm"-text-4-"right arm"-JJ-0|text|2053/9||
0162.txt|MMI|0.50|SYSTOLIC EJECTION MURMUR|C0694547|[fndg]|"SYSTOLIC EJECTION MURMUR"-text-18-"systolic ejection murmur"-JJ-0|text|1815/24||
0162.txt|MMI|0.50|Second Suffix|C1705190|[qlco]|"Second"-text-0-"second"-JJ-0|text|1373/6||
0162.txt|MMI|0.50|Second Unit of Plane Angle|C2348168|[qnco]|"Second"-text-0-"second"-JJ-0|text|1373/6||
0162.txt|MMI|0.50|Secondary to|C0175668|[qlco]|"Secondary to"-text-12-"secondary to"-JJ-0|text|2632/12||
0162.txt|MMI|0.50|Special|C0205555|[qlco]|"Special"-text-0-"SPECIAL"-NNP-0|text|358/7||
0162.txt|MMI|0.50|Table Cell Horizontal Align - left|C1552822|[ftcn]|"left"-text-6-"left"-JJ-0|text|893/4||
0162.txt|MMI|0.50|Time (foundation metadata concept)|C3541383|[tmco]|"Time"-text-4-"time"-NN-0|text|2703/4||
0162.txt|MMI|0.50|Value type - Time|C1548318|[idcn]|"Time"-text-4-"time"-NN-0|text|2703/4||
0162.txt|MMI|0.50|White color|C0220938|[qlco]|"White"-text-0-"white"-JJ-0|text|2092/5||
0162.txt|MMI|0.50|discharge diagnosis|C1555319|[fndg]|"discharge diagnosis"-text-0-"DISCHARGE DIAGNOSIS"-NN-0|text|2903/19||
0162.txt|MMI|0.50|metastatic qualifier|C1522484|[ftcn]|"SECOND"-text-0-"second"-JJ-0|text|1373/6||
0162.txt|MMI|0.50|removal technique|C0015252|[topp]|"Surgical Resection"-text-8-"surgical resection"-JJ-0|text|2882/18||
0162.txt|MMI|0.50|second (number)|C0205436|[qnco]|"Second"-text-0-"second"-JJ-0|text|1373/6||
0162.txt|MMI|0.50|seconds|C0457385|[tmco]|"Second"-text-0-"second"-JJ-0|text|1373/6||
