0170.txt|MMI|64.71|Wiskott-Aldrich Syndrome|C0043194|[dsyn]|"WAS"-text-50-"was"-VBD-0,"WAS"-text-0-"was"-VBD-0,"WAS"-text-0-"was"-VBD-0,"WAS"-text-0-"was"-VBD-0|text|165/3;207/3;363/3;505/3|C20.673.627.900;C15.378.553.546.605.900;C16.320.798.875;C20.673.795.875;C16.320.322.937;C15.378.463.960;C16.320.099.970;C15.378.100.100.970|
0170.txt|MMI|22.18|Patient Discharge|C0030685|[hlca]|"Discharge"-text-56-"discharge"-NN-0,"Discharge"-text-0-"discharge"-NN-0|text|183/9;391/9|N04.590.233.727.210.125;E02.760.169.125;N02.421.585.169.125;E02.760.400.610;N02.421.585.400.610|
0170.txt|MMI|7.62|WAS protein, human|C1565156|[bacs, aapp]|"WAS"-text-50-"was"-VBD-0,"WAS"-text-0-"was"-VBD-0,"WAS"-text-0-"was"-VBD-0,"WAS"-text-0-"was"-VBD-0|text|165/3;207/3;363/3;505/3|x.x.x.x|
0170.txt|MMI|5.59|Melena|C0025222|[patf]|"Melena"-text-15-"MELENA"-NNP-0|text|611/6|C23.550.414.788.600;A12.459.764;C06.405.227.600|
0170.txt|MMI|3.81|Operating Room|C0029064|[mnob, hcro]|"Operating Room"-text-18-"operating room"-NN-0,"Operating Room"-text-10-"operating room"-NN-0|text|435/14;527/14|N02.278.388.700|
0170.txt|MMI|2.89|Back|C0004600|[blor]|"Back"-text-10-"back"-RB-0,"Back"-text-2-"back"-RB-0|text|423/4;515/4|A01.923.176|
0170.txt|MMI|2.09|WAS gene|C1421478|[gngm]|"WAS"-text-50-"was"-VBD-0,"WAS"-text-0-"was"-VBD-0,"WAS"-text-0-"was"-VBD-0,"WAS"-text-0-"was"-VBD-0|text|165/3;207/3;363/3;505/3||
0170.txt|MMI|2.09|Washoe language|C1555640|[lang]|"WAS"-text-50-"was"-VBD-0,"WAS"-text-0-"was"-VBD-0,"WAS"-text-0-"was"-VBD-0,"WAS"-text-0-"was"-VBD-0|text|165/3;207/3;363/3;505/3||
0170.txt|MMI|1.90|Deafness, Sensorineural, And Male Infertility|C1970187|[dsyn]|"DIS"-text-12-"DIS"-NNPS-0|text|70/3|x.x.x.x|
0170.txt|MMI|1.90|HAC protocol|C0062074|[topp]|"HAD"-text-4-"had"-VBD-0|text|237/3|x.x.x.x|
0170.txt|MMI|1.90|Knee|C0022742|[bpoc]|"knees"-text-22-"knees"-NNS-0|text|281/5|A01.378.610.450|
0170.txt|MMI|1.90|MCC protocol|C0065772|[topp]|"CMC"-text-0-"CMC"-NNP-0|text|10/3|x.x.x.x|
0170.txt|MMI|1.57|Herero language|C0574443|[lang]|"HER"-text-20-"her"-PRP$-0,"HER"-text-0-"her"-PRP$-0,"HER"-text-8-"her"-PRP-0|text|277/3;387/3;419/3||
0170.txt|MMI|1.44|Andorra|C0002838|[geoa]|"AND"-text-4-"and"-CC-0|text|410/3|Z01.542.049|
0170.txt|MMI|1.44|Disease|C0012634|[dsyn]|"DIS"-text-12-"DIS"-NNPS-0|text|70/3|C23.550.288|
0170.txt|MMI|1.05|Back structure, excluding neck|C1995000|[blor]|"Back"-text-10-"back"-RB-0,"Back"-text-2-"back"-RB-0|text|423/4;515/4||
0170.txt|MMI|1.05|Back structure, including back of neck|C0460009|[blor]|"Back"-text-10-"back"-RB-0,"Back"-text-2-"back"-RB-0|text|423/4;515/4||
0170.txt|MMI|1.05|Dorsal|C0205095|[spco]|"Back"-text-10-"back"-RB-0,"Back"-text-2-"back"-RB-0|text|423/4;515/4||
0170.txt|MMI|1.05|Entire back (surface region)|C1281593|[blor]|"Back"-text-10-"back"-RB-0,"Back"-text-2-"back"-RB-0|text|423/4;515/4||
0170.txt|MMI|1.05|Facilitated oscillatory release technique|C1562169|[topp]|"FOR"-text-54-"for"-IN-0,"FOR"-text-20-"for"-IN-0|text|179/3;450/3||
0170.txt|MMI|1.05|In addition to|C0332287|[ftcn]|"With"-text-24-"with"-IN-0,"With"-text-36-"with"-IN-0|text|287/4;328/4||
0170.txt|MMI|1.05|Patient location type - Operating Room|C1578465|[spco]|"Operating Room"-text-18-"operating room"-NN-0,"Operating Room"-text-10-"operating room"-NN-0|text|435/14;527/14||
0170.txt|MMI|1.05|Preposition For|C0521125|[qlco]|"For"-text-54-"for"-IN-0,"For"-text-20-"for"-IN-0|text|179/3;450/3||
0170.txt|MMI|1.05|Rehabilitation therapy|C0034991|[topp]|"Rehab"-text-60-"rehab"-VB-0,"Rehab"-text-2-"rehab"-VB-0|text|196/5;404/5||
0170.txt|MMI|1.05|SHE gene|C1822717|[gngm]|"SHE"-text-2-"she"-PRP-0,"SHE"-text-0-"she"-PRP-0|text|233/3;501/3||
0170.txt|MMI|1.05|She Chinese|C4761447|[popg]|"SHE"-text-2-"she"-PRP-0,"SHE"-text-0-"she"-PRP-0|text|233/3;501/3||
0170.txt|MMI|1.05|Signature|C1519316|[inpr]|"Signed"-text-10-"Signed"-NNP-0,"Signed"-text-32-"Signed"-VBN-0|text|63/6;118/6||
0170.txt|MMI|1.05|WWOX gene|C1421525|[gngm]|"FOR"-text-54-"for"-IN-0,"FOR"-text-20-"for"-IN-0|text|179/3;450/3||
0170.txt|MMI|1.05|WWOX wt Allele|C4321252|[gngm]|"FOR"-text-54-"for"-IN-0,"FOR"-text-20-"for"-IN-0|text|179/3;450/3||
0170.txt|MMI|1.05|With - dosing instruction fragment|C1705690|[inpr]|"With"-text-24-"with"-IN-0,"With"-text-36-"with"-IN-0|text|287/4;328/4||
0170.txt|MMI|1.05|signed - ParticipationSignature|C1561610|[inpr]|"signed"-text-10-"Signed"-NNP-0,"signed"-text-32-"Signed"-VBN-0|text|63/6;118/6||
0170.txt|MMI|1.01|Body Fluid Discharge|C0012621|[bdsu]|"Discharge"-text-56-"discharge"-NN-0,"Discharge"-text-0-"discharge"-NN-0|text|183/9;391/9||
0170.txt|MMI|1.01|Discharge, Body Substance, Sample|C0600083|[bdsu]|"Discharge"-text-56-"discharge"-NN-0,"Discharge"-text-0-"discharge"-NN-0|text|183/9;391/9||
0170.txt|MMI|1.01|Discharge, body substance|C2926602|[sosy]|"Discharge"-text-56-"discharge"-NN-0,"Discharge"-text-0-"discharge"-NN-0|text|183/9;391/9||
0170.txt|MMI|1.01|Specimen Source Codes - Discharge|C1546601|[inpr]|"Discharge"-text-56-"discharge"-NN-0,"Discharge"-text-0-"discharge"-NN-0|text|183/9;391/9||
0170.txt|MMI|0.98|Index|C0918012|[inpr]|"Index"-text-36-"Index"-NNP-0|text|652/5|V02.550|
0170.txt|MMI|0.98|Indexes|C0600653|[inpr]|"Index"-text-36-"Index"-NNP-0|text|652/5|V02.550|
0170.txt|MMI|0.98|Patients|C0030705|[podg]|"Patient"-text-48-"patient"-NN-0|text|157/7|M01.643|
0170.txt|MMI|0.52|Academic degree|C0542560|[inpr]|"degrees"-text-34-"degrees"-NNS-0|text|320/7||
0170.txt|MMI|0.52|Act Relationship Subset - maximum|C1552615|[qnco]|"maximum"-text-38-"maximum"-NN-0|text|333/7||
0170.txt|MMI|0.52|Admission date:Time Stamp -- Date and Time:Point in time:^Patient:Quantitative|C2598112|[clna]|"Admission date"-text-16-"Admission Date"-NNP-0|text|74/14||
0170.txt|MMI|0.52|And|C1515981|[idcn]|"And"-text-4-"and"-CC-0|text|410/3||
0170.txt|MMI|0.52|And - dosing instruction fragment|C1706368|[inpr]|"And"-text-4-"and"-CC-0|text|410/3||
0170.txt|MMI|0.52|Approximate|C0332232|[qlco]|"Approximately"-text-30-"approximately"-RB-0|text|303/13||
0170.txt|MMI|0.52|Attending (action)|C1999232|[ftcn]|"attending"-text-6-"Attending"-NNP-0|text|583/9||
0170.txt|MMI|0.52|Attending (provider role)|C1547429|[prog]|"Attending"-text-6-"Attending"-NNP-0|text|583/9||
0170.txt|MMI|0.52|Bilateral|C0238767|[spco]|"Both"-text-18-"both"-DT-0|text|272/4||
0170.txt|MMI|0.52|Both|C1706086|[qlco]|"Both"-text-18-"both"-DT-0|text|272/4||
0170.txt|MMI|0.52|Capillary malformation (disorder)|C0340803|[cgab]|"CMC"-text-0-"CMC"-NNP-0|text|10/3||
0170.txt|MMI|0.52|Circulating Melanoma Cell|C3890599|[cell]|"CMC"-text-0-"CMC"-NNP-0|text|10/3||
0170.txt|MMI|0.52|Cleveland Multiport Catheter|C5203029|[medd]|"CMC"-text-0-"CMC"-NNP-0|text|10/3||
0170.txt|MMI|0.52|Date of admission|C1302393|[tmco]|"Admission date"-text-16-"Admission Date"-NNP-0|text|74/14||
0170.txt|MMI|0.52|Degree or extent|C0449286|[qnco]|"degrees"-text-34-"degrees"-NNS-0|text|320/7||
0170.txt|MMI|0.52|Diagnostic Service Section ID - Physical Therapy|C1547999|[inpr]|"Physical Therapy"-text-42-"physical therapy"-JJ-0|text|341/16||
0170.txt|MMI|0.52|Diagnostic interview schedule|C0451119|[inpr]|"DIS"-text-12-"DIS"-NNPS-0|text|70/3||
0170.txt|MMI|0.52|Disabled Person Code - Patient|C1578486|[inpr]|"Patient"-text-48-"patient"-NN-0|text|157/7||
0170.txt|MMI|0.52|Discontinued|C1444662|[fndg]|"DIS"-text-12-"DIS"-NNPS-0|text|70/3||
0170.txt|MMI|0.52|Flexion, function|C0231452|[ortf]|"Flexion"-text-26-"flexion"-NN-0|text|292/7||
0170.txt|MMI|0.52|HADH gene|C1415458|[gngm]|"HAD"-text-4-"had"-VBD-0|text|237/3||
0170.txt|MMI|0.52|Have|C3539897|[qlco]|"Had"-text-4-"had"-VBD-0|text|237/3||
0170.txt|MMI|0.52|Html Link Type - index|C1552854|[idcn]|"index"-text-36-"Index"-NNP-0|text|652/5||
0170.txt|MMI|0.52|Limitation of joint movement|C0231589|[fndg]|"decreased range of motion"-text-14-"decreased range of motion"-VBN-0|text|243/25||
0170.txt|MMI|0.52|Mail Claim Party - Patient|C1578481|[idcn]|"Patient"-text-48-"patient"-NN-0|text|157/7||
0170.txt|MMI|0.52|Manipulation under anesthesia|C0498269|[topp]|"Manipulation under anesthesia"-text-28-"manipulation under anesthesia"-NN-0|text|456/29||
0170.txt|MMI|0.52|Maximum|C0806909|[qnco]|"Maximum"-text-38-"maximum"-NN-0|text|333/7||
0170.txt|MMI|0.52|Maximum Value Derivation Technique|C2826546|[qnco]|"MAXIMUM"-text-38-"maximum"-NN-0|text|333/7||
0170.txt|MMI|0.52|Melena due to gastrointestinal hemorrhage|C3241945|[dsyn]|"Melena"-text-15-"MELENA"-NNP-0|text|611/6||
0170.txt|MMI|0.52|Notable|C4288581|[qlco]|"Noted"-text-0-"noted"-VBN-0|text|211/5||
0170.txt|MMI|0.52|Physical therapy|C0949766|[topp]|"Physical therapy"-text-42-"physical therapy"-JJ-0|text|341/16||
0170.txt|MMI|0.52|Physical therapy (field)|C0699718|[bmod]|"Physical therapy"-text-42-"physical therapy"-JJ-0|text|341/16||
0170.txt|MMI|0.52|Relationship modifier - Patient|C1578484|[idcn]|"Patient"-text-48-"patient"-NN-0|text|157/7||
0170.txt|MMI|0.52|RelationshipConjunction - and|C1550557|[inpr]|"and"-text-4-"and"-CC-0|text|410/3||
0170.txt|MMI|0.52|Report source - Patient|C1578483|[idcn]|"Patient"-text-48-"patient"-NN-0|text|157/7||
0170.txt|MMI|0.52|Report status (finding)|C0586177|[fndg]|"Report status"-text-28-"Report Status"-NNP-0|text|102/13||
0170.txt|MMI|0.52|Report status:Type:Point in time:Report:Nominal|C4760061|[clna]|"Report status"-text-28-"Report Status"-NNP-0|text|102/13||
0170.txt|MMI|0.52|Schedule (document type)|C0086960|[inpr]|"Scheduled"-text-52-"scheduled"-VBN-0|text|169/9||
0170.txt|MMI|0.52|Scheduled - priority|C1571999|[tmco]|"Scheduled"-text-52-"scheduled"-VBN-0|text|169/9||
0170.txt|MMI|0.52|Scheduled - procedure status|C0205539|[qlco]|"Scheduled"-text-52-"scheduled"-VBN-0|text|169/9||
0170.txt|MMI|0.52|Specimen Source Codes - Patient|C1578485|[inpr]|"Patient"-text-48-"patient"-NN-0|text|157/7||
0170.txt|MMI|0.52|Specimen Type - Patient|C1550655|[bdsu]|"Patient"-text-48-"patient"-NN-0|text|157/7||
0170.txt|MMI|0.52|Take|C1515187|[hlca]|"Take"-text-6-"take"-VB-0|text|414/4||
0170.txt|MMI|0.52|Taken|C1883727|[cnce]|"Taken"-text-0-"taken"-VBN-0|text|509/5||
0170.txt|MMI|0.52|Target Lesion Identification|C2986546|[diap]|"Index"-text-36-"Index"-NNP-0|text|652/5||
0170.txt|MMI|0.52|Veterinary Patient|C1705908|[orgm]|"Patient"-text-48-"patient"-NN-0|text|157/7||
0170.txt|MMI|0.52|W flexion|C1525443|[clna]|"Flexion"-text-26-"flexion"-NN-0|text|292/7||
0170.txt|MMI|0.52|dictated - DocumentCompletion|C1609990|[idcn]|"dictated"-text-0-"Dictated"-NNP-0|text|544/8||
0170.txt|MMI|0.52|dictated - ParticipationMode|C1548384|[ftcn]|"dictated"-text-0-"Dictated"-NNP-0|text|544/8||
0170.txt|MMI|0.50|Batch (Response Modality)|C1550176|[inpr]|"Batch"-text-30-"Batch"-NNP-0|text|640/5||
0170.txt|MMI|0.50|Batch (group)|C1948031|[qnco]|"Batch"-text-30-"Batch"-NNP-0|text|640/5||
0170.txt|MMI|0.50|Batch Number|C3641829|[inpr]|"BATCH"-text-30-"Batch"-NNP-0|text|640/5||
0170.txt|MMI|0.50|Discharge date|C2361123|[tmco]|"Discharge date"-text-36-"Discharge Date"-NNP-0|text|125/14||
0170.txt|MMI|0.50|Discharge date:Time Stamp -- Date and Time:Point in time:^Patient:Quantitative|C2361122|[clna]|"Discharge date"-text-36-"Discharge Date"-NNP-0|text|125/14||
0170.txt|MMI|0.50|Discharge summarization note:Finding:Point in time:{Setting}:Document:{Provider}|C0801840|[clna]|"Discharge summary"-text-8-"Discharge Summary"-JJ-0|text|45/17||
0170.txt|MMI|0.50|Discharge summary|C0743221|[inpr]|"Discharge summary"-text-8-"Discharge Summary"-JJ-0|text|45/17||
