0205.txt|MMI|177.96|Wiskott-Aldrich Syndrome|C0043194|[dsyn]|"WAS"-text-0-"was"-VBD-0,"WAS"-text-0-"was"-VBD-0,"WAS"-text-0-"was"-VBD-0,"WAS"-text-10-"was"-VBD-0,"WAS"-text-4-"was"-VBD-0,"WAS"-text-0-"was"-VBD-0,"WAS"-text-0-"was"-VBD-0,"WAS"-text-0-"was"-VBD-0,"WAS"-text-0-"was"-VBD-0,"WAS"-text-0-"was"-VBD-0,"WAS"-text-4-"was"-VBD-0|text|1283/3;1304/3;1430/3;1885/3;2185/3;2220/3;2300/3;2342/3;2516/3;2568/3;2656/3|C20.673.627.900;C15.378.553.546.605.900;C16.320.798.875;C20.673.795.875;C16.320.322.937;C15.378.463.960;C16.320.099.970;C15.378.100.100.970|
0205.txt|MMI|22.23|Patient Discharge|C0030685|[hlca]|"Discharged"-text-6-"discharged"-VBN-0,"Discharge"-text-53-"Discharge"-NNP-0|text|2660/10;3173/9|N04.590.233.727.210.125;E02.760.169.125;N02.421.585.169.125;E02.760.400.610;N02.421.585.400.610|
0205.txt|MMI|20.95|WAS protein, human|C1565156|[bacs, aapp]|"WAS"-text-0-"was"-VBD-0,"WAS"-text-0-"was"-VBD-0,"WAS"-text-0-"was"-VBD-0,"WAS"-text-10-"was"-VBD-0,"WAS"-text-4-"was"-VBD-0,"WAS"-text-0-"was"-VBD-0,"WAS"-text-0-"was"-VBD-0,"WAS"-text-0-"was"-VBD-0,"WAS"-text-0-"was"-VBD-0,"WAS"-text-0-"was"-VBD-0,"WAS"-text-4-"was"-VBD-0|text|1283/3;1304/3;1430/3;1885/3;2185/3;2220/3;2300/3;2342/3;2516/3;2568/3;2656/3|x.x.x.x|
0205.txt|MMI|13.00|Andorra|C0002838|[geoa]|"AND"-text-48-"and"-CC-0,"AND"-text-0-"and"-CC-0,"AND"-text-8-"and"-CC-0,"AND"-text-26-"and"-CC-0,"AND"-text-2-"and"-CC-0,"AND"-text-0-"and"-CC-0,"AND"-text-0-"and"-CC-0,"AND"-text-0-"and"-CC-0,"AND"-text-2-"and"-CC-0|text|1584/3;1666/3;1881/3;1928/3;2181/3;2296/3;2545/3;2580/3;2652/3|Z01.542.049|
0205.txt|MMI|12.49|Hereditary Multiple Exostoses|C0015306|[cgab]|"EXT"-text-2-"Ext"-NNP-0|text|711/3|C05.116.099.708.670.615.325;C04.700.330;C16.320.700.330;C05.116.540.310.500;C04.557.450.565.575.610.615.325|
0205.txt|MMI|9.33|Erythrocytes|C0014792|[cell]|"RBC"-text-0-"RBC"-NNP-0,"RBC"-text-0-"RBC"-NNP-0|text|1782/3;2002/3|A11.443.240;A15.145.229.334;A11.118.290|
0205.txt|MMI|8.81|Vision|C0042789|[orgf]|"see"-text-0-"see"-VB-0|text|2085/3|F02.830.816.964;G02.111.820.480.900;G11.561.790.964;G14.935;G04.835.480.900|
0205.txt|MMI|7.49|Fertilization in Vitro|C0015915|[topp]|"IVF"-text-0-"IVF"-NNP-0,"IVF"-text-0-"IVF"-NNP-0|text|1723/3;1983/3|E05.820.800.750;E02.875.800.750|
0205.txt|MMI|7.43|Massage|C0024875|[topp]|"Massage"-text-8-"massage"-NN-0|text|1479/7|E02.190.599.750.750;E02.779.867.880.750;E02.831.535.867.880.750|
0205.txt|MMI|6.97|Blood|C0005767|[bdsu]|"Blood"-text-4-"BLOOD"-NNP-0|text|791/5|A12.207.152;A15.145;Y01.010;Y08.040.020;Y01.010;Y08.040.020|
0205.txt|MMI|6.03|Postpartum Hemorrhage|C0032797|[patf]|"Postpartum Hemorrhage"-text-47-"postpartum hemorrhage"-NN-0|text|3137/21|C13.703.420.725;C23.550.414.993.850;C13.703.844.700|
0205.txt|MMI|5.76|WAS gene|C1421478|[gngm]|"WAS"-text-0-"was"-VBD-0,"WAS"-text-0-"was"-VBD-0,"WAS"-text-0-"was"-VBD-0,"WAS"-text-10-"was"-VBD-0,"WAS"-text-4-"was"-VBD-0,"WAS"-text-0-"was"-VBD-0,"WAS"-text-0-"was"-VBD-0,"WAS"-text-0-"was"-VBD-0,"WAS"-text-0-"was"-VBD-0,"WAS"-text-0-"was"-VBD-0,"WAS"-text-4-"was"-VBD-0|text|1283/3;1304/3;1430/3;1885/3;2185/3;2220/3;2300/3;2342/3;2516/3;2568/3;2656/3||
0205.txt|MMI|5.76|Washoe language|C1555640|[lang]|"WAS"-text-0-"was"-VBD-0,"WAS"-text-0-"was"-VBD-0,"WAS"-text-0-"was"-VBD-0,"WAS"-text-10-"was"-VBD-0,"WAS"-text-4-"was"-VBD-0,"WAS"-text-0-"was"-VBD-0,"WAS"-text-0-"was"-VBD-0,"WAS"-text-0-"was"-VBD-0,"WAS"-text-0-"was"-VBD-0,"WAS"-text-0-"was"-VBD-0,"WAS"-text-4-"was"-VBD-0|text|1283/3;1304/3;1430/3;1885/3;2185/3;2220/3;2300/3;2342/3;2516/3;2568/3;2656/3||
0205.txt|MMI|5.59|Narcolepsy|C0027404|[dsyn]|"Narcolepsy"-text-0-"Narcolepsy"-NNP-0|text|522/10|C10.886.425.800.200.750;F03.870.400.800.200.750|
0205.txt|MMI|5.57|Pain|C0030193|[sosy]|"Pain"-text-0-"pain"-NN-0|text|2511/4|G11.561.790.444;F02.830.816.444;C23.888.592.612|
0205.txt|MMI|4.92|Patients|C0030705|[podg]|"Patient"-text-0-"Patient"-NNP-0,"Patient"-text-0-"patient"-NN-0,"Patient"-text-0-"Patient"-NNP-0,"Patient"-text-0-"patient"-NN-0,"Patient"-text-0-"Patient"-NNP-0|text|1296/7;1380/7;1630/7;1844/7;2279/7|M01.643|
0205.txt|MMI|4.71|And|C1515981|[idcn]|"And"-text-48-"and"-CC-0,"And"-text-0-"and"-CC-0,"And"-text-8-"and"-CC-0,"And"-text-26-"and"-CC-0,"And"-text-2-"and"-CC-0,"And"-text-0-"and"-CC-0,"And"-text-0-"and"-CC-0,"And"-text-0-"and"-CC-0,"And"-text-2-"and"-CC-0|text|1584/3;1666/3;1881/3;1928/3;2181/3;2296/3;2545/3;2580/3;2652/3||
0205.txt|MMI|4.71|And - dosing instruction fragment|C1706368|[inpr]|"And"-text-48-"and"-CC-0,"And"-text-0-"and"-CC-0,"And"-text-8-"and"-CC-0,"And"-text-26-"and"-CC-0,"And"-text-2-"and"-CC-0,"And"-text-0-"and"-CC-0,"And"-text-0-"and"-CC-0,"And"-text-0-"and"-CC-0,"And"-text-2-"and"-CC-0|text|1584/3;1666/3;1881/3;1928/3;2181/3;2296/3;2545/3;2580/3;2652/3||
0205.txt|MMI|4.71|RelationshipConjunction - and|C1550557|[inpr]|"and"-text-48-"and"-CC-0,"and"-text-0-"and"-CC-0,"and"-text-8-"and"-CC-0,"and"-text-26-"and"-CC-0,"and"-text-2-"and"-CC-0,"and"-text-0-"and"-CC-0,"and"-text-0-"and"-CC-0,"and"-text-0-"and"-CC-0,"and"-text-2-"and"-CC-0|text|1584/3;1666/3;1881/3;1928/3;2181/3;2296/3;2545/3;2580/3;2652/3||
0205.txt|MMI|4.67|Leukocytes|C0023516|[cell]|"WBC"-text-6-"WBC"-NNP-0|text|797/3|A15.382.490;A15.145.229.637;A11.118.637|
0205.txt|MMI|4.67|Melissa|C1008030|[plnt]|"Melissa"-text-50-"Melissa"-NNP-0|text|162/7|B01.650.940.800.575.912.250.583.520.474|
0205.txt|MMI|4.33|Back|C0004600|[blor]|"Back"-text-0-"back"-RB-0,"Back"-text-14-"back"-RB-0,"Back"-text-0-"back"-RB-0|text|1456/4;1895/4;2371/4|A01.923.176|
0205.txt|MMI|4.33|Disease|C0012634|[dsyn]|"condition"-text-4-"condition"-NN-0,"condition"-text-14-"condition"-NN-0,"condition"-text-55-"Condition"-NNP-0|text|1346/9;2684/9;3183/9|C23.550.288|
0205.txt|MMI|4.21|Swine Vesicular Disease|C0039010|[dsyn]|"SVD"-text-37-"SVD"-NNP-0|text|3117/3|C01.925.782.687.359.855;C22.905.850|
0205.txt|MMI|4.21|Vacuum Curettage|C0042223|[topp]|"Suction Curettage"-text-0-"suction curettage"-NN-0|text|1648/17|E04.157.310.970;E04.950.300.299.970|
0205.txt|MMI|3.81|Assisted Reproductive Technologies|C0872104|[topp]|"IVF"-text-0-"IVF"-NNP-0,"IVF"-text-0-"IVF"-NNP-0|text|1723/3;1983/3|x.x.x.x|
0205.txt|MMI|3.81|Ventricular Fibrillation, Paroxysmal Familial, 1|C2751898|[dsyn]|"IVF"-text-0-"IVF"-NNP-0,"IVF"-text-0-"IVF"-NNP-0|text|1723/3;1983/3|x.x.x.x|
0205.txt|MMI|3.81|intensive care unit|C0021708|[mnob, hcro]|"ICU"-text-6-"ICU"-NNP-0,"ICU"-text-0-"ICU"-NNP-0|text|1877/3;2367/3|N02.278.388.493|
0205.txt|MMI|3.77|Vital signs|C0518766|[clna]|"Vital signs"-text-10-"Vital signs"-JJ-0,"Vital signs"-text-0-"vital signs"-JJ-0|text|640/11;2441/11|E01.370.600.875|
0205.txt|MMI|3.75|Coitus|C0009253|[orgf]|"Sex"-text-24-"Sex"-NN-0|text|83/3|G08.686.784.041;F01.145.802.188|
0205.txt|MMI|3.75|Gynecology|C0018417|[bmod]|"Gynecology"-text-38-"GYNECOLOGY"-NNP-0|text|114/10|H02.403.810.310;H02.403.763.750|
0205.txt|MMI|3.29|Antibiotics, Antitubercular|C0003237|[antb]|"Antibiotics"-text-6-"antibiotics"-NNS-0|text|2493/11|D27.505.954.122.085.255.135|
0205.txt|MMI|3.29|Sulfonamides|C0038760|[orch, phsu]|"Sulfonamides"-text-44-"Sulfonamides"-NNS-0|text|137/12|D02.065.884;D02.886.590.700|
0205.txt|MMI|2.89|Postpartum Period|C0086839|[tmco]|"post partum"-text-4-"post partum"-NN-0,"Postpartum"-text-85-"postpartum"-NN-0|text|1400/11;3289/10|G08.686.702|
0205.txt|MMI|2.62|Disabled Person Code - Patient|C1578486|[inpr]|"Patient"-text-0-"Patient"-NNP-0,"Patient"-text-0-"patient"-NN-0,"Patient"-text-0-"Patient"-NNP-0,"Patient"-text-0-"patient"-NN-0,"Patient"-text-0-"Patient"-NNP-0|text|1296/7;1380/7;1630/7;1844/7;2279/7||
0205.txt|MMI|2.62|Mail Claim Party - Patient|C1578481|[idcn]|"Patient"-text-0-"Patient"-NNP-0,"Patient"-text-0-"patient"-NN-0,"Patient"-text-0-"Patient"-NNP-0,"Patient"-text-0-"patient"-NN-0,"Patient"-text-0-"Patient"-NNP-0|text|1296/7;1380/7;1630/7;1844/7;2279/7||
0205.txt|MMI|2.62|Patient Condition Code - Stable|C1547311|[inpr]|"Stable"-text-12-"stable"-NN-0,"Stable"-text-2-"stable"-JJ-0,"Stable"-text-0-"stable"-JJ-0,"Stable"-text-0-"stable"-JJ-0,"Stable"-text-59-"Stable"-JJ-0|text|652/6;1339/6;2238/6;2458/6;3195/6||
0205.txt|MMI|2.62|Relationship modifier - Patient|C1578484|[idcn]|"Patient"-text-0-"Patient"-NNP-0,"Patient"-text-0-"patient"-NN-0,"Patient"-text-0-"Patient"-NNP-0,"Patient"-text-0-"patient"-NN-0,"Patient"-text-0-"Patient"-NNP-0|text|1296/7;1380/7;1630/7;1844/7;2279/7||
0205.txt|MMI|2.62|Report source - Patient|C1578483|[idcn]|"Patient"-text-0-"Patient"-NNP-0,"Patient"-text-0-"patient"-NN-0,"Patient"-text-0-"Patient"-NNP-0,"Patient"-text-0-"patient"-NN-0,"Patient"-text-0-"Patient"-NNP-0|text|1296/7;1380/7;1630/7;1844/7;2279/7||
0205.txt|MMI|2.62|SHE gene|C1822717|[gngm]|"SHE"-text-0-"She"-PRP-0,"SHE"-text-0-"she"-PRP-0,"SHE"-text-0-"she"-PRP-0,"SHE"-text-0-"she"-PRP-0,"SHE"-text-0-"She"-PRP-0|text|2338/3;2411/3;2467/3;2584/3;2614/3||
0205.txt|MMI|2.62|She Chinese|C4761447|[popg]|"SHE"-text-0-"She"-PRP-0,"SHE"-text-0-"she"-PRP-0,"SHE"-text-0-"she"-PRP-0,"SHE"-text-0-"she"-PRP-0,"SHE"-text-0-"She"-PRP-0|text|2338/3;2411/3;2467/3;2584/3;2614/3||
0205.txt|MMI|2.62|Specimen Source Codes - Patient|C1578485|[inpr]|"Patient"-text-0-"Patient"-NNP-0,"Patient"-text-0-"patient"-NN-0,"Patient"-text-0-"Patient"-NNP-0,"Patient"-text-0-"patient"-NN-0,"Patient"-text-0-"Patient"-NNP-0|text|1296/7;1380/7;1630/7;1844/7;2279/7||
0205.txt|MMI|2.62|Specimen Type - Patient|C1550655|[bdsu]|"Patient"-text-0-"Patient"-NNP-0,"Patient"-text-0-"patient"-NN-0,"Patient"-text-0-"Patient"-NNP-0,"Patient"-text-0-"patient"-NN-0,"Patient"-text-0-"Patient"-NNP-0|text|1296/7;1380/7;1630/7;1844/7;2279/7||
0205.txt|MMI|2.62|Stable status|C0205360|[qlco]|"Stable"-text-12-"stable"-NN-0,"Stable"-text-2-"stable"-JJ-0,"Stable"-text-0-"stable"-JJ-0,"Stable"-text-0-"stable"-JJ-0,"Stable"-text-59-"Stable"-JJ-0|text|652/6;1339/6;2238/6;2458/6;3195/6||
0205.txt|MMI|2.62|Veterinary Patient|C1705908|[orgm]|"Patient"-text-0-"Patient"-NNP-0,"Patient"-text-0-"patient"-NN-0,"Patient"-text-0-"Patient"-NNP-0,"Patient"-text-0-"patient"-NN-0,"Patient"-text-0-"Patient"-NNP-0|text|1296/7;1380/7;1630/7;1844/7;2279/7||
0205.txt|MMI|2.37|Cervix Uteri|C0007874|[bpoc]|"Cervix"-text-8-"Cervix"-NN-0|text|729/6|A05.360.319.679.256|
0205.txt|MMI|2.37|Hernia, Inguinal|C0019294|[anab]|"INGUINAL HERNIA"-text-0-"inguinal hernia"-JJ-0|text|537/15|C23.300.707.374.875|
0205.txt|MMI|2.37|Overall|C1561607|[qlco]|"Overall"-text-0-"Overall"-RB-0|text|2134/7|V02.672;V02.270.500|
0205.txt|MMI|2.37|Uterine Inertia|C0042135|[patf]|"Uterine Atony"-text-41-"Uterine atony"-NNP-0|text|3121/13|C13.703.420.288.728|
0205.txt|MMI|2.09|Facilitated oscillatory release technique|C1562169|[topp]|"FOR"-text-22-"for"-IN-0,"FOR"-text-0-"For"-IN-0,"FOR"-text-83-"for"-IN-0,"FOR"-text-91-"for"-IN-0|text|1910/3;2044/3;3285/3;3312/3||
0205.txt|MMI|2.09|Preposition For|C0521125|[qlco]|"For"-text-22-"for"-IN-0,"For"-text-0-"For"-IN-0,"For"-text-83-"for"-IN-0,"For"-text-91-"for"-IN-0|text|1910/3;2044/3;3285/3;3312/3||
0205.txt|MMI|2.09|WWOX gene|C1421525|[gngm]|"FOR"-text-22-"for"-IN-0,"FOR"-text-0-"For"-IN-0,"FOR"-text-83-"for"-IN-0,"FOR"-text-91-"for"-IN-0|text|1910/3;2044/3;3285/3;3312/3||
0205.txt|MMI|2.09|WWOX wt Allele|C4321252|[gngm]|"FOR"-text-22-"for"-IN-0,"FOR"-text-0-"For"-IN-0,"FOR"-text-83-"for"-IN-0,"FOR"-text-91-"for"-IN-0|text|1910/3;2044/3;3285/3;3312/3||
0205.txt|MMI|1.90|Antibiotics|C0003232|[antb]|"Antibiotics"-text-6-"antibiotics"-NNS-0|text|2493/11|x.x.x.x|
0205.txt|MMI|1.90|Childbirth|C1148523|[orgf]|"Delivery"-text-0-"delivery"-NN-0|text|1274/8|x.x.x.x|
0205.txt|MMI|1.90|Cylert|C0719594|[orch, phsu]|"Cylert"-text-0-"Cylert"-NNP-0|text|2732/6|x.x.x.x|
0205.txt|MMI|1.90|Cytotec|C0591321|[orch, phsu]|"Cytotec"-text-50-"cytotec"-JJ-0|text|1588/7|x.x.x.x|
0205.txt|MMI|1.90|Deidentification|C1707660|[mcha]|"DID"-text-0-"did"-VBD-0|text|2287/3|x.x.x.x|
0205.txt|MMI|1.90|Fresh frozen plasma|C0016709|[bdsu]|"FFP"-text-0-"FFP"-NNP-0|text|2038/3|x.x.x.x|
0205.txt|MMI|1.90|Gender|C0079399|[orga]|"sex"-text-24-"Sex"-NN-0|text|83/3|x.x.x.x|
0205.txt|MMI|1.90|HAC protocol|C0062074|[topp]|"HAD"-text-0-"had"-VBD-0|text|1388/3|x.x.x.x|
0205.txt|MMI|1.90|Hemabate|C0121295|[orch, phsu]|"Hemabate"-text-40-"Hemabate"-NNP-0|text|1569/8|x.x.x.x|
0205.txt|MMI|1.90|Hysterectomy|C0020699|[topp]|"Hysterectomy"-text-2-"hysterectomy"-NN-0|text|1694/12|E04.950.300.399|
0205.txt|MMI|1.90|Massage Therapy|C3536731|[topp]|"Massage"-text-8-"massage"-NN-0|text|1479/7|x.x.x.x|
0205.txt|MMI|1.90|Methergine|C0733811|[orch, phsu]|"Methergine"-text-32-"Methergine"-NNP-0|text|1552/10|x.x.x.x|
0205.txt|MMI|1.90|Motrin|C0699203|[orch, phsu]|"Motrin"-text-0-"motrin"-NN-0|text|2549/6|x.x.x.x|
0205.txt|MMI|1.90|Percocet|C0086787|[orch, phsu]|"Percocet"-text-0-"percocet"-NN-0|text|2536/8|x.x.x.x|
0205.txt|MMI|1.90|Pitocin|C0733348|[horm, aapp, phsu]|"Pitocin"-text-24-"pitocin"-IN-0|text|1536/7|x.x.x.x|
0205.txt|MMI|1.90|Snowflake vitreoretinal degeneration|C1860405|[dsyn]|"SVD"-text-37-"SVD"-NNP-0|text|3117/3|x.x.x.x|
0205.txt|MMI|1.90|Theses|C0039828|[inpr]|"these"-text-0-"these"-DT-0|text|2059/5|x.x.x.x|
0205.txt|MMI|1.90|Tracheal Extubation|C0553891|[topp]|"Extubated"-text-0-"extubated"-VBN-0|text|2304/9|x.x.x.x|
0205.txt|MMI|1.90|cetrimonium bromide|C0951233|[orch]|"CTAB"-text-0-"CTAB"-NNP-0|text|690/4|x.x.x.x|
0205.txt|MMI|1.90|crystalloid|C2752561|[celc]|"crystalloid"-text-0-"crystalloid"-NN-0|text|1735/11|D26.776.498.500|
0205.txt|MMI|1.90|crystalloid solutions|C0056562|[phsu]|"Crystalloid"-text-0-"crystalloid"-NN-0|text|1735/11|D26.776.498.500|
0205.txt|MMI|1.57|Back structure, excluding neck|C1995000|[blor]|"Back"-text-0-"back"-RB-0,"Back"-text-14-"back"-RB-0,"Back"-text-0-"back"-RB-0|text|1456/4;1895/4;2371/4||
0205.txt|MMI|1.57|Back structure, including back of neck|C0460009|[blor]|"Back"-text-0-"back"-RB-0,"Back"-text-14-"back"-RB-0,"Back"-text-0-"back"-RB-0|text|1456/4;1895/4;2371/4||
0205.txt|MMI|1.57|Condition|C0348080|[qlco]|"Condition"-text-4-"condition"-NN-0,"Condition"-text-14-"condition"-NN-0,"Condition"-text-55-"Condition"-NNP-0|text|1346/9;2684/9;3183/9||
0205.txt|MMI|1.57|Condition Domain|C4722256|[inpr]|"CONDITION"-text-4-"condition"-NN-0,"CONDITION"-text-14-"condition"-NN-0,"CONDITION"-text-55-"Condition"-NNP-0|text|1346/9;2684/9;3183/9||
0205.txt|MMI|1.57|Condition:Find:Pt:^Patient:Nom|C3864998|[clna]|"Condition"-text-4-"condition"-NN-0,"Condition"-text-14-"condition"-NN-0,"Condition"-text-55-"Condition"-NNP-0|text|1346/9;2684/9;3183/9||
0205.txt|MMI|1.57|Dorsal|C0205095|[spco]|"Back"-text-0-"back"-RB-0,"Back"-text-14-"back"-RB-0,"Back"-text-0-"back"-RB-0|text|1456/4;1895/4;2371/4||
0205.txt|MMI|1.57|Entire back (surface region)|C1281593|[blor]|"Back"-text-0-"back"-RB-0,"Back"-text-14-"back"-RB-0,"Back"-text-0-"back"-RB-0|text|1456/4;1895/4;2371/4||
0205.txt|MMI|1.57|Herero language|C0574443|[lang]|"HER"-text-0-"Her"-PRP$-0,"HER"-text-0-"Her"-PRP$-0,"HER"-text-0-"Her"-PRP$-0|text|2437/3;2507/3;2558/3||
0205.txt|MMI|1.57|In addition to|C0332287|[ftcn]|"With"-text-56-"with"-IN-0,"With"-text-0-"with"-IN-0,"With"-text-0-"with"-IN-0|text|1606/4;2251/4;2531/4||
0205.txt|MMI|1.57|Logical Condition|C1705253|[cnce]|"Condition"-text-4-"condition"-NN-0,"Condition"-text-14-"condition"-NN-0,"Condition"-text-55-"Condition"-NNP-0|text|1346/9;2684/9;3183/9||
0205.txt|MMI|1.57|Transfer Technique|C1705822|[ftcn]|"Delivery"-text-0-"delivery"-NN-0,"Transfer"-text-0-"transfer"-NN-0,"Transfer"-text-0-"transfer"-NN-0|text|1274/8;1369/8;1447/8||
0205.txt|MMI|1.57|With - dosing instruction fragment|C1705690|[inpr]|"With"-text-56-"with"-IN-0,"With"-text-0-"with"-IN-0,"With"-text-0-"with"-IN-0|text|1606/4;2251/4;2531/4||
0205.txt|MMI|1.51|Good|C0205170|[qlco]|"Good"-text-0-"good"-JJ-0,"Well"-text-0-"well"-RB-0,"Good"-text-12-"good"-JJ-0|text|2162/4;2291/4;2679/4||
0205.txt|MMI|1.44|Abdomen|C0000726|[blor]|"abd"-text-0-"Abd"-NNP-0|text|695/3|A01.923.047|
0205.txt|MMI|1.44|Blood Transfusion|C0005841|[topp]|"Transfusions"-text-2-"transfusions"-NNS-0|text|2264/12|E02.095.135|
0205.txt|MMI|1.44|Edema|C0013604|[patf]|"Edema"-text-6-"edema"-NN-1|text|723/5|C23.888.277|
0205.txt|MMI|1.44|Obstetric Delivery|C0011209|[topp]|"Delivery"-text-0-"delivery"-NN-0|text|1274/8|E04.520.252|
0205.txt|MMI|1.44|Physical Examination|C0031809|[hlca]|"Physical Exam"-text-4-"Physical Exam"-NNP-0|text|624/13|E01.370.600|
0205.txt|MMI|1.44|Sex Behavior|C0036864|[bhvr]|"Sex"-text-24-"Sex"-NN-0|text|83/3|F01.145.802|
0205.txt|MMI|1.44|sex|C1522384|[orga]|"sex"-text-24-"Sex"-NN-0|text|83/3|G08.686.810|
0205.txt|MMI|1.42|Hemorrhage|C0019080|[patf]|"Hemorrhage"-text-6-"hemorrhage"-NN-0|text|1412/10|C23.550.414|
0205.txt|MMI|1.05|ActClass - transfer|C3244299|[idcn]|"transfer"-text-0-"transfer"-NN-0,"transfer"-text-0-"transfer"-NN-0|text|1369/8;1447/8||
0205.txt|MMI|1.05|Address type - Home|C1549632|[idcn]|"Home"-text-8-"home"-NN-0,"Home"-text-17-"Home"-NNP-0|text|2671/4;3064/4||
0205.txt|MMI|1.05|Floor (anatomic)|C3714591|[anst]|"Floor"-text-0-"floor"-NN-0,"Floor"-text-6-"floor"-NN-0|text|1330/5;2386/5||
0205.txt|MMI|1.05|Floor - story of building|C1547707|[geoa]|"Floor"-text-0-"floor"-NN-0,"Floor"-text-6-"floor"-NN-0|text|1330/5;2386/5||
0205.txt|MMI|1.05|Home environment|C0442519|[spco]|"Home"-text-8-"home"-NN-0,"Home"-text-17-"Home"-NNP-0|text|2671/4;3064/4||
0205.txt|MMI|1.05|Instruction [Publication Type]|C0302828|[inpr]|"instructions"-text-71-"instructions"-NNS-0,"instructions"-text-75-"Instructions"-NNPS-0|text|3242/12;3264/12||
0205.txt|MMI|1.05|Instructions|C1442085|[inpr]|"Instructions"-text-71-"instructions"-NNS-0,"Instructions"-text-75-"Instructions"-NNPS-0|text|3242/12;3264/12||
0205.txt|MMI|1.05|Instructions:Text:Point in time:^Patient:Narrative|C3263700|[clna]|"Instructions"-text-71-"instructions"-NNS-0,"Instructions"-text-75-"Instructions"-NNPS-0|text|3242/12;3264/12||
0205.txt|MMI|1.05|Interventional procedure|C0184661|[topp]|"Procedure"-text-0-"procedure"-NN-0,"Procedures"-text-0-"procedures"-NNS-0|text|1828/9;2065/10||
0205.txt|MMI|1.05|Inventory of Callous-Unemotional Traits|C4554035|[inpr]|"ICU"-text-6-"ICU"-NNP-0,"ICU"-text-0-"ICU"-NNP-0|text|1877/3;2367/3||
0205.txt|MMI|1.05|Large|C0549177|[qnco]|"Large"-text-0-"large"-JJ-0,"Great"-text-0-"great"-JJ-0|text|1394/5;2420/5||
0205.txt|MMI|1.05|Maintaining (action)|C1314677|[ftcn]|"Maintained"-text-0-"maintained"-VBD-0,"Maintained"-text-0-"maintained"-VBN-0|text|2151/10;2224/10||
0205.txt|MMI|1.05|Organization unit type - Home|C1547197|[orgt]|"Home"-text-8-"home"-NN-0,"Home"-text-17-"Home"-NNP-0|text|2671/4;3064/4||
0205.txt|MMI|1.05|Pack|C1999262|[bodm]|"Pack"-text-10-"pack"-NN-0,"Pack"-text-0-"pack"-NN-0|text|1806/4;2018/4||
0205.txt|MMI|1.05|Pack (physical object)|C1968515|[medd]|"Pack"-text-10-"pack"-NN-0,"Pack"-text-0-"pack"-NN-0|text|1806/4;2018/4||
0205.txt|MMI|1.05|Pack unit|C2825051|[drdd]|"Pack"-text-10-"pack"-NN-0,"Pack"-text-0-"pack"-NN-0|text|1806/4;2018/4||
0205.txt|MMI|1.05|Package Dosing Unit|C1704710|[qnco]|"Pack"-text-10-"pack"-NN-0,"Pack"-text-0-"pack"-NN-0|text|1806/4;2018/4||
0205.txt|MMI|1.05|Packing (action)|C2828395|[acty]|"Pack"-text-10-"pack"-NN-0,"Pack"-text-0-"pack"-NN-0|text|1806/4;2018/4||
0205.txt|MMI|1.05|Person location type - Home|C1548530|[spco]|"Home"-text-8-"home"-NN-0,"Home"-text-17-"Home"-NNP-0|text|2671/4;3064/4||
0205.txt|MMI|1.05|Primed lymphocyte test|C0201617|[lbpr]|"PLT"-text-12-"plt"-NN-0,"PLT"-text-0-"Plt"-RB-0|text|1811/3;2011/3||
0205.txt|MMI|1.05|Procedure (set of actions)|C2700391|[ftcn]|"Procedure"-text-0-"procedure"-NN-0,"Procedures"-text-0-"procedures"-NNS-0|text|1828/9;2065/10||
0205.txt|MMI|1.05|Psychological Transfer|C0040671|[menp]|"TRANSFER"-text-0-"transfer"-NN-0,"TRANSFER"-text-0-"transfer"-NN-0|text|1369/8;1447/8||
0205.txt|MMI|1.05|Red Blood Cell Count measurement|C0014772|[lbpr]|"RBC"-text-0-"RBC"-NNP-0,"RBC"-text-0-"RBC"-NNP-0|text|1782/3;2002/3||
0205.txt|MMI|1.05|SCN5A gene|C1419864|[gngm]|"IVF"-text-0-"IVF"-NNP-0,"IVF"-text-0-"IVF"-NNP-0|text|1723/3;1983/3||
0205.txt|MMI|1.05|SCN5A wt Allele|C4321334|[gngm]|"IVF"-text-0-"IVF"-NNP-0,"IVF"-text-0-"IVF"-NNP-0|text|1723/3;1983/3||
0205.txt|MMI|1.05|Surgical transfer - action|C0348011|[ftcn]|"Transfer"-text-0-"transfer"-NN-0,"Transfer"-text-0-"transfer"-NN-0|text|1369/8;1447/8||
0205.txt|MMI|1.05|Tablet (unit of presentation)|C4319774|[qnco]|"Tablet"-text-0-"Tablet"-NN-0,"Tablet"-text-0-"Tablet"-NN-0|text|2863/6;3011/6||
0205.txt|MMI|1.05|Tablet Dosage Form|C0039225|[bodm]|"Tablet"-text-0-"Tablet"-NN-0,"Tablet"-text-0-"Tablet"-NN-0|text|2863/6;3011/6||
0205.txt|MMI|1.05|Tablet Dosage Form Category|C4722631|[bodm]|"Tablet"-text-0-"Tablet"-NN-0,"Tablet"-text-0-"Tablet"-NN-0|text|2863/6;3011/6||
0205.txt|MMI|1.05|Tablet Dosing Unit|C1705223|[qnco]|"Tablet"-text-0-"Tablet"-NN-0,"Tablet"-text-0-"Tablet"-NN-0|text|2863/6;3011/6||
0205.txt|MMI|1.05|This (eukaryote)|C1080058|[euka]|"This"-text-0-"This"-DT-0,"This"-text-0-"this"-DT-0|text|1425/4;1823/4||
0205.txt|MMI|1.05|Transfer - product ownership|C1555583|[idcn]|"Transfer"-text-0-"transfer"-NN-0,"Transfer"-text-0-"transfer"-NN-0|text|1369/8;1447/8||
0205.txt|MMI|1.05|Transfer Ability|C4319192|[inpr]|"Transfer"-text-0-"transfer"-NN-0,"Transfer"-text-0-"transfer"-NN-0|text|1369/8;1447/8||
0205.txt|MMI|1.05|Visit User Code - Home|C1548341|[inpr]|"Home"-text-8-"home"-NN-0,"Home"-text-17-"Home"-NNP-0|text|2671/4;3064/4||
0205.txt|MMI|1.05|Without|C0332288|[qlco]|"Without"-text-4-"without"-IN-0,"Without"-text-0-"without"-IN-0|text|715/7;2595/7||
0205.txt|MMI|1.05|floor (object)|C0016249|[mnob]|"Floor"-text-0-"floor"-NN-0,"Floor"-text-6-"floor"-NN-0|text|1330/5;2386/5||
0205.txt|MMI|1.05|home health encounter|C1553498|[hlca]|"Home"-text-8-"home"-NN-0,"Home"-text-17-"Home"-NNP-0|text|2671/4;3064/4||
0205.txt|MMI|1.05|product|C1514468|[enty]|"Products"-text-0-"Products"-NNPS-0,"product"-text-0-"product"-NN-0|text|1763/8;2256/7||
0205.txt|MMI|1.05|refill|C0807726|[idcn]|"refills"-text-2-"Refills"-NNP-0,"refills"-text-2-"Refills"-NNP-0|text|2877/7;3025/7||
0205.txt|MMI|1.01|3500|C4517736|[qnco]|"3500"-text-0-"3500"-CD-0,"3500"-text-0-"3500"-CD-0|text|1753/4;1976/4||
0205.txt|MMI|1.01|4000|C3842327|[qnco]|"4000"-text-0-"4000"-CD-0,"4000"-text-0-"4000"-CD-0|text|1713/4;1987/4||
0205.txt|MMI|1.01|Language Ability Proficiency - Good|C1551023|[idcn]|"Good"-text-0-"good"-JJ-0,"Good"-text-12-"good"-JJ-0|text|2162/4;2679/4||
0205.txt|MMI|1.01|Language Proficiency - Good|C1610541|[idcn]|"Good"-text-0-"good"-JJ-0,"Good"-text-12-"good"-JJ-0|text|2162/4;2679/4||
0205.txt|MMI|1.01|PRSS30P gene|C2828567|[gngm]|"Disp"-text-0-"Disp"-NNP-0,"Disp"-text-0-"Disp"-NNP-0|text|2852/4;3000/4||
0205.txt|MMI|1.01|Specimen Quality - Good|C1561563|[qlco]|"Good"-text-0-"good"-JJ-0,"Good"-text-12-"good"-JJ-0|text|2162/4;2679/4||
0205.txt|MMI|1.01|Taking vital signs|C0150404|[hlca]|"Vital signs"-text-10-"Vital signs"-JJ-0,"Vital signs"-text-0-"vital signs"-JJ-0|text|640/11;2441/11||
0205.txt|MMI|1.01|Vital Signs Domain|C1704629|[inpr]|"Vital Signs"-text-10-"Vital signs"-JJ-0,"Vital Signs"-text-0-"vital signs"-JJ-0|text|640/11;2441/11||
0205.txt|MMI|1.01|Vital signs:Finding:Point in time:^Patient:Narrative:Observed|C0488614|[clna]|"Vital signs"-text-10-"Vital signs"-JJ-0,"Vital signs"-text-0-"vital signs"-JJ-0|text|640/11;2441/11||
0205.txt|MMI|0.98|Heart|C0018787|[bpoc]|"Heart"-text-0-"Heart"-NNP-0|text|674/5|A07.541|
0205.txt|MMI|0.98|Hypersensitivity|C0020517|[patf]|"Allergies"-text-40-"Allergies"-NNP-0|text|125/9|C20.543|
0205.txt|MMI|0.98|Ligation|C0023690|[topp]|"Ligation"-text-28-"ligation"-NN-0|text|1932/8|E04.426|
0205.txt|MMI|0.98|Lung|C0024109|[bpoc]|"Lungs"-text-0-"Lungs"-NNP-0|text|684/5|A04.411|
0205.txt|MMI|0.72|Admission date:Time Stamp -- Date and Time:Point in time:^Patient:Quantitative|C2598112|[clna]|"Admission date"-text-0-"Admission Date"-NNP-0|text|0/14||
0205.txt|MMI|0.72|Date of admission|C1302393|[tmco]|"Admission date"-text-0-"Admission Date"-NNP-0|text|0/14||
0205.txt|MMI|0.52|ABD tumor staging notation|C0449202|[inpr]|"ABD"-text-0-"Abd"-NNP-0|text|695/3||
0205.txt|MMI|0.52|Absence of Biallelic TCRgamma Deletion|C3811055|[comd]|"ABD"-text-0-"Abd"-NNP-0|text|695/3||
0205.txt|MMI|0.52|Act Class - procedure|C1546467|[ocac]|"procedure"-text-0-"procedure"-NN-0|text|1828/9||
0205.txt|MMI|0.52|ActInformationPrivacyReason <service>|C3245478|[idcn]|"service"-text-30-"Service"-NNP-0|text|91/7||
0205.txt|MMI|0.52|Administration occupational activities|C0001554|[ocac]|"Administration"-text-12-"administration"-NN-0|text|1489/14||
0205.txt|MMI|0.52|Administration procedure|C1533734|[topp]|"Administration"-text-12-"administration"-NN-0|text|1489/14||
0205.txt|MMI|0.52|Agent Administration|C2348003|[hlca]|"Administration"-text-12-"administration"-NN-0|text|1489/14||
0205.txt|MMI|0.52|Analytical Procedure Range|C4760793|[qnco]|"Range"-text-0-"range"-NN-0|text|2245/5||
0205.txt|MMI|0.52|Anemia, severe|C0238644|[dsyn]|"severe anemia"-text-51-"Severe anemia"-JJ-0|text|3159/13||
0205.txt|MMI|0.52|Antibiotic throat preparations|C3540706|[antb]|"Antibiotics"-text-6-"antibiotics"-NNS-0|text|2493/11||
0205.txt|MMI|0.52|Antibiotics FOR TREATMENT OF HEMORRHOIDS AND ANAL FISSURES FOR TOPICAL USE|C3540707|[antb]|"Antibiotics"-text-6-"antibiotics"-NNS-0|text|2493/11||
0205.txt|MMI|0.52|Antibiotics for systemic use|C3540704|[antb]|"Antibiotics"-text-6-"antibiotics"-NNS-0|text|2493/11||
0205.txt|MMI|0.52|Antibiotics, Gynecological|C3540708|[antb]|"Antibiotics"-text-6-"antibiotics"-NNS-0|text|2493/11||
0205.txt|MMI|0.52|Antibiotics, ophthalmologic|C3540710|[antb]|"Antibiotics"-text-6-"antibiotics"-NNS-0|text|2493/11||
0205.txt|MMI|0.52|Antifungal Antibiotics, Topical|C3540705|[antb]|"Antibiotics"-text-6-"antibiotics"-NNS-0|text|2493/11||
0205.txt|MMI|0.52|Apyrexial|C0277797|[fndg]|"Afebrile"-text-2-"afebrile"-JJ-0|text|2480/8||
0205.txt|MMI|0.52|Attending (action)|C1999232|[ftcn]|"attending"-text-46-"Attending"-VBG-0|text|150/9||
0205.txt|MMI|0.52|Attending (provider role)|C1547429|[prog]|"Attending"-text-46-"Attending"-VBG-0|text|150/9||
0205.txt|MMI|0.52|Benign|C0205183|[qlco]|"Benign"-text-0-"benign"-JJ-0|text|483/6||
0205.txt|MMI|0.52|Bimanual|C1511117|[ftcn]|"Bimanual"-text-6-"bimanual"-JJ-0|text|1470/8||
0205.txt|MMI|0.52|Brush device|C0179445|[mnob]|"Brush"-text-0-"Brush"-NNP-0|text|3460/5||
0205.txt|MMI|0.52|CDISC SDTM Procedure Terminology|C3539779|[inpr]|"Procedure"-text-0-"procedure"-NN-0|text|1828/9||
0205.txt|MMI|0.52|CDISC SDTM Sex of Individual Terminology|C1879943|[inpr]|"SEX"-text-24-"Sex"-NN-0|text|83/3||
0205.txt|MMI|0.52|Cervix Specimen|C1550623|[bdsu]|"Cervix"-text-8-"Cervix"-NN-0|text|729/6||
0205.txt|MMI|0.52|Cervix Specimen Code|C1546592|[inpr]|"Cervix"-text-8-"Cervix"-NN-0|text|729/6||
0205.txt|MMI|0.52|Concept model range (foundation metadata concept)|C3542016|[inpr]|"Range"-text-0-"range"-NN-0|text|2245/5||
0205.txt|MMI|0.52|Consent Type - Hysterectomy|C1548863|[fndg]|"Hysterectomy"-text-2-"hysterectomy"-NN-0|text|1694/12||
0205.txt|MMI|0.52|Control function|C2587213|[ftcn]|"Controlled"-text-0-"controlled"-VBN-0|text|2520/10||
0205.txt|MMI|0.52|Controlled mark|C4761797|[idcn]|"CONTROLLED"-text-0-"controlled"-VBN-0|text|2520/10||
0205.txt|MMI|0.52|Course|C0750729|[tmco]|"Course"-text-0-"course"-NN-0|text|476/6||
0205.txt|MMI|0.52|Details|C1522508|[qlco]|"Details"-text-0-"details"-NNS-0|text|2048/7||
0205.txt|MMI|0.52|Dilated|C0700124|[fndg]|"Dilated"-text-14-"dilated"-VBN-1|text|741/7||
0205.txt|MMI|0.52|Discipline of obstetrics|C0028773|[bmod]|"Obstetrics"-text-34-"OBSTETRICS"-NNP-0|text|101/10||
0205.txt|MMI|0.52|Disease Controlled|C2911690|[fndg]|"Controlled"-text-0-"controlled"-VBN-0|text|2520/10||
0205.txt|MMI|0.52|Do (activity)|C2828361|[acty]|"Did"-text-0-"did"-VBD-0|text|2287/3||
0205.txt|MMI|0.52|During|C0347984|[tmco]|"During"-text-0-"during"-IN-0|text|1267/6||
0205.txt|MMI|0.52|During - dosing instruction fragment|C1706551|[inpr]|"During"-text-0-"during"-IN-0|text|1267/6||
0205.txt|MMI|0.52|ENG gene|C1366583|[gngm]|"END"-text-12-"End"-NN-0|text|3497/3||
0205.txt|MMI|0.52|ENG wt Allele|C1704837|[gngm]|"END"-text-12-"End"-NN-0|text|3497/3||
0205.txt|MMI|0.52|EXT1 gene|C0694878|[gngm]|"EXT"-text-2-"Ext"-NNP-0|text|711/3||
0205.txt|MMI|0.52|EXT1 wt Allele|C1707871|[gngm]|"EXT"-text-2-"Ext"-NNP-0|text|711/3||
0205.txt|MMI|0.52|Edema:Finding:Point in time:^Patient:Ordinal|C1717255|[clna]|"Edema"-text-6-"edema"-NN-1|text|723/5||
0205.txt|MMI|0.52|End|C0444930|[spco]|"End"-text-12-"End"-NN-0|text|3497/3||
0205.txt|MMI|0.52|Endoglin, human|C0082420|[imft, aapp]|"END"-text-12-"End"-NN-0|text|3497/3||
0205.txt|MMI|0.52|Entire heart|C1281570|[bpoc]|"Heart"-text-0-"Heart"-NNP-0|text|674/5||
0205.txt|MMI|0.52|Exam|C4284036|[ftcn]|"Exam"-text-87-"exam"-NN-0|text|3300/4||
0205.txt|MMI|0.52|Family history|C0241889|[fndg]|"Family history"-text-0-"Family History"-NNP-1|text|604/14||
0205.txt|MMI|0.52|Follow|C4281991|[ftcn]|"Follow"-text-67-"Follow"-VB-0|text|3227/6||
0205.txt|MMI|0.52|Follow - dosing instruction imperative|C1719822|[inpr]|"Follow"-text-67-"Follow"-VB-0|text|3227/6||
0205.txt|MMI|0.52|Followed by|C0332283|[tmco]|"follow"-text-67-"Follow"-VB-0|text|3227/6||
0205.txt|MMI|0.52|Front of neck|C0446455|[blor]|"Cervix"-text-8-"Cervix"-NN-0|text|729/6||
0205.txt|MMI|0.52|Full Term Birth|C3814420|[fndg]|"Full Term Pregnancy"-text-29-"Full term pregnancy"-VB-0|text|3091/19||
0205.txt|MMI|0.52|Gender:Type:Point in time:^Patient:Nominal|C0804628|[clna]|"Sex"-text-24-"Sex"-NN-0|text|83/3||
0205.txt|MMI|0.52|Greater|C1704243|[qnco]|"Great"-text-0-"great"-JJ-0|text|2420/5||
0205.txt|MMI|0.52|HADH gene|C1415458|[gngm]|"HAD"-text-0-"had"-VBD-0|text|1388/3||
0205.txt|MMI|0.52|Have|C3539897|[qlco]|"Had"-text-0-"had"-VBD-0|text|1388/3||
0205.txt|MMI|0.52|Hematocrit procedure|C0018935|[lbpr]|"HCT"-text-0-"Hct"-NNP-0|text|2216/3||
0205.txt|MMI|0.52|Hemopoietic stem cell transplant|C0472699|[topp]|"HCT"-text-0-"Hct"-NNP-0|text|2216/3||
0205.txt|MMI|0.52|IMWG Minimal Response|C5202609|[fndg]|"Minimal Response"-text-60-"minimal response"-JJ-0|text|1611/16||
0205.txt|MMI|0.52|In Blood|C0005768|[bdsu]|"blood"-text-4-"BLOOD"-NNP-0|text|791/5||
0205.txt|MMI|0.52|LARGE1 gene|C1416798|[gngm]|"LARGE"-text-0-"large"-JJ-0|text|1394/5||
0205.txt|MMI|0.52|Medical Examination|C0582103|[hlca]|"Exam"-text-87-"exam"-NN-0|text|3300/4||
0205.txt|MMI|0.52|Medical History|C0262926|[fndg]|"Past Medical History"-text-0-"Past Medical History"-NNP-0|text|492/20||
0205.txt|MMI|0.52|Medications on admission|C1627937|[fndg]|"Medications on admission"-text-0-"Medications on Admission"-NNS-0|text|2705/24||
0205.txt|MMI|0.52|Methods aspects|C0025664|[ftcn]|"procedures"-text-0-"procedures"-NNS-0|text|2065/10||
0205.txt|MMI|0.52|Microplate Well|C4283957|[spco]|"Well"-text-0-"well"-RB-0|text|2291/4||
0205.txt|MMI|0.52|Minimal Response|C4761530|[fndg]|"Minimal Response"-text-60-"minimal response"-JJ-0|text|1611/16||
0205.txt|MMI|0.52|Monday|C0585024|[tmco]|"Monday"-text-89-"MOnday"-NNP-0|text|3305/6||
0205.txt|MMI|0.52|Multiplicative Product|C1704444|[qnco]|"Product"-text-0-"product"-NN-0|text|2256/7||
0205.txt|MMI|0.52|Non-human parturition, function|C1314680|[orgf]|"Delivery"-text-0-"delivery"-NN-0|text|1274/8||
0205.txt|MMI|0.52|Note (document)|C1317574|[inpr]|"notes"-text-4-"notes"-NNS-0|text|2092/5||
0205.txt|MMI|0.52|Obstetric Patient|C0700061|[podg]|"Obstetrics"-text-34-"OBSTETRICS"-NNP-0|text|101/10||
0205.txt|MMI|0.52|Obstetrics service|C0587597|[hlca]|"Obstetrics"-text-34-"OBSTETRICS"-NNP-0|text|101/10||
0205.txt|MMI|0.52|Off|C1518543|[qlco]|"Off"-text-4-"off"-IN-0|text|2489/3||
0205.txt|MMI|0.52|On admission|C0457453|[tmco]|"On admission"-text-16-"on admission"-IN-0|text|659/12||
0205.txt|MMI|0.52|Only - dosing instruction fragment|C1720467|[inpr]|"Only"-text-10-"only"-JJ-0|text|2201/4||
0205.txt|MMI|0.52|Other uterotonics in ATC|C3653843|[phsu]|"UTEROTONICS"-text-18-"uterotonics"-NNS-0|text|1515/11||
0205.txt|MMI|0.52|Overall Publication Type|C0282416|[inpr]|"Overall"-text-0-"Overall"-RB-0|text|2134/7||
0205.txt|MMI|0.52|PLXNA3 gene|C1418662|[gngm]|"SEX"-text-24-"Sex"-NN-0|text|83/3||
0205.txt|MMI|0.52|PMH - past medical history|C0455458|[fndg]|"Past medical history"-text-0-"Past Medical History"-NNP-0|text|492/20||
0205.txt|MMI|0.52|Patient currently pregnant|C0549206|[fndg]|"Gravid"-text-0-"Gravid"-NNP-0|text|699/6||
0205.txt|MMI|0.52|Patient date of birth|C0421451|[tmco]|"Date of birth"-text-14-"Date of Birth"-NNP-0|text|56/13||
0205.txt|MMI|0.52|Pharmaceutical Brush Device|C4724238|[medd]|"Brush"-text-0-"Brush"-NNP-0|text|3460/5||
0205.txt|MMI|0.52|Pharmacologic Substance|C1254351|[phsu]|"Product"-text-0-"product"-NN-0|text|2256/7||
0205.txt|MMI|0.52|Physical Medical Procedure|C3274430|[hlca]|"PROCEDURE"-text-0-"procedure"-NN-0|text|1828/9||
0205.txt|MMI|0.52|Poisoning by, adverse effect of and underdosing of sulfonamides|C2876788|[inpo]|"Sulfonamides"-text-44-"Sulfonamides"-NNS-0|text|137/12||
0205.txt|MMI|0.52|Post|C0687676|[tmco]|"After"-text-0-"After"-IN-0|text|1817/5||
0205.txt|MMI|0.52|Prenatal (temporal qualifier)|C2828394|[tmco]|"Antenatal"-text-0-"Antenatal"-JJ-0|text|466/9||
0205.txt|MMI|0.52|Pressors|C0237795|[phsu]|"Pressors"-text-8-"pressors"-NNS-0|text|2192/8||
0205.txt|MMI|0.52|Problems - What subject filter|C1546466|[idcn]|"Problems"-text-2-"problems"-NNS-0|text|2603/8||
0205.txt|MMI|0.52|Procedure Code|C1550373|[inpr]|"PROCEDURES"-text-0-"procedures"-NNS-0|text|2065/10||
0205.txt|MMI|0.52|Procedure Domain|C3538935|[inpr]|"Procedures"-text-0-"procedures"-NNS-0|text|2065/10||
0205.txt|MMI|0.52|Procedure:Type:Point in time:^Patient:Narrative|C0945766|[clna]|"Procedure"-text-0-"procedure"-NN-0|text|1828/9||
0205.txt|MMI|0.52|Progress|C1280477|[ftcn]|"Progress"-text-0-"progress"-NN-0|text|2426/8||
0205.txt|MMI|0.52|RXFP2 gene|C1424898|[gngm]|"GREAT"-text-0-"great"-JJ-0|text|2420/5||
0205.txt|MMI|0.52|Range|C1514721|[qnco]|"Range"-text-0-"range"-NN-0|text|2245/5||
0205.txt|MMI|0.52|Reexploration procedure|C1293095|[diap]|"Reexploration"-text-24-"reexploration"-NN-0|text|1914/13||
0205.txt|MMI|0.52|Regulatory Report|C3273238|[inpr]|"Report"-text-16-"Report"-NNP-0|text|3504/6||
0205.txt|MMI|0.52|Removal of staples|C0204864|[topp]|"staple removal"-text-95-"staple removal"-NN-0|text|3316/14||
0205.txt|MMI|0.52|Removed|C0849355|[qlco]|"Removed"-text-0-"removed"-VBN-0|text|2572/7||
0205.txt|MMI|0.52|Report (document)|C0684224|[inpr]|"Report"-text-16-"Report"-NNP-0|text|3504/6||
0205.txt|MMI|0.52|Report:Finding:Point in time:{Setting}:Document:{Role}|C4255046|[clna]|"Report"-text-16-"Report"-NNP-0|text|3504/6||
0205.txt|MMI|0.52|Reporting|C0700287|[hlca]|"report"-text-16-"Report"-NNP-0|text|3504/6||
0205.txt|MMI|0.52|Sample Range|C2348147|[qnco]|"Range"-text-0-"range"-NN-0|text|2245/5||
0205.txt|MMI|0.52|See|C1947903|[acty]|"See"-text-0-"see"-VB-0|text|2085/3||
0205.txt|MMI|0.52|Services|C0557854|[ocac]|"service"-text-30-"Service"-NNP-0|text|91/7||
0205.txt|MMI|0.52|Sexual intercourse - finding|C1314687|[fndg]|"Sex"-text-24-"Sex"-NN-0|text|83/3||
0205.txt|MMI|0.52|Signature|C1519316|[inpr]|"Signed"-text-22-"Signed"-VBN-0|text|3410/6||
0205.txt|MMI|0.52|Singular|C0205171|[qnco]|"Only"-text-10-"only"-JJ-0|text|2201/4||
0205.txt|MMI|0.52|Social History|C3714536|[fndg]|"Social History"-text-0-"Social History"-NNP-0|text|568/14||
0205.txt|MMI|0.52|Social and personal history|C0424945|[fndg]|"Social history"-text-0-"Social History"-NNP-0|text|568/14||
0205.txt|MMI|0.52|Software Service|C2825316|[mnob]|"Service"-text-30-"Service"-NNP-0|text|91/7||
0205.txt|MMI|0.52|Specimen Source Codes - Brushing|C1546566|[inpr]|"Brush"-text-0-"Brush"-NNP-0|text|3460/5||
0205.txt|MMI|0.52|Status post|C0231290|[tmco]|"After"-text-0-"After"-IN-0|text|1817/5||
0205.txt|MMI|0.52|Stop (qualifier value)|C2746065|[tmco]|"End"-text-12-"End"-NN-0|text|3497/3||
0205.txt|MMI|0.52|Sulfonamide Anti-Infective Agents|C0599503|[antb, orch]|"Sulfonamides"-text-44-"Sulfonamides"-NNS-0|text|137/12||
0205.txt|MMI|0.52|Sulfonamides, Gynecological|C3539179|[orch, phsu]|"Sulfonamides"-text-44-"Sulfonamides"-NNS-0|text|137/12||
0205.txt|MMI|0.52|Sulfonamides, intestinal antiinfectives|C3541963|[orch, phsu]|"Sulfonamides"-text-44-"Sulfonamides"-NNS-0|text|137/12||
0205.txt|MMI|0.52|Sulfonamides, ophthalmologic antiinfectives|C3541962|[orch, phsu]|"Sulfonamides"-text-44-"Sulfonamides"-NNS-0|text|137/12||
0205.txt|MMI|0.52|Sulfonamides, topical|C3539184|[orch]|"Sulfonamides"-text-44-"Sulfonamides"-NNS-0|text|137/12||
0205.txt|MMI|0.52|Taken|C1883727|[cnce]|"Taken"-text-12-"taken"-VBN-0|text|1889/5||
0205.txt|MMI|0.52|Then|C1883708|[tmco]|"Soon After"-text-0-"Soon after"-RB-0|text|1358/10||
0205.txt|MMI|0.52|Transferred from|C4034473|[hlca]|"Transferred from"-text-0-"transferred from"-VBN-0|text|2346/16||
0205.txt|MMI|0.52|Transferred to|C4049693|[fndg]|"Transferred to"-text-0-"transferred to"-VBN-0|text|1308/14||
0205.txt|MMI|0.52|Transferred to:Loc:Pt:^Patient:Nom|C4049692|[clna]|"Transferred to"-text-0-"transferred to"-VBN-0|text|1308/14||
0205.txt|MMI|0.52|Transfusion (procedure)|C1879316|[topp]|"Transfusions"-text-2-"transfusions"-NNS-0|text|2264/12||
0205.txt|MMI|0.52|Transfusion - action|C0199960|[ftcn]|"transfusions"-text-2-"transfusions"-NNS-0|text|2264/12||
0205.txt|MMI|0.52|Treated with|C0332293|[topp]|"Treated with"-text-0-"treated with"-VBN-0|text|1434/12||
0205.txt|MMI|0.52|Treating|C1522326|[ftcn]|"treated with"-text-0-"treated with"-VBN-0|text|1434/12||
0205.txt|MMI|0.52|Unit|C0439148|[qnco]|"Units"-text-0-"units"-NNS-0|text|1776/5||
0205.txt|MMI|0.52|Unit - NCI Thesaurus Property|C3853603|[qnco]|"Units"-text-0-"units"-NNS-0|text|1776/5||
0205.txt|MMI|0.52|Unit of Measure|C1519795|[qnco]|"Units"-text-0-"units"-NNS-0|text|1776/5||
0205.txt|MMI|0.52|VARIOUS DRUG CLASSES IN ATC|C3540763|[phsu]|"VARIOUS"-text-16-"various"-JJ-0|text|1507/7||
0205.txt|MMI|0.52|Various patch test substance|C0440102|[irda]|"Various"-text-16-"various"-JJ-0|text|1507/7||
0205.txt|MMI|0.52|Wedding|C0681211|[evnt]|"wed"-text-0-"WED"-NNP-0|text|3471/3||
0205.txt|MMI|0.52|Well|C3146287|[mnob]|"Well"-text-0-"well"-RB-0|text|2291/4||
0205.txt|MMI|0.52|Well Marginated Nodule|C4761387|[fndg]|"Well"-text-0-"well"-RB-0|text|2291/4||
0205.txt|MMI|0.52|White Blood Cell Count procedure|C0023508|[lbpr]|"WBC"-text-6-"WBC"-NNP-0|text|797/3||
0205.txt|MMI|0.52|antibiotics, intestinal|C3540709|[antb]|"Antibiotics"-text-6-"antibiotics"-NNS-0|text|2493/11||
0205.txt|MMI|0.52|dictated - DocumentCompletion|C1609990|[idcn]|"dictated"-text-6-"dictated"-VBN-0|text|2098/8||
0205.txt|MMI|0.52|dictated - ParticipationMode|C1548384|[ftcn]|"dictated"-text-6-"dictated"-VBN-0|text|2098/8||
0205.txt|MMI|0.52|end - ActRelationshipCheckpoint|C1561490|[ftcn]|"end"-text-12-"End"-NN-0|text|3497/3||
0205.txt|MMI|0.52|follow-up|C1522577|[hlca]|"Followup"-text-73-"Followup"-IN-0|text|3255/8||
0205.txt|MMI|0.52|peripheral blood|C0229664|[bdsu]|"Blood"-text-4-"BLOOD"-NNP-0|text|791/5||
0205.txt|MMI|0.52|product - ParticipationType|C1550506|[sbst]|"product"-text-0-"product"-NN-0|text|2256/7||
0205.txt|MMI|0.52|signed - ParticipationSignature|C1561610|[inpr]|"signed"-text-22-"Signed"-VBN-0|text|3410/6||
0205.txt|MMI|0.52|status - In progress|C1272688|[ftcn]|"progress"-text-0-"progress"-NN-0|text|2426/8||
0205.txt|MMI|0.52|various allergen extracts|C3540765|[imft, phsu]|"various"-text-16-"various"-JJ-0|text|1507/7||
0205.txt|MMI|0.52|various antiinfectives and antiseptics for local oral treatment|C3540008|[phsu]|"various"-text-16-"various"-JJ-0|text|1507/7||
0205.txt|MMI|0.52|various antiseptic throat preparations|C3540766|[phsu]|"various"-text-16-"various"-JJ-0|text|1507/7||
0205.txt|MMI|0.52|various other agents for local oral treatment in ATC|C3540762|[phsu]|"various"-text-16-"various"-JJ-0|text|1507/7||
0205.txt|MMI|0.52|various other intestinal adsorbents in ATC|C3540769|[phsu]|"various"-text-16-"various"-JJ-0|text|1507/7||
0205.txt|MMI|0.52|various other nasal preparations in ATC|C3540761|[phsu]|"various"-text-16-"various"-JJ-0|text|1507/7||
0205.txt|MMI|0.50|300|C4319604|[qnco]|"300"-text-0-"300"-CD-0|text|1287/3||
0205.txt|MMI|0.50|6000|C3842326|[qnco]|"6000"-text-0-"6000"-CD-0|text|1727/4||
0205.txt|MMI|0.50|Administration Method - Pain|C1549543|[ftcn]|"Pain"-text-0-"pain"-NN-0|text|2511/4||
0205.txt|MMI|0.50|Adverse Event Associated with Pain|C1557397|[fndg]|"PAIN"-text-0-"pain"-NN-0|text|2511/4||
0205.txt|MMI|0.50|Arabic numeral 100|C1704407|[qnco]|"100"-text-26-"100"-CD-0|text|1544/3||
0205.txt|MMI|0.50|Body Fluid Discharge|C0012621|[bdsu]|"Discharge"-text-53-"Discharge"-NNP-0|text|3173/9||
0205.txt|MMI|0.50|CDISC SDTM Discharge Disposition Terminology|C3541348|[inpr]|"Discharge Disposition"-text-13-"Discharge Disposition"-NNP-0|text|3040/21||
0205.txt|MMI|0.50|Completed By (qualifier)|C2349181|[qlco]|"Completed By"-text-0-"Completed by"-VBN-0|text|3356/12||
0205.txt|MMI|0.50|Discharge date|C2361123|[tmco]|"Discharge date"-text-0-"Discharge Date"-NNP-0|text|28/14||
0205.txt|MMI|0.50|Discharge date:Time Stamp -- Date and Time:Point in time:^Patient:Quantitative|C2361122|[clna]|"Discharge date"-text-0-"Discharge Date"-NNP-0|text|28/14||
0205.txt|MMI|0.50|Discharge disposition:Type:Point in time:^Patient:Nominal|C2708314|[clna]|"Discharge disposition"-text-13-"Discharge Disposition"-NNP-0|text|3040/21||
0205.txt|MMI|0.50|Discharge instructions|C4282220|[inpr]|"Discharge instructions"-text-63-"Discharge Instructions"-JJ-0|text|3202/22||
0205.txt|MMI|0.50|Discharge instructions:Find:Pt:{Setting}:Doc:{Provider}|C3669312|[clna]|"Discharge instructions"-text-63-"Discharge Instructions"-JJ-0|text|3202/22||
0205.txt|MMI|0.50|Discharge, Body Substance, Sample|C0600083|[bdsu]|"Discharge"-text-53-"Discharge"-NNP-0|text|3173/9||
0205.txt|MMI|0.50|Discharge, body substance|C2926602|[sosy]|"Discharge"-text-53-"Discharge"-NNP-0|text|3173/9||
0205.txt|MMI|0.50|Disposition of patient discharged|C4759848|[fndg]|"Discharge disposition"-text-13-"Discharge Disposition"-NNP-0|text|3040/21||
0205.txt|MMI|0.50|Entire vaginal artery|C1280154|[bpoc]|"Vaginal artery"-text-38-"vaginal artery"-JJ-0|text|1955/14||
0205.txt|MMI|0.50|Feel Pain|C4554132|[inpr]|"Pain"-text-0-"pain"-NN-0|text|2511/4||
0205.txt|MMI|0.50|Frequency of Pain Question|C0518090|[inpr]|"Pain"-text-0-"pain"-NN-0|text|2511/4||
0205.txt|MMI|0.50|Have Pain|C2984058|[inpr]|"Pain"-text-0-"pain"-NN-0|text|2511/4||
0205.txt|MMI|0.50|How Much Distress Pain|C4085212|[inpr]|"Pain"-text-0-"pain"-NN-0|text|2511/4||
0205.txt|MMI|0.50|Karnofsky Performance Status 100|C3829431|[fndg]|"100"-text-26-"100"-CD-0|text|1544/3||
0205.txt|MMI|0.50|Marriage, life event|C0024841|[fndg]|"Married"-text-0-"Married"-NNP-0|text|585/7||
0205.txt|MMI|0.50|Married (finding)|C0555047|[fndg]|"Married"-text-0-"Married"-NNP-0|text|585/7||
0205.txt|MMI|0.50|Medication.discharge|C0806915|[fndg]|"Discharge medications"-text-0-"Discharge Medications"-NNP-0|text|2741/21||
0205.txt|MMI|0.50|Normal diet|C0184625|[dora]|"Regular diet"-text-0-"regular diet"-JJ-0|text|2637/12||
0205.txt|MMI|0.50|One Thousand|C1883310|[qnco]|"1000"-text-52-"1000"-CD-0|text|1596/4||
0205.txt|MMI|0.50|Pain Distress Question|C4085211|[inpr]|"Pain"-text-0-"pain"-NN-0|text|2511/4||
0205.txt|MMI|0.50|Pain by Anatomic Descriptor, CTCAE|C1882272|[fndg]|"Pain"-text-0-"pain"-NN-0|text|2511/4||
0205.txt|MMI|0.50|Pain, CTCAE|C4553004|[fndg]|"Pain"-text-0-"pain"-NN-0|text|2511/4||
0205.txt|MMI|0.50|Pain:-:Point in time:^Patient:-|C2598155|[clna]|"Pain"-text-0-"pain"-NN-0|text|2511/4||
0205.txt|MMI|0.50|Specimen Source Codes - Discharge|C1546601|[inpr]|"Discharge"-text-53-"Discharge"-NNP-0|text|3173/9||
0205.txt|MMI|0.50|Structure of vaginal artery|C0226381|[bpoc]|"Vaginal artery"-text-38-"vaginal artery"-JJ-0|text|1955/14||
0205.txt|MMI|0.50|Usual Severity Pain|C4085210|[inpr]|"Pain"-text-0-"pain"-NN-0|text|2511/4||
0205.txt|MMI|0.50|Vaginal Hemorrhage|C2979982|[patf]|"BLEEDING VAGINAL"-text-36-"bleeding vaginal"-VBG-0|text|1946/16||
0205.txt|MMI|0.50|discharge diagnosis|C1555319|[fndg]|"discharge diagnosis"-text-21-"Discharge Diagnosis"-NNP-0|text|3069/19||
