0206.txt|MMI|275.05|Wiskott-Aldrich Syndrome|C0043194|[dsyn]|"WAS"-text-14-"was"-VBD-0,"WAS"-text-0-"was"-VBD-0,"WAS"-text-0-"was"-VBD-0,"WAS"-text-0-"was"-VBD-0,"WAS"-text-0-"was"-VBD-0,"WAS"-text-0-"was"-VBD-0,"WAS"-text-0-"was"-VBD-0,"WAS"-text-0-"was"-VBD-0,"WAS"-text-0-"was"-VBD-0,"WAS"-text-0-"was"-VBD-0,"WAS"-text-4-"was"-VBD-0,"WAS"-text-0-"was"-VBD-0,"WAS"-text-0-"was"-VBD-0,"WAS"-text-0-"was"-VBD-0,"WAS"-text-0-"was"-VBD-0,"WAS"-text-0-"was"-VBD-0,"WAS"-text-0-"was"-VBD-0|text|543/3;2082/3;2241/3;2362/3;2382/3;2432/3;2476/3;2490/3;2584/3;2651/3;2707/3;2831/3;2879/3;2938/3;2992/3;3090/3;3302/3|C20.673.627.900;C15.378.553.546.605.900;C16.320.798.875;C20.673.795.875;C16.320.322.937;C15.378.463.960;C16.320.099.970;C15.378.100.100.970|
0206.txt|MMI|63.70|histidine|C0019602|[bacs, aapp, phsu]|"HIS"-text-0-"his"-PRP$-0,"HIS"-text-0-"his"-PRP$-0,"HIS"-text-22-"his"-PRP$-0,"HIS"-text-0-"his"-PRP$-0,"HIS"-text-0-"His"-PRP$-0,"HIS"-text-0-"his"-PRP$-0,"HIS"-text-0-"His"-PRP$-0,"HIS"-text-0-"his"-PRP$-0,"HIS"-text-0-"his"-PRP$-0,"HIS"-text-0-"His"-PRP$-0,"HIS"-text-0-"his"-PRP$-0,"HIS"-text-0-"His"-PRP$-0,"HIS"-text-0-"His"-PRP$-0,"HIS"-text-0-"His"-PRP$-0,"HIS"-text-0-"his"-PRP$-0,"HIS"-text-0-"His"-PRP$-0,"HIS"-text-0-"his"-PRP$-0|text|659/3;867/3;1070/3;1470/3;1486/3;1577/3;1743/3;1786/3;2399/3;2461/3;2620/3;2846/3;2979/3;3075/3;3282/3;4053/3;4127/3|D12.125.072.329;D12.125.142.308|
0206.txt|MMI|32.38|WAS protein, human|C1565156|[bacs, aapp]|"WAS"-text-14-"was"-VBD-0,"WAS"-text-0-"was"-VBD-0,"WAS"-text-0-"was"-VBD-0,"WAS"-text-0-"was"-VBD-0,"WAS"-text-0-"was"-VBD-0,"WAS"-text-0-"was"-VBD-0,"WAS"-text-0-"was"-VBD-0,"WAS"-text-0-"was"-VBD-0,"WAS"-text-0-"was"-VBD-0,"WAS"-text-0-"was"-VBD-0,"WAS"-text-4-"was"-VBD-0,"WAS"-text-0-"was"-VBD-0,"WAS"-text-0-"was"-VBD-0,"WAS"-text-0-"was"-VBD-0,"WAS"-text-0-"was"-VBD-0,"WAS"-text-0-"was"-VBD-0,"WAS"-text-0-"was"-VBD-0|text|543/3;2082/3;2241/3;2362/3;2382/3;2432/3;2476/3;2490/3;2584/3;2651/3;2707/3;2831/3;2879/3;2938/3;2992/3;3090/3;3302/3|x.x.x.x|
0206.txt|MMI|26.00|Andorra|C0002838|[geoa]|"AND"-text-4-"and"-CC-0,"AND"-text-12-"and"-CC-0,"AND"-text-0-"and"-CC-0,"AND"-text-14-"and"-CC-0,"AND"-text-0-"and"-CC-0,"AND"-text-0-"and"-CC-0,"AND"-text-0-"and"-CC-0,"AND"-text-0-"AND"-CC-0,"AND"-text-44-"and"-CC-0,"AND"-text-20-"and"-CC-0,"AND"-text-0-"and"-CC-0,"AND"-text-16-"and"-CC-0,"AND"-text-0-"and"-CC-0,"AND"-text-2-"and"-CC-0,"AND"-text-2-"and"-CC-0,"AND"-text-18-"and"-CC-0,"AND"-text-0-"and"-CC-0,"AND"-text-4-"and"-CC-0|text|358/3;707/3;788/3;829/3;877/3;1638/3;1690/3;1813/3;1958/3;2135/3;2237/3;2290/3;2395/3;2534/3;2703/3;2744/3;3008/3;4206/3|Z01.542.049|
0206.txt|MMI|16.70|Pain|C0030193|[sosy]|"Pain"-text-0-"pain"-NN-0,"Pain"-text-0-"pain"-NN-0,"Pain"-text-0-"pain"-NN-0|text|663/4;3554/4;3747/4|G11.561.790.444;F02.830.816.444;C23.888.592.612|
0206.txt|MMI|14.99|Postoperative Period|C0032790|[tmco]|"Postoperative"-text-0-"postoperative"-JJ-0,"Postoperative"-text-0-"postoperative"-JJ-0,"Postoperative"-text-0-"postoperative"-JJ-0,"Postoperative"-text-0-"postoperative"-JJ-0|text|2337/13;2774/13;2911/13;3104/13|N02.421.585.753.750;E04.614.750|
0206.txt|MMI|13.94|Asthma|C0004096|[dsyn]|"Asthma"-text-0-"Asthma"-NNP-0,"Asthma"-text-0-"Asthma"-NNP-0|text|315/6;988/6|C20.543.480.680.095;C08.127.108;C08.674.095;C08.381.495.108|
0206.txt|MMI|13.06|Class|C0456387|[inpr]|"Class"-text-0-"Class"-NNP-0,"Class"-text-14-"CLASS"-NNP-0,"Class"-text-67-"CLASS"-NNP-0,"Class"-text-118-"CLASS"-NNP-0|text|4473/5;4603/5;4675/5;4760/5|L01.453.245.275;L01.100;Y19|
0206.txt|MMI|13.06|Classification|C0008902|[clas]|"CLASS"-text-0-"Class"-NNP-0,"CLASS"-text-14-"CLASS"-NNP-0,"CLASS"-text-67-"CLASS"-NNP-0,"CLASS"-text-118-"CLASS"-NNP-0|text|4473/5;4603/5;4675/5;4760/5|L01.453.245.275;L01.100;Y19|
0206.txt|MMI|10.26|International Normalized Ratio|C0525032|[lbpr]|"INR"-text-5-"INR"-NN-0,"INR"-text-28-"INR"-NN-0|text|3668/3;4423/3|E01.370.225.625.115.320;E05.200.625.115.320|
0206.txt|MMI|9.42|And|C1515981|[idcn]|"And"-text-4-"and"-CC-0,"And"-text-12-"and"-CC-0,"And"-text-0-"and"-CC-0,"And"-text-14-"and"-CC-0,"And"-text-0-"and"-CC-0,"And"-text-0-"and"-CC-0,"And"-text-0-"and"-CC-0,"And"-text-0-"AND"-CC-0,"And"-text-44-"and"-CC-0,"And"-text-20-"and"-CC-0,"And"-text-0-"and"-CC-0,"And"-text-16-"and"-CC-0,"And"-text-0-"and"-CC-0,"And"-text-2-"and"-CC-0,"And"-text-2-"and"-CC-0,"And"-text-18-"and"-CC-0,"And"-text-0-"and"-CC-0,"And"-text-4-"and"-CC-0|text|358/3;707/3;788/3;829/3;877/3;1638/3;1690/3;1813/3;1958/3;2135/3;2237/3;2290/3;2395/3;2534/3;2703/3;2744/3;3008/3;4206/3||
0206.txt|MMI|9.42|And - dosing instruction fragment|C1706368|[inpr]|"And"-text-4-"and"-CC-0,"And"-text-12-"and"-CC-0,"And"-text-0-"and"-CC-0,"And"-text-14-"and"-CC-0,"And"-text-0-"and"-CC-0,"And"-text-0-"and"-CC-0,"And"-text-0-"and"-CC-0,"And"-text-0-"AND"-CC-0,"And"-text-44-"and"-CC-0,"And"-text-20-"and"-CC-0,"And"-text-0-"and"-CC-0,"And"-text-16-"and"-CC-0,"And"-text-0-"and"-CC-0,"And"-text-2-"and"-CC-0,"And"-text-2-"and"-CC-0,"And"-text-18-"and"-CC-0,"And"-text-0-"and"-CC-0,"And"-text-4-"and"-CC-0|text|358/3;707/3;788/3;829/3;877/3;1638/3;1690/3;1813/3;1958/3;2135/3;2237/3;2290/3;2395/3;2534/3;2703/3;2744/3;3008/3;4206/3||
0206.txt|MMI|9.42|RelationshipConjunction - and|C1550557|[inpr]|"and"-text-4-"and"-CC-0,"and"-text-12-"and"-CC-0,"and"-text-0-"and"-CC-0,"and"-text-14-"and"-CC-0,"and"-text-0-"and"-CC-0,"and"-text-0-"and"-CC-0,"and"-text-0-"and"-CC-0,"and"-text-0-"AND"-CC-0,"and"-text-44-"and"-CC-0,"and"-text-20-"and"-CC-0,"and"-text-0-"and"-CC-0,"and"-text-16-"and"-CC-0,"and"-text-0-"and"-CC-0,"and"-text-2-"and"-CC-0,"and"-text-2-"and"-CC-0,"and"-text-18-"and"-CC-0,"and"-text-0-"and"-CC-0,"and"-text-4-"and"-CC-0|text|358/3;707/3;788/3;829/3;877/3;1638/3;1690/3;1813/3;1958/3;2135/3;2237/3;2290/3;2395/3;2534/3;2703/3;2744/3;3008/3;4206/3||
0206.txt|MMI|9.27|Informed Consent|C0021430|[rnlw]|"Informed Consent"-text-58-"informed consent"-VBN-0|text|1999/16|I01.880.604.583.427;N03.706.535.489;N03.706.437.650.312;I01.880.604.473.650.718|
0206.txt|MMI|9.27|Risk|C0035647|[idcn]|"Risks"-text-38-"risks"-NNS-0|text|1941/5|G17.680.750;N06.850.520.830.600.800;N05.715.360.750.625.700;E05.318.740.600.800|
0206.txt|MMI|8.90|AKR1B10 gene|C1412323|[gngm]|"HIS"-text-0-"his"-PRP$-0,"HIS"-text-0-"his"-PRP$-0,"HIS"-text-22-"his"-PRP$-0,"HIS"-text-0-"his"-PRP$-0,"HIS"-text-0-"His"-PRP$-0,"HIS"-text-0-"his"-PRP$-0,"HIS"-text-0-"His"-PRP$-0,"HIS"-text-0-"his"-PRP$-0,"HIS"-text-0-"his"-PRP$-0,"HIS"-text-0-"His"-PRP$-0,"HIS"-text-0-"his"-PRP$-0,"HIS"-text-0-"His"-PRP$-0,"HIS"-text-0-"His"-PRP$-0,"HIS"-text-0-"His"-PRP$-0,"HIS"-text-0-"his"-PRP$-0,"HIS"-text-0-"His"-PRP$-0,"HIS"-text-0-"his"-PRP$-0|text|659/3;867/3;1070/3;1470/3;1486/3;1577/3;1743/3;1786/3;2399/3;2461/3;2620/3;2846/3;2979/3;3075/3;3282/3;4053/3;4127/3||
0206.txt|MMI|8.90|Histidine measurement|C0523697|[lbpr]|"HIS"-text-0-"his"-PRP$-0,"HIS"-text-0-"his"-PRP$-0,"HIS"-text-22-"his"-PRP$-0,"HIS"-text-0-"his"-PRP$-0,"HIS"-text-0-"His"-PRP$-0,"HIS"-text-0-"his"-PRP$-0,"HIS"-text-0-"His"-PRP$-0,"HIS"-text-0-"his"-PRP$-0,"HIS"-text-0-"his"-PRP$-0,"HIS"-text-0-"His"-PRP$-0,"HIS"-text-0-"his"-PRP$-0,"HIS"-text-0-"His"-PRP$-0,"HIS"-text-0-"His"-PRP$-0,"HIS"-text-0-"His"-PRP$-0,"HIS"-text-0-"his"-PRP$-0,"HIS"-text-0-"His"-PRP$-0,"HIS"-text-0-"his"-PRP$-0|text|659/3;867/3;1070/3;1470/3;1486/3;1577/3;1743/3;1786/3;2399/3;2461/3;2620/3;2846/3;2979/3;3075/3;3282/3;4053/3;4127/3||
0206.txt|MMI|8.90|Structure of hippocampal fissure|C0228251|[bsoj]|"his"-text-0-"his"-PRP$-0,"his"-text-0-"his"-PRP$-0,"his"-text-22-"his"-PRP$-0,"his"-text-0-"his"-PRP$-0,"his"-text-0-"His"-PRP$-0,"his"-text-0-"his"-PRP$-0,"his"-text-0-"His"-PRP$-0,"his"-text-0-"his"-PRP$-0,"his"-text-0-"his"-PRP$-0,"his"-text-0-"His"-PRP$-0,"his"-text-0-"his"-PRP$-0,"his"-text-0-"His"-PRP$-0,"his"-text-0-"His"-PRP$-0,"his"-text-0-"His"-PRP$-0,"his"-text-0-"his"-PRP$-0,"his"-text-0-"His"-PRP$-0,"his"-text-0-"his"-PRP$-0|text|659/3;867/3;1070/3;1470/3;1486/3;1577/3;1743/3;1786/3;2399/3;2461/3;2620/3;2846/3;2979/3;3075/3;3282/3;4053/3;4127/3||
0206.txt|MMI|8.90|WAS gene|C1421478|[gngm]|"WAS"-text-14-"was"-VBD-0,"WAS"-text-0-"was"-VBD-0,"WAS"-text-0-"was"-VBD-0,"WAS"-text-0-"was"-VBD-0,"WAS"-text-0-"was"-VBD-0,"WAS"-text-0-"was"-VBD-0,"WAS"-text-0-"was"-VBD-0,"WAS"-text-0-"was"-VBD-0,"WAS"-text-0-"was"-VBD-0,"WAS"-text-0-"was"-VBD-0,"WAS"-text-4-"was"-VBD-0,"WAS"-text-0-"was"-VBD-0,"WAS"-text-0-"was"-VBD-0,"WAS"-text-0-"was"-VBD-0,"WAS"-text-0-"was"-VBD-0,"WAS"-text-0-"was"-VBD-0,"WAS"-text-0-"was"-VBD-0|text|543/3;2082/3;2241/3;2362/3;2382/3;2432/3;2476/3;2490/3;2584/3;2651/3;2707/3;2831/3;2879/3;2938/3;2992/3;3090/3;3302/3||
0206.txt|MMI|8.90|Washoe language|C1555640|[lang]|"WAS"-text-14-"was"-VBD-0,"WAS"-text-0-"was"-VBD-0,"WAS"-text-0-"was"-VBD-0,"WAS"-text-0-"was"-VBD-0,"WAS"-text-0-"was"-VBD-0,"WAS"-text-0-"was"-VBD-0,"WAS"-text-0-"was"-VBD-0,"WAS"-text-0-"was"-VBD-0,"WAS"-text-0-"was"-VBD-0,"WAS"-text-0-"was"-VBD-0,"WAS"-text-4-"was"-VBD-0,"WAS"-text-0-"was"-VBD-0,"WAS"-text-0-"was"-VBD-0,"WAS"-text-0-"was"-VBD-0,"WAS"-text-0-"was"-VBD-0,"WAS"-text-0-"was"-VBD-0,"WAS"-text-0-"was"-VBD-0|text|543/3;2082/3;2241/3;2362/3;2382/3;2432/3;2476/3;2490/3;2584/3;2651/3;2707/3;2831/3;2879/3;2938/3;2992/3;3090/3;3302/3||
0206.txt|MMI|6.97|Acute lymphocytic leukemia|C0023449|[neop]|"ALL"-text-8-"all"-DT-0|text|1717/3|C04.557.337.428.600;C15.604.515.560.600;C20.683.515.528.600|
0206.txt|MMI|6.97|Precursor Cell Lymphoblastic Leukemia Lymphoma|C1961102|[neop]|"ALL"-text-8-"all"-DT-0|text|1717/3|C04.557.337.428.600;C15.604.515.560.600;C20.683.515.528.600|
0206.txt|MMI|6.03|Roentgen Rays|C0043309|[npop]|"X-Rays"-text-0-"X-rays"-NNP-0|text|1747/6|G01.750.250.970;G01.358.500.505.970;G01.750.750.918|
0206.txt|MMI|5.76|In addition to|C0332287|[ftcn]|"With"-text-0-"with"-IN-0,"With"-text-0-"with"-IN-0,"With"-text-0-"with"-IN-0,"With"-text-8-"with"-IN-0,"With"-text-12-"with"-IN-0,"With"-text-2-"with"-IN-0,"With"-text-4-"with"-IN-0,"With"-text-0-"with"-IN-0,"With"-text-16-"with"-IN-0,"With"-text-30-"with"-IN-0,"With"-text-0-"with"-IN-0|text|862/4;1447/4;1513/4;1851/4;2722/4;3019/4;4001/4;4180/4;4389/4;4427/4;4494/4||
0206.txt|MMI|5.76|With - dosing instruction fragment|C1705690|[inpr]|"With"-text-0-"with"-IN-0,"With"-text-0-"with"-IN-0,"With"-text-0-"with"-IN-0,"With"-text-8-"with"-IN-0,"With"-text-12-"with"-IN-0,"With"-text-2-"with"-IN-0,"With"-text-4-"with"-IN-0,"With"-text-0-"with"-IN-0,"With"-text-16-"with"-IN-0,"With"-text-30-"with"-IN-0,"With"-text-0-"with"-IN-0|text|862/4;1447/4;1513/4;1851/4;2722/4;3019/4;4001/4;4180/4;4389/4;4427/4;4494/4||
0206.txt|MMI|5.71|Constipation|C0009806|[sosy]|"Constipation"-text-6-"constipation"-NN-0,"Constipation"-text-0-"constipation"-NN-0,"Constipation"-text-0-"constipation"-NN-0|text|362/12;3605/12;3933/12|C23.888.821.150|
0206.txt|MMI|5.71|Coumadin|C0699129|[orch, phsu]|"Coumadin"-text-0-"Coumadin"-NNP-0,"Coumadin"-text-0-"Coumadin"-NNP-0,"Coumadin"-text-0-"Coumadin"-NNP-0|text|2505/8;3620/8;4319/8|x.x.x.x|
0206.txt|MMI|5.71|Date Fruit|C2348077|[food]|"Date"-text-8-"date"-NN-0,"Date"-text-28-"date"-NN-0,"Date"-text-10-"date"-NN-0|text|4106/4;4285/4;4373/4|x.x.x.x|
0206.txt|MMI|5.65|Vital signs|C0518766|[clna]|"Vital signs"-text-0-"vital signs"-JJ-0,"Vital signs"-text-0-"vital signs"-JJ-0,"Vital signs"-text-6-"vital signs"-JJ-0|text|2403/11;2850/11;2953/11|E01.370.600.875|
0206.txt|MMI|5.24|Facilitated oscillatory release technique|C1562169|[topp]|"FOR"-text-8-"for"-IN-0,"FOR"-text-60-"for"-IN-0,"FOR"-text-0-"for"-IN-0,"FOR"-text-6-"for"-IN-0,"FOR"-text-0-"for"-IN-0,"FOR"-text-18-"for"-IN-0,"FOR"-text-0-"for"-IN-0,"FOR"-text-0-"for"-IN-0,"FOR"-text-26-"for"-IN-0,"FOR"-text-2-"FOR"-IN-0|text|816/3;2016/3;2514/3;2544/3;2616/3;4254/3;4328/3;4348/3;4419/3;4563/3||
0206.txt|MMI|5.24|Preposition For|C0521125|[qlco]|"For"-text-8-"for"-IN-0,"For"-text-60-"for"-IN-0,"For"-text-0-"for"-IN-0,"For"-text-6-"for"-IN-0,"For"-text-0-"for"-IN-0,"For"-text-18-"for"-IN-0,"For"-text-0-"for"-IN-0,"For"-text-0-"for"-IN-0,"For"-text-26-"for"-IN-0,"For"-text-2-"FOR"-IN-0|text|816/3;2016/3;2514/3;2544/3;2616/3;4254/3;4328/3;4348/3;4419/3;4563/3||
0206.txt|MMI|5.24|WWOX gene|C1421525|[gngm]|"FOR"-text-8-"for"-IN-0,"FOR"-text-60-"for"-IN-0,"FOR"-text-0-"for"-IN-0,"FOR"-text-6-"for"-IN-0,"FOR"-text-0-"for"-IN-0,"FOR"-text-18-"for"-IN-0,"FOR"-text-0-"for"-IN-0,"FOR"-text-0-"for"-IN-0,"FOR"-text-26-"for"-IN-0,"FOR"-text-2-"FOR"-IN-0|text|816/3;2016/3;2514/3;2544/3;2616/3;4254/3;4328/3;4348/3;4419/3;4563/3||
0206.txt|MMI|5.24|WWOX wt Allele|C4321252|[gngm]|"FOR"-text-8-"for"-IN-0,"FOR"-text-60-"for"-IN-0,"FOR"-text-0-"for"-IN-0,"FOR"-text-6-"for"-IN-0,"FOR"-text-0-"for"-IN-0,"FOR"-text-18-"for"-IN-0,"FOR"-text-0-"for"-IN-0,"FOR"-text-0-"for"-IN-0,"FOR"-text-26-"for"-IN-0,"FOR"-text-2-"FOR"-IN-0|text|816/3;2016/3;2514/3;2544/3;2616/3;4254/3;4328/3;4348/3;4419/3;4563/3||
0206.txt|MMI|4.73|World Health Organization|C0043237|[hcro]|"WHO"-text-12-"who"-WP-0,"WHO"-text-22-"who"-WP-0|text|539/3;1895/3|N03.540.514.718.800|
0206.txt|MMI|4.69|Desiccation|C0011682|[npop]|"Dry"-text-0-"dry"-JJ-0,"Dry"-text-0-"dry"-JJ-0|text|3004/3;4140/3|G02.176;E05.196.335|
0206.txt|MMI|4.33|Disease|C0012634|[dsyn]|"DIS"-text-16-"DIS"-NNPS-0,"condition"-text-30-"condition"-NN-0,"condition"-text-0-"CONDITION"-NN-0|text|85/3;2322/9;3322/9|C23.550.288|
0206.txt|MMI|4.21|Hospice Care|C0085555|[hlca]|"Hospice"-text-8-"hospice"-NN-0|text|522/7|E02.760.905.400;N02.421.585.905.400|
0206.txt|MMI|4.21|Osteoarthritis of hip|C0029410|[dsyn]|"Hip Osteoarthritis"-text-88-"hip osteoarthritis"-NN-0|text|271/18|C05.799.613.400;C05.550.114.606.400|
0206.txt|MMI|4.19|day|C0439228|[tmco]|"day"-text-0-"day"-NN-0,"day"-text-0-"day"-NN-0,"day"-text-0-"day"-NN-0,"day"-text-0-"day"-NN-0,"day"-text-0-"day"-NN-0,"day"-text-0-"day"-NN-0,"day"-text-2-"day"-NN-0,"Days"-text-2-"days"-NNS-0|text|1320/3;2788/3;2925/3;3118/3;3443/3;3805/3;3853/3;4092/4||
0206.txt|MMI|3.81|Singulair|C0595724|[orch, phsu]|"Singulair"-text-0-"Singulair"-NNP-0,"Singulair"-text-0-"Singulair"-NNP-0|text|1326/9;3754/9|x.x.x.x|
0206.txt|MMI|3.81|Walkers|C0043016|[medd]|"Walker"-text-0-"walker"-NN-0,"Walker"-text-2-"walker"-NN-0|text|899/6;4199/6|E07.858.442.980|
0206.txt|MMI|3.73|Ultrasonography|C0041618|[diap]|"ultrasounds"-text-2-"ultrasounds"-NNS-0|text|3158/11|E01.370.350.850;x.x.x.x|
0206.txt|MMI|3.66|Daily|C0332173|[tmco]|"Day"-text-0-"day"-NN-0,"Day"-text-0-"day"-NN-0,"Day"-text-0-"day"-NN-0,"Day"-text-0-"day"-NN-0,"Day"-text-0-"day"-NN-0,"Day"-text-0-"day"-NN-0,"Day"-text-2-"day"-NN-0|text|1320/3;2788/3;2925/3;3118/3;3443/3;3805/3;3853/3||
0206.txt|MMI|3.66|Precision - day|C1561539|[idcn]|"day"-text-0-"day"-NN-0,"day"-text-0-"day"-NN-0,"day"-text-0-"day"-NN-0,"day"-text-0-"day"-NN-0,"day"-text-0-"day"-NN-0,"day"-text-0-"day"-NN-0,"day"-text-2-"day"-NN-0|text|1320/3;2788/3;2925/3;3118/3;3443/3;3805/3;3853/3||
0206.txt|MMI|3.66|Transaction counts and value totals - day|C1561538|[inpr]|"day"-text-0-"day"-NN-0,"day"-text-0-"day"-NN-0,"day"-text-0-"day"-NN-0,"day"-text-0-"day"-NN-0,"day"-text-0-"day"-NN-0,"day"-text-0-"day"-NN-0,"day"-text-2-"day"-NN-0|text|1320/3;2788/3;2925/3;3118/3;3443/3;3805/3;3853/3||
0206.txt|MMI|3.29|Hospitalization|C0019993|[hlca]|"Hospitalization"-text-0-"hospitalization"-NN-0|text|3286/15|N02.421.585.400;E02.760.400|
0206.txt|MMI|3.29|Muscle Strength|C0517349|[ortf]|"Muscle Strength"-text-4-"muscle strength"-NN-0|text|1698/15|G11.427.560;E01.370.600.425|
0206.txt|MMI|3.02|Entire right hip region|C1268233|[blor]|"Right hip"-text-86-"Right hip"-RB-0,"Right hip"-text-4-"right hip"-JJ-0,"Right hip"-text-0-"right hip"-JJ-0,"Right hip"-text-0-"right hip"-JJ-0,"Right hip"-text-4-"right hip"-JJ-0,"Right hip"-text-20-"right hip"-JJ-0|text|265/9;1474/9;1490/9;1581/9;1790/9;1885/9||
0206.txt|MMI|3.02|Right hip region structure|C0524470|[blor]|"Right hip"-text-86-"Right hip"-RB-0,"Right hip"-text-4-"right hip"-JJ-0,"Right hip"-text-0-"right hip"-JJ-0,"Right hip"-text-0-"right hip"-JJ-0,"Right hip"-text-4-"right hip"-JJ-0,"Right hip"-text-20-"right hip"-JJ-0|text|265/9;1474/9;1490/9;1581/9;1790/9;1885/9||
0206.txt|MMI|2.95|Patients|C0030705|[podg]|"Patient"-text-0-"patient"-NN-0,"Patient"-text-0-"patient"-NN-0,"Patient"-text-0-"patient"-NN-0|text|2074/7;2200/7;3977/7|M01.643|
0206.txt|MMI|2.89|Lower Extremity|C0023216|[bpoc]|"Lower Extremity"-text-0-"lower extremity"-JJR-0,"Lower Extremities"-text-32-"lower extremities"-JJR-0|text|3130/15;3245/17|A01.378.610|
0206.txt|MMI|2.83|Gastroesophageal reflux disease|C0017168|[dsyn]|"Gastroesophageal reflux disease"-text-0-"gastroesophageal reflux disease"-NN-0|text|324/31|C06.405.117.119.500.484|
0206.txt|MMI|2.83|folic acid|C0016410|[vita, orch, phsu]|"folic acid"-text-0-"Folic acid"-NNP-0|text|3383/10|D03.633.100.733.631.400|
0206.txt|MMI|2.62|Gender Status - Intact|C1554187|[fndg]|"Intact"-text-0-"intact"-JJ-0,"Intact"-text-0-"intact"-JJ-0,"Intact"-text-0-"intact"-JJ-0,"Intact"-text-0-"intact"-JJ-0,"Intact"-text-0-"intact"-JJ-0|text|1669/6;2452/6;2899/6;3012/6;3066/6||
0206.txt|MMI|2.62|Intact|C0205266|[qlco]|"Intact"-text-0-"intact"-JJ-0,"Intact"-text-0-"intact"-JJ-0,"Intact"-text-0-"intact"-JJ-0,"Intact"-text-0-"intact"-JJ-0,"Intact"-text-0-"intact"-JJ-0|text|1669/6;2452/6;2899/6;3012/6;3066/6||
0206.txt|MMI|2.62|Patient Condition Code - Stable|C1547311|[inpr]|"Stable"-text-28-"stable"-JJ-0,"Stable"-text-2-"stable"-JJ-0,"Stable"-text-0-"stable"-JJ-0,"Stable"-text-10-"stable"-JJ-0,"Stable"-text-0-"Stable"-NNP-0|text|2315/6;2420/6;2867/6;2970/6;3347/6||
0206.txt|MMI|2.62|Stable status|C0205360|[qlco]|"Stable"-text-28-"stable"-JJ-0,"Stable"-text-2-"stable"-JJ-0,"Stable"-text-0-"stable"-JJ-0,"Stable"-text-10-"stable"-JJ-0,"Stable"-text-0-"Stable"-NNP-0|text|2315/6;2420/6;2867/6;2970/6;3347/6||
0206.txt|MMI|2.37|Cellular Phone|C1136359|[mnob]|"Cell"-text-12-"cell"-NN-0|text|1040/4|L01.178.847.698.300|
0206.txt|MMI|2.34|Name|C0027365|[inpr]|"Name"-text-30-"NAME"-NNP-0|text|130/4|L01.559.598.400.556|
0206.txt|MMI|2.09|Have|C3539897|[qlco]|"Has"-text-0-"has"-VBZ-0,"Has"-text-0-"has"-VBZ-0,"Has"-text-0-"has"-VBZ-0,"Has"-text-0-"has"-VBZ-0|text|668/3;850/3;1611/3;1665/3||
0206.txt|MMI|2.09|Signature|C1519316|[inpr]|"Signed"-text-14-"Signed"-NNP-0,"Signed"-text-24-"Signed"-VBN-0,"Signed"-text-54-"signed"-VBD-0,"Signed"-text-8-"Signed"-VBN-0|text|78/6;105/6;1992/6;4584/6||
0206.txt|MMI|2.09|signed - ParticipationSignature|C1561610|[inpr]|"signed"-text-14-"Signed"-NNP-0,"signed"-text-24-"Signed"-VBN-0,"signed"-text-54-"signed"-VBD-0,"signed"-text-8-"Signed"-VBN-0|text|78/6;105/6;1992/6;4584/6||
0206.txt|MMI|2.01|1 (finding)|C5201140|[fndg]|"One"-text-0-"one"-CD-0,"One"-text-0-"one"-CD-0,"One"-text-0-"one"-CD-0,"One"-text-0-"one"-CD-0|text|2792/3;3426/3;3703/3;3835/3||
0206.txt|MMI|2.01|Class (taxonomic)|C1705943|[clas]|"Class"-text-0-"Class"-NNP-0,"Class"-text-14-"CLASS"-NNP-0,"Class"-text-67-"CLASS"-NNP-0,"Class"-text-118-"CLASS"-NNP-0|text|4473/5;4603/5;4675/5;4760/5||
0206.txt|MMI|2.01|Kind of quantity - Class|C1547013|[qnco]|"Class"-text-0-"Class"-NNP-0,"Class"-text-14-"CLASS"-NNP-0,"Class"-text-67-"CLASS"-NNP-0,"Class"-text-118-"CLASS"-NNP-0|text|4473/5;4603/5;4675/5;4760/5||
0206.txt|MMI|2.01|LOINC class types|C0489477|[clas]|"Class"-text-0-"Class"-NNP-0,"Class"-text-14-"CLASS"-NNP-0,"Class"-text-67-"CLASS"-NNP-0,"Class"-text-118-"CLASS"-NNP-0|text|4473/5;4603/5;4675/5;4760/5||
0206.txt|MMI|2.01|Object Class|C1518526|[cnce]|"class"-text-0-"Class"-NNP-0,"class"-text-14-"CLASS"-NNP-0,"class"-text-67-"CLASS"-NNP-0,"class"-text-118-"CLASS"-NNP-0|text|4473/5;4603/5;4675/5;4760/5||
0206.txt|MMI|2.01|One|C0205447|[qnco]|"One"-text-0-"one"-CD-0,"One"-text-0-"one"-CD-0,"One"-text-0-"one"-CD-0,"One"-text-0-"one"-CD-0|text|2792/3;3426/3;3703/3;3835/3||
0206.txt|MMI|2.01|Taxonomic|C0008903|[ftcn]|"CLASS"-text-0-"Class"-NNP-0,"CLASS"-text-14-"CLASS"-NNP-0,"CLASS"-text-67-"CLASS"-NNP-0,"CLASS"-text-118-"CLASS"-NNP-0|text|4473/5;4603/5;4675/5;4760/5||
0206.txt|MMI|1.90|Ability|C0085732|[orga]|"Able"-text-0-"able"-JJ-0|text|1564/4|x.x.x.x|
0206.txt|MMI|1.90|Ancef|C0700926|[antb, orch]|"Ancef"-text-4-"Ancef"-NNP-0|text|2538/5|x.x.x.x|
0206.txt|MMI|1.90|Antibiotics|C0003232|[antb]|"Antimicrobial"-text-10-"antimicrobial"-JJ-0|text|2556/13|x.x.x.x|
0206.txt|MMI|1.90|BCR protein, human|C0105421|[enzy, aapp]|"ALL"-text-8-"all"-DT-0|text|1717/3|x.x.x.x|
0206.txt|MMI|1.90|BORNHOLM EYE DISEASE|C3159311|[dsyn]|"BED"-text-10-"bed"-NN-0|text|2718/3|x.x.x.x|
0206.txt|MMI|1.90|Canada|C0006823|[geoa]|"CAN"-text-0-"can"-MD-0|text|911/3|Z01.107.567.176|
0206.txt|MMI|1.90|Chaplain|C0558269|[prog]|"Chaplain"-text-10-"chaplain"-NN-0|text|530/8|x.x.x.x|
0206.txt|MMI|1.90|Colace|C0282139|[orch, phsu]|"Colace"-text-0-"Colace"-NNP-0|text|3486/6|x.x.x.x|
0206.txt|MMI|1.90|Crutches|C0010397|[medd]|"Crutches"-text-0-"crutches"-NNS-0|text|4185/8|E07.858.442.281|
0206.txt|MMI|1.90|Deafness, Sensorineural, And Male Infertility|C1970187|[dsyn]|"DIS"-text-16-"DIS"-NNPS-0|text|85/3|x.x.x.x|
0206.txt|MMI|1.90|Deep Vein Thrombosis|C0149871|[dsyn]|"deep venous thrombosis"-text-24-"deep venous thrombosis"-JJ-1|text|3215/22|x.x.x.x|
0206.txt|MMI|1.90|Dulcolax|C0591416|[orch, phsu]|"Dulcolax"-text-0-"Dulcolax"-NNP-0|text|3897/8|x.x.x.x|
0206.txt|MMI|1.90|Foot|C0016504|[bpoc]|"Feet"-text-0-"feet"-NNS-0|text|1407/4|A01.378.610.250|
0206.txt|MMI|1.90|Hydranencephaly with Renal Aplasia-Dysplasia|C1856053|[dsyn]|"MARCH"-text-10-"March"-NNP-0|text|2117/5|x.x.x.x|
0206.txt|MMI|1.90|Hypoparathyroidism familial isolated|C1832648|[dsyn]|"FIH"-text-0-"FIH"-NNP-0|text|10/3|x.x.x.x|
0206.txt|MMI|1.90|Infantile Neuroaxonal Dystrophy|C0270724|[dsyn]|"PLAN"-text-0-"PLAN"-NNP-0|text|1817/4|x.x.x.x|
0206.txt|MMI|1.90|Irritable Mood|C0022107|[fndg]|"Irritable"-text-0-"irritable"-JJ-0|text|1503/9|F01.470.047.110|
0206.txt|MMI|1.90|Metamucil|C0025559|[orch, phsu]|"Metamucil"-text-0-"Metamucil"-NNP-0|text|3811/9|x.x.x.x|
0206.txt|MMI|1.90|Microbicides|C1136254|[phsu]|"Antimicrobial"-text-10-"antimicrobial"-JJ-0|text|2556/13|x.x.x.x|
0206.txt|MMI|1.90|Muscle Tissue|C0026845|[tisu]|"Muscle"-text-12-"muscle"-NN-0|text|1727/6|A02.633;A10.690|
0206.txt|MMI|1.90|NUP214 protein, human|C1366674|[bacs, aapp]|"CAN"-text-0-"can"-MD-0|text|911/3|x.x.x.x|
0206.txt|MMI|1.90|Nexium|C0939400|[orch, phsu]|"Nexium"-text-0-"Nexium"-NNP-0|text|3784/6|x.x.x.x|
0206.txt|MMI|1.90|Operating Room|C0029064|[mnob, hcro]|"Operating Room"-text-6-"operating room"-NN-0|text|2099/14|N02.278.388.700|
0206.txt|MMI|1.90|PROGRESSIVE ENCEPHALOMYELITIS WITH RIGIDITY|C1861457|[dsyn]|"PER"-text-3-"per"-IN-0|text|3664/3|x.x.x.x|
0206.txt|MMI|1.90|Peru|C0031238|[geoa]|"PER"-text-3-"per"-IN-0|text|3664/3|Z01.107.757.702|
0206.txt|MMI|1.90|Prilosec|C0700777|[orch, phsu]|"Prilosec"-text-0-"Prilosec"-NNP-0|text|1297/8|x.x.x.x|
0206.txt|MMI|1.90|Shoes|C0036988|[mnob]|"Shoes"-text-0-"shoes"-NNS-0|text|871/5|J01.637.215.800|
0206.txt|MMI|1.90|Staple, Surgical|C0524724|[medd]|"Staples"-text-0-"staples"-NNS-0|text|4057/7|x.x.x.x|
0206.txt|MMI|1.90|Tylenol|C0699142|[orch, phsu]|"Tylenol"-text-0-"Tylenol"-NNP-0|text|3514/7|x.x.x.x|
0206.txt|MMI|1.90|ferrous sulfate|C0060282|[inch, phsu]|"ferrous sulfate"-text-0-"ferrous sulfate"-JJ-0|text|3449/15|x.x.x.x|
0206.txt|MMI|1.88|Males|C0086582|[orga]|"Male"-text-6-"male"-NN-0|text|1846/4|x.x.x.x|
0206.txt|MMI|1.88|antineoplaston A10|C0052080|[orch, phsu]|"A 10"-text-0-"a 10"-DT-0|text|1518/4|x.x.x.x|
0206.txt|MMI|1.57|Academic degree|C0542560|[inpr]|"Degree"-text-2-"degree"-NN-0,"degrees"-text-6-"degrees"-NNS-0,"degrees"-text-0-"degrees"-NNS-0|text|1523/6;1598/7;1618/7||
0206.txt|MMI|1.57|Apyrexial|C0277797|[fndg]|"Afebrile"-text-0-"afebrile"-JJ-0,"Afebrile"-text-0-"afebrile"-JJ-0,"Afebrile"-text-0-"afebrile"-JJ-0|text|2386/8;2835/8;2942/8||
0206.txt|MMI|1.57|Constipation, CTCAE|C1963087|[fndg]|"Constipation"-text-6-"constipation"-NN-0,"Constipation"-text-0-"constipation"-NN-0,"Constipation"-text-0-"constipation"-NN-0|text|362/12;3605/12;3933/12||
0206.txt|MMI|1.57|Data types - Date|C1547350|[idcn]|"Date"-text-8-"date"-NN-0,"Date"-text-28-"date"-NN-0,"Date"-text-10-"date"-NN-0|text|4106/4;4285/4;4373/4||
0206.txt|MMI|1.57|Date in time|C0011008|[tmco]|"Date"-text-8-"date"-NN-0,"Date"-text-28-"date"-NN-0,"Date"-text-10-"date"-NN-0|text|4106/4;4285/4;4373/4||
0206.txt|MMI|1.57|Degree or extent|C0449286|[qnco]|"Degree"-text-2-"degree"-NN-0,"degrees"-text-6-"degrees"-NNS-0,"degrees"-text-0-"degrees"-NNS-0|text|1523/6;1598/7;1618/7||
0206.txt|MMI|1.57|Disabled Person Code - Patient|C1578486|[inpr]|"Patient"-text-0-"patient"-NN-0,"Patient"-text-0-"patient"-NN-0,"Patient"-text-0-"patient"-NN-0|text|2074/7;2200/7;3977/7||
0206.txt|MMI|1.57|From|C1517320|[qlco]|"From"-text-20-"from"-IN-0,"From"-text-4-"from"-IN-0,"From"-text-6-"from"-IN-0|text|1065/4;4097/4;4364/4||
0206.txt|MMI|1.57|General surgery specialty|C1274039|[bmod]|"Surgery"-text-12-"surgery"-NN-0,"Surgery"-text-32-"surgery"-NN-0,"Surgery"-text-14-"surgery"-NN-0|text|4114/7;4293/7;4381/7||
0206.txt|MMI|1.57|Have Constipation|C3641755|[inpr]|"Constipation"-text-6-"constipation"-NN-0,"Constipation"-text-0-"constipation"-NN-0,"Constipation"-text-0-"constipation"-NN-0|text|362/12;3605/12;3933/12||
0206.txt|MMI|1.57|How Much Distress Constipation|C4084723|[inpr]|"Constipation"-text-6-"constipation"-NN-0,"Constipation"-text-0-"constipation"-NN-0,"Constipation"-text-0-"constipation"-NN-0|text|362/12;3605/12;3933/12||
0206.txt|MMI|1.57|How Often Constipation|C4084722|[inpr]|"Constipation"-text-6-"constipation"-NN-0,"Constipation"-text-0-"constipation"-NN-0,"Constipation"-text-0-"constipation"-NN-0|text|362/12;3605/12;3933/12||
0206.txt|MMI|1.57|Level of Care - Surgery|C1547138|[idcn]|"Surgery"-text-12-"surgery"-NN-0,"Surgery"-text-32-"surgery"-NN-0,"Surgery"-text-14-"surgery"-NN-0|text|4114/7;4293/7;4381/7||
0206.txt|MMI|1.57|Mail Claim Party - Patient|C1578481|[idcn]|"Patient"-text-0-"patient"-NN-0,"Patient"-text-0-"patient"-NN-0,"Patient"-text-0-"patient"-NN-0|text|2074/7;2200/7;3977/7||
0206.txt|MMI|1.57|Operative Surgical Procedures|C0543467|[topp]|"Surgery"-text-12-"surgery"-NN-0,"Surgery"-text-32-"surgery"-NN-0,"Surgery"-text-14-"surgery"-NN-0|text|4114/7;4293/7;4381/7|E04|
0206.txt|MMI|1.57|Relationship modifier - Patient|C1578484|[idcn]|"Patient"-text-0-"patient"-NN-0,"Patient"-text-0-"patient"-NN-0,"Patient"-text-0-"patient"-NN-0|text|2074/7;2200/7;3977/7||
0206.txt|MMI|1.57|Removed|C0849355|[qlco]|"Removed"-text-18-"removed"-VBN-0,"Out"-text-6-"out"-IN-0,"Removed"-text-0-"removed"-VBN-0|text|1057/7;2711/3;4075/7||
0206.txt|MMI|1.57|Report source - Patient|C1578483|[idcn]|"Patient"-text-0-"patient"-NN-0,"Patient"-text-0-"patient"-NN-0,"Patient"-text-0-"patient"-NN-0|text|2074/7;2200/7;3977/7||
0206.txt|MMI|1.57|Specimen Source Codes - Patient|C1578485|[inpr]|"Patient"-text-0-"patient"-NN-0,"Patient"-text-0-"patient"-NN-0,"Patient"-text-0-"patient"-NN-0|text|2074/7;2200/7;3977/7||
0206.txt|MMI|1.57|Specimen Type - Patient|C1550655|[bdsu]|"Patient"-text-0-"patient"-NN-0,"Patient"-text-0-"patient"-NN-0,"Patient"-text-0-"patient"-NN-0|text|2074/7;2200/7;3977/7||
0206.txt|MMI|1.57|Surgery specialty|C0038894|[bmod]|"Surgery"-text-12-"surgery"-NN-0,"Surgery"-text-32-"surgery"-NN-0,"Surgery"-text-14-"surgery"-NN-0|text|4114/7;4293/7;4381/7||
0206.txt|MMI|1.57|Surgical aspects|C0038895|[ftcn]|"surgery"-text-12-"surgery"-NN-0,"surgery"-text-32-"surgery"-NN-0,"surgery"-text-14-"surgery"-NN-0|text|4114/7;4293/7;4381/7||
0206.txt|MMI|1.57|Two|C0205448|[qnco]|"Two"-text-0-"two"-CD-0,"Two"-text-0-"two"-CD-0,"Two"-text-0-"two"-CD-0|text|2929/3;3710/3;3873/3||
0206.txt|MMI|1.57|Usual Severity Constipation|C4084724|[inpr]|"Constipation"-text-6-"constipation"-NN-0,"Constipation"-text-0-"constipation"-NN-0,"Constipation"-text-0-"constipation"-NN-0|text|362/12;3605/12;3933/12||
0206.txt|MMI|1.57|Value type - Date|C1548309|[idcn]|"Date"-text-8-"date"-NN-0,"Date"-text-28-"date"-NN-0,"Date"-text-10-"date"-NN-0|text|4106/4;4285/4;4373/4||
0206.txt|MMI|1.57|Veterinary Patient|C1705908|[orgm]|"Patient"-text-0-"patient"-NN-0,"Patient"-text-0-"patient"-NN-0,"Patient"-text-0-"patient"-NN-0|text|2074/7;2200/7;3977/7||
0206.txt|MMI|1.57|date allergenic extract|C2740799|[imft, phsu]|"DATE"-text-8-"date"-NN-0,"DATE"-text-28-"date"-NN-0,"DATE"-text-10-"date"-NN-0|text|4106/4;4285/4;4373/4||
0206.txt|MMI|1.51|Administration Method - Pain|C1549543|[ftcn]|"Pain"-text-0-"pain"-NN-0,"Pain"-text-0-"pain"-NN-0,"Pain"-text-0-"pain"-NN-0|text|663/4;3554/4;3747/4||
0206.txt|MMI|1.51|Adverse Event Associated with Pain|C1557397|[fndg]|"PAIN"-text-0-"pain"-NN-0,"PAIN"-text-0-"pain"-NN-0,"PAIN"-text-0-"pain"-NN-0|text|663/4;3554/4;3747/4||
0206.txt|MMI|1.51|Feel Pain|C4554132|[inpr]|"Pain"-text-0-"pain"-NN-0,"Pain"-text-0-"pain"-NN-0,"Pain"-text-0-"pain"-NN-0|text|663/4;3554/4;3747/4||
0206.txt|MMI|1.51|Frequency of Pain Question|C0518090|[inpr]|"Pain"-text-0-"pain"-NN-0,"Pain"-text-0-"pain"-NN-0,"Pain"-text-0-"pain"-NN-0|text|663/4;3554/4;3747/4||
0206.txt|MMI|1.51|Have Pain|C2984058|[inpr]|"Pain"-text-0-"pain"-NN-0,"Pain"-text-0-"pain"-NN-0,"Pain"-text-0-"pain"-NN-0|text|663/4;3554/4;3747/4||
0206.txt|MMI|1.51|How Much Distress Pain|C4085212|[inpr]|"Pain"-text-0-"pain"-NN-0,"Pain"-text-0-"pain"-NN-0,"Pain"-text-0-"pain"-NN-0|text|663/4;3554/4;3747/4||
0206.txt|MMI|1.51|Pain Distress Question|C4085211|[inpr]|"Pain"-text-0-"pain"-NN-0,"Pain"-text-0-"pain"-NN-0,"Pain"-text-0-"pain"-NN-0|text|663/4;3554/4;3747/4||
0206.txt|MMI|1.51|Pain by Anatomic Descriptor, CTCAE|C1882272|[fndg]|"Pain"-text-0-"pain"-NN-0,"Pain"-text-0-"pain"-NN-0,"Pain"-text-0-"pain"-NN-0|text|663/4;3554/4;3747/4||
0206.txt|MMI|1.51|Pain, CTCAE|C4553004|[fndg]|"Pain"-text-0-"pain"-NN-0,"Pain"-text-0-"pain"-NN-0,"Pain"-text-0-"pain"-NN-0|text|663/4;3554/4;3747/4||
0206.txt|MMI|1.51|Pain:-:Point in time:^Patient:-|C2598155|[clna]|"Pain"-text-0-"pain"-NN-0,"Pain"-text-0-"pain"-NN-0,"Pain"-text-0-"pain"-NN-0|text|663/4;3554/4;3747/4||
0206.txt|MMI|1.51|Right|C0205090|[spco]|"Right"-text-0-"Right"-RB-0,"Right"-text-64-"right"-JJ-0,"Right"-text-28-"right"-JJ-0|text|405/5;2022/5;2166/5||
0206.txt|MMI|1.51|Right sided|C0444532|[spco]|"Right"-text-0-"Right"-RB-0,"Right"-text-64-"right"-JJ-0,"Right"-text-28-"right"-JJ-0|text|405/5;2022/5;2166/5||
0206.txt|MMI|1.51|Table Cell Horizontal Align - right|C1552823|[ftcn]|"right"-text-0-"Right"-RB-0,"right"-text-64-"right"-JJ-0,"right"-text-28-"right"-JJ-0|text|405/5;2022/5;2166/5||
0206.txt|MMI|1.51|Taking vital signs|C0150404|[hlca]|"Vital signs"-text-0-"vital signs"-JJ-0,"Vital signs"-text-0-"vital signs"-JJ-0,"Vital signs"-text-6-"vital signs"-JJ-0|text|2403/11;2850/11;2953/11||
0206.txt|MMI|1.51|Total Hip Replacement (procedure)|C0040508|[topp]|"total hip arthroplasty"-text-0-"total hip arthroplasty"-JJ-0,"Total hip replacement"-text-70-"total hip replacement"-NN-0,"Total hip replacement"-text-34-"total hip replacement"-NN-0|text|411/22;2028/21;2172/21||
0206.txt|MMI|1.51|Usual Severity Pain|C4085210|[inpr]|"Pain"-text-0-"pain"-NN-0,"Pain"-text-0-"pain"-NN-0,"Pain"-text-0-"pain"-NN-0|text|663/4;3554/4;3747/4||
0206.txt|MMI|1.51|Vital Signs Domain|C1704629|[inpr]|"Vital Signs"-text-0-"vital signs"-JJ-0,"Vital Signs"-text-0-"vital signs"-JJ-0,"Vital Signs"-text-6-"vital signs"-JJ-0|text|2403/11;2850/11;2953/11||
0206.txt|MMI|1.51|Vital signs:Finding:Point in time:^Patient:Narrative:Observed|C0488614|[clna]|"Vital signs"-text-0-"vital signs"-JJ-0,"Vital signs"-text-0-"vital signs"-JJ-0,"Vital signs"-text-6-"vital signs"-JJ-0|text|2403/11;2850/11;2953/11||
0206.txt|MMI|1.44|Beds|C0004916|[mnob]|"Bed"-text-10-"bed"-NN-0|text|2718/3|E07.325.220|
0206.txt|MMI|1.44|Physical Examination|C0031809|[hlca]|"Physical Examination"-text-0-"PHYSICAL EXAMINATION"-NNP-0|text|1376/20|E01.370.600|
0206.txt|MMI|1.42|Weight Bearing|C0085086|[fndg]|"weight-bearing"-text-0-"weight-bearing"-NN-0|text|2601/14|G01.374.965|
0206.txt|MMI|1.05|Asthma Pathway|C2984299|[cnce]|"Asthma"-text-0-"Asthma"-NNP-0,"Asthma"-text-0-"Asthma"-NNP-0|text|315/6;988/6||
0206.txt|MMI|1.05|Condition|C0348080|[qlco]|"Condition"-text-30-"condition"-NN-0,"Condition"-text-0-"CONDITION"-NN-0|text|2322/9;3322/9||
0206.txt|MMI|1.05|Condition Domain|C4722256|[inpr]|"CONDITION"-text-30-"condition"-NN-0,"CONDITION"-text-0-"CONDITION"-NN-0|text|2322/9;3322/9||
0206.txt|MMI|1.05|Condition:Find:Pt:^Patient:Nom|C3864998|[clna]|"Condition"-text-30-"condition"-NN-0,"Condition"-text-0-"CONDITION"-NN-0|text|2322/9;3322/9||
0206.txt|MMI|1.05|Degenerative polyarthritis|C0029408|[dsyn]|"Osteoarthritis"-text-0-"osteoarthritis"-NN-0,"Osteoarthritis"-text-12-"osteoarthritis"-NN-0|text|1768/14;1863/14||
0206.txt|MMI|1.05|Floor - story of building|C1547707|[geoa]|"Floor"-text-24-"floor"-NN-0,"Level"-text-7-"level"-NN-0|text|2306/5;3672/5||
0206.txt|MMI|1.05|Good|C0205170|[qlco]|"Well"-text-0-"well"-RB-0,"Well"-text-0-"well"-RB-0|text|2232/4;2372/4||
0206.txt|MMI|1.05|Hematocrit level|C0518014|[fndg]|"Hematocrit"-text-0-"hematocrit"-NN-0,"Hematocrit"-text-0-"hematocrit"-NN-0|text|2465/10;3079/10||
0206.txt|MMI|1.05|Hematocrit procedure|C0018935|[lbpr]|"Hematocrit"-text-0-"hematocrit"-NN-0,"Hematocrit"-text-0-"hematocrit"-NN-0|text|2465/10;3079/10||
0206.txt|MMI|1.05|Integrated Neuromusculoskeletal Release|C1704538|[topp]|"INR"-text-5-"INR"-NN-0,"INR"-text-28-"INR"-NN-0|text|3668/3;4423/3||
0206.txt|MMI|1.05|International Normalized Ratio of Prothrombin Time|C3853850|[lbpr]|"INR"-text-5-"INR"-NN-0,"INR"-text-28-"INR"-NN-0|text|3668/3;4423/3||
0206.txt|MMI|1.05|Is a|C1292718|[ftcn]|"Is a"-text-0-"is a"-VBZ-0,"Is a"-text-0-"is a"-VBZ-0|text|505/4;1829/4||
0206.txt|MMI|1.05|Levels (qualifier value)|C0441889|[qlco]|"Degree"-text-2-"degree"-NN-0,"Level"-text-7-"level"-NN-0|text|1523/6;3672/5||
0206.txt|MMI|1.05|Logical Condition|C1705253|[cnce]|"Condition"-text-30-"condition"-NN-0,"Condition"-text-0-"CONDITION"-NN-0|text|2322/9;3322/9||
0206.txt|MMI|1.05|Microplate Well|C4283957|[spco]|"Well"-text-0-"well"-RB-0,"Well"-text-0-"well"-RB-0|text|2232/4;2372/4||
0206.txt|MMI|1.05|Old|C0580836|[tmco]|"Old"-text-6-"old"-JJ-0,"Old"-text-4-"old"-JJ-0|text|518/3;1842/3||
0206.txt|MMI|1.05|Old episode|C0677546|[tmco]|"Old"-text-6-"old"-JJ-0,"Old"-text-4-"old"-JJ-0|text|518/3;1842/3||
0206.txt|MMI|1.05|Precaution|C1882442|[cnce]|"Precautions"-text-0-"precautions"-NNS-0,"Precautions"-text-16-"precautions"-NNS-0|text|2691/11;4242/11||
0206.txt|MMI|1.05|Precision - year|C1561544|[idcn]|"year"-text-4-"year"-NN-0,"year"-text-2-"year"-NN-0|text|513/4;1837/4||
0206.txt|MMI|1.05|Severe (severity modifier)|C0205082|[fndg]|"Major"-text-10-"major"-JJ-0,"Severe"-text-10-"severe"-JJ-0|text|1721/5;1856/6||
0206.txt|MMI|1.05|Status post|C0231290|[tmco]|"After"-text-24-"after"-IN-0,"Following"-text-24-"following"-VBG-0|text|1899/5;4271/9||
0206.txt|MMI|1.05|This (eukaryote)|C1080058|[euka]|"This"-text-0-"This"-DT-0,"This"-text-0-"This"-DT-0|text|500/4;1824/4||
0206.txt|MMI|1.05|Transaction counts and value totals - year|C1561543|[inpr]|"year"-text-4-"year"-NN-0,"year"-text-2-"year"-NN-0|text|513/4;1837/4||
0206.txt|MMI|1.05|Uncomplicated|C0443334|[qlco]|"Uncomplicated"-text-26-"uncomplicated"-JJ-0,"Uncomplicated"-text-0-"uncomplicated"-JJ-0|text|2152/13;3306/13||
0206.txt|MMI|1.05|WHO Temperature/Humidity Storage Condition|C3272598|[qlco]|"WHO"-text-12-"who"-WP-0,"WHO"-text-22-"who"-WP-0|text|539/3;1895/3||
0206.txt|MMI|1.05|Walker Usually Used|C4321304|[fndg]|"Walker"-text-0-"walker"-NN-0,"Walker"-text-2-"walker"-NN-0|text|899/6;4199/6||
0206.txt|MMI|1.05|Well|C3146287|[mnob]|"Well"-text-0-"well"-RB-0,"Well"-text-0-"well"-RB-0|text|2232/4;2372/4||
0206.txt|MMI|1.05|Well Marginated Nodule|C4761387|[fndg]|"Well"-text-0-"well"-RB-0,"Well"-text-0-"well"-RB-0|text|2232/4;2372/4||
0206.txt|MMI|1.05|capsule (pharmacologic)|C0006935|[bodm]|"Capsule"-text-0-"capsule"-NN-0,"Capsules"-text-0-"capsules"-NNS-0|text|3430/7;3877/8||
0206.txt|MMI|1.05|year|C0439234|[tmco]|"year"-text-4-"year"-NN-0,"year"-text-2-"year"-NN-0|text|513/4;1837/4||
0206.txt|MMI|1.01|325 mg|C4699693|[qnco]|"325 mg"-text-0-"325 mg"-CD-0,"325 mg"-text-0-"325 mg"-CD-0|text|3467/6;3691/6||
0206.txt|MMI|1.01|Arabic numeral 100|C1704407|[qnco]|"100"-text-4-"100"-CD-0,"100"-text-0-"100"-CD-0|text|1594/3;3495/3||
0206.txt|MMI|1.01|Discharge summarization note:Finding:Point in time:{Setting}:Document:{Provider}|C0801840|[clna]|"Discharge summary"-text-12-"Discharge Summary"-JJ-0,"Discharge summary"-text-28-"DISCHARGE SUMMARY"-NNP-0|text|60/17;112/17||
0206.txt|MMI|1.01|Discharge summary|C0743221|[inpr]|"Discharge summary"-text-12-"Discharge Summary"-JJ-0,"Discharge summary"-text-28-"DISCHARGE SUMMARY"-NNP-0|text|60/17;112/17||
0206.txt|MMI|1.01|Dry|C0205222|[qlco]|"Dry"-text-0-"dry"-JJ-0,"Dry"-text-0-"dry"-JJ-0|text|3004/3;4140/3||
0206.txt|MMI|1.01|Dry skin|C0151908|[sosy]|"DRY"-text-0-"dry"-JJ-0,"DRY"-text-0-"dry"-JJ-0|text|3004/3;4140/3||
0206.txt|MMI|1.01|Dryness (characteristic)|C1512080|[qlco]|"Dry"-text-0-"dry"-JJ-0,"Dry"-text-0-"dry"-JJ-0|text|3004/3;4140/3||
0206.txt|MMI|1.01|Entity Handling - dry|C1550582|[hcpp]|"dry"-text-0-"dry"-JJ-0,"dry"-text-0-"dry"-JJ-0|text|3004/3;4140/3||
0206.txt|MMI|1.01|Karnofsky Performance Status 100|C3829431|[fndg]|"100"-text-4-"100"-CD-0,"100"-text-0-"100"-CD-0|text|1594/3;3495/3||
0206.txt|MMI|1.01|Lameness|C0311395|[fndg]|"Limp"-text-0-"limp"-JJ-0,"Limp"-text-0-"limp"-JJ-0|text|758/4;1454/4||
0206.txt|MMI|1.01|On discharge|C1548175|[tmco]|"On discharge"-text-0-"ON DISCHARGE"-IN-0,"On discharge"-text-0-"ON DISCHARGE"-IN-0|text|3332/12;3368/12||
0206.txt|MMI|1.01|Special Handling Code - Dry|C1550118|[inpr]|"Dry"-text-0-"dry"-JJ-0,"Dry"-text-0-"dry"-JJ-0|text|3004/3;4140/3||
0206.txt|MMI|1.01|Usage|C0457083|[ftcn]|"Use"-text-0-"use"-VB-0,"uses"-text-0-"uses"-VBZ-0|text|777/3;892/4||
0206.txt|MMI|1.01|posterior dislocation of hip|C0840688|[inpo]|"posterior hip dislocation"-text-0-"posterior hip dislocation"-JJ-0,"posterior hip dislocation"-text-14-"posterior hip dislocation"-JJ-0|text|2665/25;4216/25||
0206.txt|MMI|0.98|Hypersensitivity|C0020517|[patf]|"Allergies"-text-0-"ALLERGIES"-NNP-0|text|1338/9|C20.543|
0206.txt|MMI|0.98|Nature|C0349590|[idcn]|"Nature"-text-34-"nature"-NN-0|text|1932/6|K01.637|
0206.txt|MMI|0.98|Surgical incisions|C0184898|[topp]|"Incision"-text-0-"incision"-NN-0|text|2983/8|C26.859|
0206.txt|MMI|0.98|Surgical wound|C0332803|[inpo]|"Incision"-text-0-"incision"-NN-0|text|2983/8|C26.859|
0206.txt|MMI|0.96|Diagnosis|C0011900|[diap]|"Diagnoses"-text-0-"DIAGNOSES"-NNP-0|text|303/9|E01;Y04|
0206.txt|MMI|0.52|ANTICOAGULATION (finding)|C2919015|[fndg]|"ANTICOAGULATION"-text-0-"anticoagulation"-NN-0|text|4332/15||
0206.txt|MMI|0.52|Ability to Use Stairs|C4329247|[inpr]|"Stairs"-text-18-"stairs"-NNS-0|text|838/6||
0206.txt|MMI|0.52|Able (finding)|C1299581|[fndg]|"Able"-text-0-"able"-JJ-0|text|1564/4||
0206.txt|MMI|0.52|Act Class - procedure|C1546467|[ocac]|"procedure"-text-0-"procedure"-NN-0|text|2222/9||
0206.txt|MMI|0.52|Act Mood - Goal|C1571704|[idcn]|"Goal"-text-34-"goal"-NN-0|text|4434/4||
0206.txt|MMI|0.52|Address type - Office|C1549636|[idcn]|"Office"-text-0-"office"-NN-0|text|4487/6||
0206.txt|MMI|0.52|Administration procedure|C1533734|[topp]|"Treatment"-text-48-"treatment"-NN-0|text|1974/9||
0206.txt|MMI|0.52|Admission date:Time Stamp -- Date and Time:Point in time:^Patient:Quantitative|C2598112|[clna]|"Admission date"-text-56-"ADMISSION DATE"-NN-0|text|187/14||
0206.txt|MMI|0.52|Advanced phase|C0205179|[qlco]|"Advanced"-text-0-"advanced"-JJ-0|text|1759/8||
0206.txt|MMI|0.52|All|C0444868|[qnco]|"All"-text-8-"all"-DT-0|text|1717/3||
0206.txt|MMI|0.52|Allergy Severity - Severe|C1561581|[fndg]|"Severe"-text-10-"severe"-JJ-0|text|1856/6||
0206.txt|MMI|0.52|Ambulate|C4036205|[fndg]|"Ambulate"-text-0-"ambulate"-VB-0|text|4171/8||
0206.txt|MMI|0.52|Anticoagulation Therapy|C0003281|[topp]|"anticoagulation"-text-0-"anticoagulation"-NN-0|text|4332/15||
0206.txt|MMI|0.52|Antimicrobial (disposition)|C4552583|[qlco]|"Antimicrobial"-text-10-"antimicrobial"-JJ-0|text|2556/13||
0206.txt|MMI|0.52|Any|C1552551|[qlco]|"Any"-text-0-"any"-DT-0|text|4499/3||
0206.txt|MMI|0.52|Any Data Type|C3272371|[inpr]|"ANY"-text-0-"any"-DT-0|text|4499/3||
0206.txt|MMI|0.52|Approximate|C0332232|[qlco]|"About"-text-0-"about"-IN-0|text|920/5||
0206.txt|MMI|0.52|Associated with|C0332281|[qlco]|"associated"-text-0-"ASSOCIATED"-NNP-0|text|292/10||
0206.txt|MMI|0.52|BCR gene|C0812385|[gngm]|"ALL"-text-8-"all"-DT-0|text|1717/3||
0206.txt|MMI|0.52|BCR wt Allele|C1704799|[gngm]|"ALL"-text-8-"all"-DT-0|text|1717/3||
0206.txt|MMI|0.52|Bachelor of Education|C2346952|[inpr]|"BEd"-text-10-"bed"-NN-0|text|2718/3||
0206.txt|MMI|0.52|Benefit|C0814225|[qnco]|"benefits"-text-42-"benefits"-NNS-0|text|1949/8||
0206.txt|MMI|0.52|Biomaterial Treatment|C1705169|[cnce]|"Treatment"-text-48-"treatment"-NN-0|text|1974/9||
0206.txt|MMI|0.52|Borg Category-Ratio 10 Perceived Exertion Score 5|C4050466|[fndg]|"Severe"-text-10-"severe"-JJ-0|text|1856/6||
0206.txt|MMI|0.52|British Mile|C2347127|[qnco]|"mile"-text-2-"mile"-NN-0|text|941/4||
0206.txt|MMI|0.52|CANE, INCLUDES CANES OF ALL MATERIALS, ADJUSTABLE OR FIXED, WITH TIP|C0006856|[medd]|"Cane"-text-0-"cane"-NN-1|text|783/4||
0206.txt|MMI|0.52|CDISC SDTM Adverse Event Outcome Terminology|C1879925|[inpr]|"OUT"-text-6-"out"-IN-0|text|2711/3||
0206.txt|MMI|0.52|CDISC SDTM Procedure Terminology|C3539779|[inpr]|"Procedure"-text-0-"procedure"-NN-0|text|2222/9||
0206.txt|MMI|0.52|CDISC SDTM Unit of Measure Terminology|C2347274|[inpr]|"UNIT"-text-42-"UNIT"-NNP-0|text|163/4||
0206.txt|MMI|0.52|CEL gene|C1413336|[gngm]|"CELL"-text-12-"cell"-NN-0|text|1040/4||
0206.txt|MMI|0.52|CHL1 gene|C1413393|[gngm]|"CALL"-text-0-"call"-VB-0|text|4464/4||
0206.txt|MMI|0.52|CROUZON SYNDROME WITH ACANTHOSIS NIGRICANS (disorder)|C2677099|[dsyn]|"CAN"-text-0-"can"-MD-0|text|911/3||
0206.txt|MMI|0.52|Call (Instruction)|C1947967|[ftcn]|"Call"-text-0-"call"-VB-0|text|4464/4||
0206.txt|MMI|0.52|Call - dosing instruction fragment|C1720420|[inpr]|"Call"-text-0-"call"-VB-0|text|4464/4||
0206.txt|MMI|0.52|Can - object|C1704712|[mnob]|"Can"-text-0-"can"-MD-0|text|911/3||
0206.txt|MMI|0.52|Can Dosing Unit|C1704713|[qnco]|"Can"-text-0-"can"-MD-0|text|911/3||
0206.txt|MMI|0.52|Cane - plant part|C2700631|[plnt]|"Cane"-text-0-"cane"-NN-1|text|783/4||
0206.txt|MMI|0.52|Cane Usually Used|C4321238|[fndg]|"Cane"-text-0-"cane"-NN-1|text|783/4||
0206.txt|MMI|0.52|Capsule (unit of presentation)|C4319574|[qnco]|"Capsule"-text-0-"capsule"-NN-0|text|3430/7||
0206.txt|MMI|0.52|Capsule Dose Form Category|C4722245|[bodm]|"Capsule"-text-0-"capsule"-NN-0|text|3430/7||
0206.txt|MMI|0.52|Capsule Dosing Unit|C1706433|[qnco]|"Capsule"-text-0-"capsule"-NN-0|text|3430/7||
0206.txt|MMI|0.52|Capsule Shape|C1704652|[qlco]|"Capsule"-text-0-"capsule"-NN-0|text|3430/7||
0206.txt|MMI|0.52|Carcinoma of lung|C0684249|[neop]|"LUNG CANCER"-text-16-"lung cancer"-NN-0|text|1045/11||
0206.txt|MMI|0.52|Cell (compartment)|C1948049|[spco]|"Cell"-text-12-"cell"-NN-0|text|1040/4||
0206.txt|MMI|0.52|Cell Device|C1704653|[medd]|"Cell"-text-12-"cell"-NN-0|text|1040/4||
0206.txt|MMI|0.52|Cells|C0007634|[cell]|"Cell"-text-12-"cell"-NN-0|text|1040/4|A11|
0206.txt|MMI|0.52|Check|C4321547|[ftcn]|"Check"-text-0-"check"-NN-0|text|2351/5||
0206.txt|MMI|0.52|Checking (action)|C1283174|[acty]|"Check"-text-0-"check"-NN-0|text|2351/5||
0206.txt|MMI|0.52|Chief complaint (finding)|C0277786|[fndg]|"Chief complaint"-text-0-"CHIEF COMPLAINT"-JJ-0|text|436/15||
0206.txt|MMI|0.52|Chronic rejection of renal transplant|C0403592|[dsyn]|"CAN"-text-0-"can"-MD-0|text|911/3||
0206.txt|MMI|0.52|Cleaning (activity)|C1947930|[acty]|"Clean"-text-0-"clean"-JJ-0|text|2996/5||
0206.txt|MMI|0.52|Completion Status|C0805732|[fndg]|"STAT"-text-127-"STAT"-WDT-0|text|4773/4||
0206.txt|MMI|0.52|Count of entities|C0449788|[qnco]|"number"-text-44-"NUMBER"-NNP-0|text|168/6||
0206.txt|MMI|0.52|Cover - action|C1999244|[ftcn]|"Coverage"-text-12-"coverage"-NN-0|text|2570/8||
0206.txt|MMI|0.52|Cranial incision point|C2338258|[blor]|"Incision"-text-0-"incision"-NN-0|text|2983/8||
0206.txt|MMI|0.52|Crutches Usually Used|C4318482|[fndg]|"Crutches"-text-0-"crutches"-NNS-0|text|4185/8||
0206.txt|MMI|0.52|Date of admission|C1302393|[tmco]|"Admission date"-text-56-"ADMISSION DATE"-NN-0|text|187/14||
0206.txt|MMI|0.52|Decision|C0679006|[menp]|"Call"-text-0-"call"-VB-0|text|4464/4||
0206.txt|MMI|0.52|Decreased Coagulation Activity [PE]|C3537050|[phsf]|"Anticoagulation"-text-0-"anticoagulation"-NN-0|text|4332/15||
0206.txt|MMI|0.52|Degree Unit of Plane Angle|C2348088|[qnco]|"Degree"-text-2-"degree"-NN-0|text|1523/6||
0206.txt|MMI|0.52|Diagnostic Service Section ID - Occupational Therapy|C1547993|[inpr]|"Occupational Therapy"-text-22-"occupational therapy"-JJ-0|text|2748/20||
0206.txt|MMI|0.52|Diagnostic Service Section ID - Physical Therapy|C1547999|[inpr]|"Physical Therapy"-text-16-"physical therapy"-JJ-0|text|2727/16||
0206.txt|MMI|0.52|Diagnostic interview schedule|C0451119|[inpr]|"DIS"-text-16-"DIS"-NNPS-0|text|85/3||
0206.txt|MMI|0.52|Discontinued|C1444662|[fndg]|"DIS"-text-16-"DIS"-NNPS-0|text|85/3||
0206.txt|MMI|0.52|Discussion (communication)|C2584313|[socb]|"Discussion"-text-26-"discussion"-NN-0|text|1905/10||
0206.txt|MMI|0.52|Discussion (procedure)|C0557061|[topp]|"Discussion"-text-26-"discussion"-NN-0|text|1905/10||
0206.txt|MMI|0.52|Disease classification level|C0456079|[clas]|"Level"-text-7-"level"-NN-0|text|3672/5||
0206.txt|MMI|0.52|Do (activity)|C2828361|[acty]|"Does"-text-0-"does"-VBZ-0|text|753/4||
0206.txt|MMI|0.52|Does - Ability interpretation value|C1272751|[fndg]|"Does"-text-0-"does"-VBZ-0|text|753/4||
0206.txt|MMI|0.52|Does not|C1299585|[qlco]|"Does not"-text-0-"does not"-VBZ-0|text|768/8||
0206.txt|MMI|0.52|Downward|C0205104|[spco]|"Down"-text-16-"down"-RB-0|text|833/4||
0206.txt|MMI|0.52|Duration (temporal concept)|C0449238|[tmco]|"Durations"-text-8-"durations"-NNS-0|text|695/9||
0206.txt|MMI|0.52|Entire cell|C1269647|[cell]|"Cell"-text-12-"cell"-NN-0|text|1040/4||
0206.txt|MMI|0.52|Enzyme Unit|C1880519|[qnco]|"Unit"-text-42-"UNIT"-NNP-0|text|163/4||
0206.txt|MMI|0.52|Epidermal cGVHD Score 4|C4761449|[fndg]|"Severe"-text-10-"severe"-JJ-0|text|1856/6||
0206.txt|MMI|0.52|Extended Priority Codes - Stat|C1547583|[inpr]|"Stat"-text-127-"STAT"-WDT-0|text|4773/4||
0206.txt|MMI|0.52|Feet, unit of measurement|C0347981|[qnco]|"feet"-text-0-"feet"-NNS-0|text|1407/4||
0206.txt|MMI|0.52|Flexion contracture|C0333068|[anab]|"Flexion contracture"-text-8-"flexion contracture"-NN-0|text|1536/19||
0206.txt|MMI|0.52|Floor (anatomic)|C3714591|[anst]|"Floor"-text-24-"floor"-NN-0|text|2306/5||
0206.txt|MMI|0.52|Folic acid measurement|C0523631|[lbpr]|"Folic Acid"-text-0-"Folic acid"-NNP-0|text|3383/10||
0206.txt|MMI|0.52|Follow|C4281991|[ftcn]|"Per"-text-3-"per"-IN-0|text|3664/3||
0206.txt|MMI|0.52|Following|C0332282|[tmco]|"Following"-text-24-"following"-VBG-0|text|4271/9||
0206.txt|MMI|0.52|GDC AJCC Clinical N Terminology|C5202759|[inpr]|"CAN"-text-0-"can"-MD-0|text|911/3||
0206.txt|MMI|0.52|Gastroesophageal Reflux Disease, CTCAE|C4553201|[fndg]|"Gastroesophageal reflux disease"-text-0-"gastroesophageal reflux disease"-NN-0|text|324/31||
0206.txt|MMI|0.52|Geographic state|C1301808|[geoa]|"states"-text-0-"states"-VBZ-0|text|647/6||
0206.txt|MMI|0.52|Grade 3 Severe Adverse Event|C1519275|[fndg]|"SEVERE"-text-10-"severe"-JJ-0|text|1856/6||
0206.txt|MMI|0.52|Groups|C0441833|[idcn]|"Groups"-text-14-"groups"-NNS-0|text|1734/6||
0206.txt|MMI|0.52|H/O: atrial fibrillation|C0729790|[fndg]|"History of atrial fibrillation"-text-4-"history of atrial fibrillation"-NN-0|text|997/30||
0206.txt|MMI|0.52|History of present illness|C0262512|[fndg]|"History of present illness"-text-0-"HISTORY OF PRESENT ILLNESS"-NN-0|text|471/26||
0206.txt|MMI|0.52|History of present illness:Finding:Point in time:^Patient:Nominal:Reported|C0488508|[clna]|"History of Present illness"-text-0-"HISTORY OF PRESENT ILLNESS"-NN-0|text|471/26||
0206.txt|MMI|0.52|Hospital course|C0489547|[fndg]|"Hospital course"-text-0-"HOSPITAL COURSE"-NNP-0|text|2052/15||
0206.txt|MMI|0.52|Hospital course:Finding:Point in time:^Patient:Narrative|C0488549|[clna]|"Hospital course"-text-0-"HOSPITAL COURSE"-NNP-0|text|2052/15||
0206.txt|MMI|0.52|Impression|C1998467|[qlco]|"Impression"-text-0-"IMPRESSION"-NN-0|text|1802/10||
0206.txt|MMI|0.52|Inch Unit of Length|C0439204|[qnco]|"Inches"-text-4-"inches"-NNS-0|text|1416/6||
0206.txt|MMI|0.52|Including (qualifier)|C0332257|[ftcn]|"Including"-text-30-"including"-VBG-0|text|1918/9||
0206.txt|MMI|0.52|Intensity and Distress 5|C5203119|[fndg]|"Severe"-text-10-"severe"-JJ-0|text|1856/6||
0206.txt|MMI|0.52|International Unit|C0439453|[qnco]|"Unit"-text-42-"UNIT"-NNP-0|text|163/4||
0206.txt|MMI|0.52|Interventional procedure|C0184661|[topp]|"Procedure"-text-0-"procedure"-NN-0|text|2222/9||
0206.txt|MMI|0.52|Irritation - emotion|C2700617|[menp]|"Irritable"-text-0-"irritable"-JJ-0|text|1503/9||
0206.txt|MMI|0.52|MDF AttributeType - Number|C1554106|[idcn]|"Number"-text-44-"NUMBER"-NNP-0|text|168/6||
0206.txt|MMI|0.52|MILK OF MAGNESIA|C0591789|[inch, phsu]|"MILK OF MAGNESIA"-text-0-"Milk of Magnesia"-NN-0|text|3561/16||
0206.txt|MMI|0.52|Major|C0205164|[qlco]|"Major"-text-10-"major"-JJ-0|text|1721/5||
0206.txt|MMI|0.52|Major <insect>|C4318856|[euka]|"Major"-text-10-"major"-JJ-0|text|1721/5||
0206.txt|MMI|0.52|Malignant neoplasm of lung|C0242379|[neop]|"Lung Cancer"-text-16-"lung cancer"-NN-0|text|1045/11||
0206.txt|MMI|0.52|March (month)|C3829202|[tmco]|"March"-text-10-"March"-NNP-0|text|2117/5||
0206.txt|MMI|0.52|Medical History|C0262926|[fndg]|"Past Medical History"-text-0-"PAST MEDICAL HISTORY"-NN-0|text|965/20||
0206.txt|MMI|0.52|Medications|C4284232|[inpr]|"Medications"-text-0-"MEDICATIONS"-NNS-0|text|3356/11||
0206.txt|MMI|0.52|Medications on admission|C1627937|[fndg]|"Medications on admission"-text-0-"MEDICATIONS ON ADMISSION"-NNS-0|text|1270/24||
0206.txt|MMI|0.52|Medications:-:Point in time:^Patient:-|C2598133|[clna]|"Medications"-text-0-"MEDICATIONS"-NNS-0|text|3356/11||
0206.txt|MMI|0.52|Medications:Presence or Identity:Duration of the study:^Patient:Nominal|C0802604|[clna]|"Medications"-text-0-"MEDICATIONS"-NNS-0|text|3356/11||
0206.txt|MMI|0.52|Microbial anatomical capsule structure|C1325531|[celc]|"capsule"-text-0-"capsule"-NN-0|text|3430/7||
0206.txt|MMI|0.52|Miles|C0331865|[qnco]|"mile"-text-2-"mile"-NN-0|text|941/4||
0206.txt|MMI|0.52|Miles Pharmaceuticals|C0392740|[hcro]|"mile"-text-2-"mile"-NN-0|text|941/4||
0206.txt|MMI|0.52|Month of May|C3812381|[tmco]|"May"-text-0-"may"-MD-0|text|4149/3||
0206.txt|MMI|0.52|Multivitamin preparation|C0301532|[vita, orch, phsu]|"Multivitamin"-text-0-"multivitamin"-NN-0|text|3411/12||
0206.txt|MMI|0.52|Muscle (organ)|C4083049|[bpoc]|"Muscle"-text-12-"muscle"-NN-0|text|1727/6||
0206.txt|MMI|0.52|NUP214 gene|C1334912|[gngm]|"CAN"-text-0-"can"-MD-0|text|911/3||
0206.txt|MMI|0.52|NUP214 wt Allele|C1704852|[gngm]|"CAN"-text-0-"can"-MD-0|text|911/3||
0206.txt|MMI|0.52|Natures|C1262865|[ftcn]|"Nature"-text-34-"nature"-NN-0|text|1932/6||
0206.txt|MMI|0.52|Negative Regulation of Coagulation|C2917212|[phsf]|"Anticoagulation"-text-0-"anticoagulation"-NN-0|text|4332/15||
0206.txt|MMI|0.52|No erythema|C4015731|[fndg]|"No erythema"-text-6-"no erythema"-DT-1|text|3024/11||
0206.txt|MMI|0.52|No known drug allergy|C0262581|[fndg]|"No known drug allergies"-text-0-"No known drug allergies"-DT-1|text|1350/23||
0206.txt|MMI|0.52|Noninvasive|C2986496|[qlco]|"Noninvasive"-text-0-"noninvasive"-JJ-0|text|3146/11||
0206.txt|MMI|0.52|Numbers|C0237753|[qnco]|"Number"-text-44-"NUMBER"-NNP-0|text|168/6||
0206.txt|MMI|0.52|Occupational therapy regime|C1318464|[topp]|"Occupational Therapy"-text-22-"occupational therapy"-JJ-0|text|2748/20||
0206.txt|MMI|0.52|Office|C0442603|[mnob]|"Office"-text-0-"office"-NN-0|text|4487/6||
0206.txt|MMI|0.52|Operations and procedures|C1576866|[hlca]|"Operations and procedures"-text-0-"OPERATIONS AND PROCEDURES"-NNS-0|text|377/25||
0206.txt|MMI|0.52|Organization unit type - Office|C1547198|[orgt]|"Office"-text-0-"office"-NN-0|text|4487/6||
0206.txt|MMI|0.52|Out (direction)|C0439787|[spco]|"Out"-text-6-"out"-IN-0|text|2711/3||
0206.txt|MMI|0.52|PER tumor staging notation|C0449201|[blor]|"PER"-text-3-"per"-IN-0|text|3664/3||
0206.txt|MMI|0.52|PER1 gene|C1418464|[gngm]|"PER"-text-3-"per"-IN-0|text|3664/3||
0206.txt|MMI|0.52|PER1 wt Allele|C3273590|[gngm]|"PER"-text-3-"per"-IN-0|text|3664/3||
0206.txt|MMI|0.52|PMH - past medical history|C0455458|[fndg]|"Past medical history"-text-0-"PAST MEDICAL HISTORY"-NN-0|text|965/20||
0206.txt|MMI|0.52|Partial|C0728938|[qnco]|"Partial"-text-0-"partial"-JJ-0|text|2593/7||
0206.txt|MMI|0.52|Patient Location - Bed|C1547114|[spco]|"Bed"-text-10-"bed"-NN-0|text|2718/3||
0206.txt|MMI|0.52|Patient location type - Operating Room|C1578465|[spco]|"Operating Room"-text-6-"operating room"-NN-0|text|2099/14||
0206.txt|MMI|0.52|Per (qualifier)|C3887962|[qlco]|"Per"-text-3-"per"-IN-0|text|3664/3||
0206.txt|MMI|0.52|Per - dosing instruction fragment|C1704764|[inpr]|"Per"-text-3-"per"-IN-0|text|3664/3||
0206.txt|MMI|0.52|Performed|C0884358|[ftcn]|"Performed"-text-6-"performed"-VBN-0|text|3175/9||
0206.txt|MMI|0.52|Pharmaceutical Preparations|C0013227|[phsu]|"medications"-text-0-"MEDICATIONS"-NNS-0|text|3356/11|D26|
0206.txt|MMI|0.52|Physical Exam Domain|C1744699|[inpr]|"Physical Examination"-text-0-"PHYSICAL EXAMINATION"-NNP-0|text|1376/20||
0206.txt|MMI|0.52|Physical Medical Procedure|C3274430|[hlca]|"PROCEDURE"-text-0-"procedure"-NN-0|text|2222/9||
0206.txt|MMI|0.52|Physical therapy|C0949766|[topp]|"Physical therapy"-text-16-"physical therapy"-JJ-0|text|2727/16||
0206.txt|MMI|0.52|Physical therapy (field)|C0699718|[bmod]|"Physical therapy"-text-16-"physical therapy"-JJ-0|text|2727/16||
0206.txt|MMI|0.52|Physiologic pulse|C0391850|[phsf]|"Pulses"-text-0-"pulses"-NNS-0|text|1683/6||
0206.txt|MMI|0.52|Placement action|C1533810|[hlca]|"Placed"-text-0-"placed"-VBN-0|text|2655/6||
0206.txt|MMI|0.52|Planned|C1301732|[ftcn]|"Plan"-text-0-"PLAN"-NNP-0|text|1817/4||
0206.txt|MMI|0.52|Post|C0687676|[tmco]|"After"-text-24-"after"-IN-0|text|1899/5||
0206.txt|MMI|0.52|Post Anesthesia Care Unit|C4035223|[mnob, hcro]|"Post Anesthesia Care Unit"-text-14-"Post Anesthesia Care Unit"-NNP-0|text|2264/25||
0206.txt|MMI|0.52|Pounds|C0439219|[qnco]|"Pounds"-text-10-"pounds"-NNS-0|text|1429/6||
0206.txt|MMI|0.52|Primary malignant neoplasm of lung|C1306460|[neop]|"Lung cancer"-text-16-"lung cancer"-NN-0|text|1045/11||
0206.txt|MMI|0.52|Procedure (set of actions)|C2700391|[ftcn]|"Procedure"-text-0-"procedure"-NN-0|text|2222/9||
0206.txt|MMI|0.52|Procedure:Type:Point in time:^Patient:Narrative|C0945766|[clna]|"Procedure"-text-0-"procedure"-NN-0|text|2222/9||
0206.txt|MMI|0.52|Pulse taking|C0034107|[hlca]|"Pulses"-text-0-"pulses"-NNS-0|text|1683/6||
0206.txt|MMI|0.52|Quarter|C2825406|[qnco]|"Quarter"-text-0-"quarter"-NN-0|text|928/7||
0206.txt|MMI|0.52|Quarter of the Udder|C2986716|[bpoc]|"QUARTER"-text-0-"quarter"-NN-0|text|928/7||
0206.txt|MMI|0.52|Radiologic Impression|C4049863|[fndg]|"Impression"-text-0-"IMPRESSION"-NN-0|text|1802/10||
0206.txt|MMI|0.52|Rating (action)|C0871208|[acty]|"Rated"-text-14-"rated"-VBN-0|text|711/5||
0206.txt|MMI|0.52|Referral priority - STAT|C1548425|[idcn]|"STAT"-text-127-"STAT"-WDT-0|text|4773/4||
0206.txt|MMI|0.52|Referred By-information recipient|C1552553|[prog]|"Referred By"-text-18-"referred by"-VBN-0|text|547/11||
0206.txt|MMI|0.52|Report priority - Stat|C1561443|[idcn]|"Stat"-text-127-"STAT"-WDT-0|text|4773/4||
0206.txt|MMI|0.52|Report status (finding)|C0586177|[fndg]|"Report status"-text-20-"Report Status"-NNP-0|text|89/13||
0206.txt|MMI|0.52|Report status:Type:Point in time:Report:Nominal|C4760061|[clna]|"Report status"-text-20-"Report Status"-NNP-0|text|89/13||
0206.txt|MMI|0.52|Result|C1274040|[ftcn]|"OUT"-text-6-"out"-IN-0|text|2711/3||
0206.txt|MMI|0.52|STAT family gene|C1335960|[gngm]|"STAT"-text-127-"STAT"-WDT-0|text|4773/4||
0206.txt|MMI|0.52|STAT protein|C1366753|[bacs, aapp]|"STAT"-text-127-"STAT"-WDT-0|text|4773/4||
0206.txt|MMI|0.52|Severe - Severity of Illness Code|C1547227|[inpr]|"Severe"-text-10-"severe"-JJ-0|text|1856/6||
0206.txt|MMI|0.52|Severe - Triage Code|C1547231|[inpr]|"Severe"-text-10-"severe"-JJ-0|text|1856/6||
0206.txt|MMI|0.52|Severe Extremity Pain|C4050465|[fndg]|"Severe"-text-10-"severe"-JJ-0|text|1856/6||
0206.txt|MMI|0.52|Severe Hallucination|C4722466|[fndg]|"Severe"-text-10-"severe"-JJ-0|text|1856/6||
0206.txt|MMI|0.52|Show|C1547282|[anim]|"Show"-text-0-"show"-VBP-0|text|1754/4||
0206.txt|MMI|0.52|Shower (physical object)|C0541748|[mnob]|"Shower"-text-2-"shower"-VB-0|text|4153/6||
0206.txt|MMI|0.52|Small|C0700321|[qnco]|"Small"-text-10-"small"-JJ-0|text|1034/5||
0206.txt|MMI|0.52|Social group|C0687744|[popg]|"groups"-text-14-"groups"-NNS-0|text|1734/6||
0206.txt|MMI|0.52|Socks|C0445269|[mnob]|"Socks"-text-0-"socks"-NNS-0|text|881/5||
0206.txt|MMI|0.52|Started|C1272689|[qlco]|"Started"-text-0-"started"-VBN-0|text|2494/7||
0206.txt|MMI|0.52|Stat (do immediately)|C0205548|[tmco]|"Stat"-text-127-"STAT"-WDT-0|text|4773/4||
0206.txt|MMI|0.52|Stop brand of fluoride|C0723457|[inch, phsu]|"stopping"-text-6-"stopping"-VBG-0|text|954/8||
0206.txt|MMI|0.52|Storage Unit|C1704753|[mnob]|"Unit"-text-42-"UNIT"-NNP-0|text|163/4||
0206.txt|MMI|0.52|Strength:Imp:Pt:Musculoskeletal system:Ord|C4050373|[clna]|"Muscle strength"-text-4-"muscle strength"-NN-0|text|1698/15||
0206.txt|MMI|0.52|Structure of organ capsule|C0524463|[bpoc]|"Capsule"-text-0-"capsule"-NN-0|text|3430/7||
0206.txt|MMI|0.52|Survey Mile|C2348616|[qnco]|"mile"-text-2-"mile"-NN-0|text|941/4||
0206.txt|MMI|0.52|TCF23 gene|C1425640|[gngm]|"OUT"-text-6-"out"-IN-0|text|2711/3||
0206.txt|MMI|0.52|Table Rules - groups|C1552839|[inpr]|"groups"-text-14-"groups"-NNS-0|text|1734/6||
0206.txt|MMI|0.52|Tablet Dosage Form|C0039225|[bodm]|"Tablets"-text-0-"tablets"-NNS-0|text|3714/7||
0206.txt|MMI|0.52|Taken|C1883727|[cnce]|"Taken"-text-0-"taken"-VBN-0|text|2086/5||
0206.txt|MMI|0.52|Target Awareness - partial|C1550516|[idcn]|"partial"-text-0-"partial"-JJ-0|text|2593/7||
0206.txt|MMI|0.52|Teaspoon Dosing Unit|C1704619|[qnco]|"Teaspoon"-text-0-"teaspoon"-NN-0|text|3839/8||
0206.txt|MMI|0.52|Teaspoonful|C1533179|[qnco]|"Teaspoon"-text-0-"teaspoon"-NN-0|text|3839/8||
0206.txt|MMI|0.52|Then|C1883708|[tmco]|"Then"-text-18-"then"-RB-0|text|2294/4||
0206.txt|MMI|0.52|Then - dosing instruction fragment|C1720594|[inpr]|"Then"-text-18-"then"-RB-0|text|2294/4||
0206.txt|MMI|0.52|Therapeutic procedure|C0087111|[topp]|"Treatment"-text-48-"treatment"-NN-0|text|1974/9||
0206.txt|MMI|0.52|Transferred to|C4049693|[fndg]|"Transferred to"-text-4-"transferred to"-VBN-0|text|2245/14||
0206.txt|MMI|0.52|Transferred to:Loc:Pt:^Patient:Nom|C4049692|[clna]|"Transferred to"-text-4-"transferred to"-VBN-0|text|2245/14||
0206.txt|MMI|0.52|Treating|C1522326|[ftcn]|"Treatment"-text-48-"treatment"-NN-0|text|1974/9||
0206.txt|MMI|0.52|Treatment Epoch|C3538994|[resa]|"TREATMENT"-text-48-"treatment"-NN-0|text|1974/9||
0206.txt|MMI|0.52|Treatment Plan|C0599880|[inpr]|"Plan"-text-0-"PLAN"-NNP-0|text|1817/4||
0206.txt|MMI|0.52|Treatment Study|C3161471|[resa]|"TREATMENT"-text-48-"treatment"-NN-0|text|1974/9||
0206.txt|MMI|0.52|Twice weekly|C0556985|[tmco]|"Twice weekly"-text-20-"twice weekly"-JJ-0|text|4394/12||
0206.txt|MMI|0.52|Unit|C0439148|[qnco]|"Unit"-text-42-"UNIT"-NNP-0|text|163/4||
0206.txt|MMI|0.52|Unit - NCI Thesaurus Property|C3853603|[qnco]|"Unit"-text-42-"UNIT"-NNP-0|text|163/4||
0206.txt|MMI|0.52|Unit device|C1509845|[medd]|"Unit"-text-42-"UNIT"-NNP-0|text|163/4||
0206.txt|MMI|0.52|Unit of Measure|C1519795|[qnco]|"Unit"-text-42-"UNIT"-NNP-0|text|163/4||
0206.txt|MMI|0.52|United States Military Commissioned Officer O4|C4521762|[clas]|"Major"-text-10-"major"-JJ-0|text|1721/5||
0206.txt|MMI|0.52|Universal restriction modifier (core metadata concept)|C3539085|[idcn]|"All"-text-8-"all"-DT-0|text|1717/3||
0206.txt|MMI|0.52|Without|C0332288|[qlco]|"Without"-text-4-"without"-IN-0|text|946/7||
0206.txt|MMI|0.52|all - LocalMarkupIgnore|C1552816|[inpr]|"all"-text-8-"all"-DT-0|text|1717/3||
0206.txt|MMI|0.52|all - TableRules|C1552837|[idcn]|"all"-text-8-"all"-DT-0|text|1717/3||
0206.txt|MMI|0.52|coverage - HL7PublishingDomain|C3854012|[inpr]|"coverage"-text-12-"coverage"-NN-0|text|2570/8||
0206.txt|MMI|0.52|coverage - financial contract|C1551362|[idcn]|"coverage"-text-12-"coverage"-NN-0|text|2570/8||
0206.txt|MMI|0.52|dvt prophylaxis|C0853245|[topp]|"dvt prophylaxis"-text-0-"DVT prophylaxis"-NNP-0|text|2518/15||
0206.txt|MMI|0.52|floor (object)|C0016249|[mnob]|"Floor"-text-24-"floor"-NN-0|text|2306/5||
0206.txt|MMI|0.52|hospice environment|C0019947|[mnob, hcro]|"Hospice"-text-8-"hospice"-NN-0|text|522/7||
0206.txt|MMI|0.52|impression (attitude)|C0596764|[menp]|"Impression"-text-0-"IMPRESSION"-NN-0|text|1802/10||
0206.txt|MMI|0.52|objective (goal)|C0018017|[inpr]|"Goal"-text-34-"goal"-NN-0|text|4434/4||
0206.txt|MMI|0.52|therapeutic aspects|C0039798|[ftcn]|"treatment"-text-48-"treatment"-NN-0|text|1974/9||
0206.txt|MMI|0.52|treatment - ActInformationManagementReason|C3887704|[hlca]|"treatment"-text-48-"treatment"-NN-0|text|1974/9||
0206.txt|MMI|0.50|225|C4517652|[qnco]|"225"-text-8-"225"-CD-0|text|1425/3||
0206.txt|MMI|0.50|451|C5191282|[qnco]|"451"-text-48-"451"-CD-0|text|177/3||
0206.txt|MMI|0.50|5/5|C0450380|[qnco]|"5/5"-text-0-"5/5"-CD-0|text|1694/3||
0206.txt|MMI|0.50|650|C3844101|[qnco]|"650"-text-0-"650"-CD-0|text|3524/3||
0206.txt|MMI|0.50|Active|C0205177|[qlco]|"Active"-text-2-"active"-JJ-0|text|2812/6||
0206.txt|MMI|0.50|Active Control|C1706449|[resa]|"ACTIVE"-text-2-"active"-JJ-0|text|2812/6||
0206.txt|MMI|0.50|Active License|C3888249|[qlco]|"Active"-text-2-"active"-JJ-0|text|2812/6||
0206.txt|MMI|0.50|Active State|C0679217|[idcn]|"Active"-text-2-"active"-JJ-0|text|2812/6||
0206.txt|MMI|0.50|Active Study|C2347179|[ftcn]|"Active"-text-2-"active"-JJ-0|text|2812/6||
0206.txt|MMI|0.50|Active brand of pseudoephedrine-triprolidine|C0718247|[orch, phsu]|"Active"-text-2-"active"-JJ-0|text|2812/6||
0206.txt|MMI|0.50|Admission Type - Routine|C1546402|[idcn]|"Routine"-text-8-"routine"-JJ-0|text|2548/7||
0206.txt|MMI|0.50|Alternative|C1523987|[qlco]|"Alternative"-text-46-"alternative"-JJ-0|text|1962/11||
0206.txt|MMI|0.50|Clinical Study Follow-up|C3274571|[hlca]|"FOLLOW-UP"-text-2-"follow-up"-VB-0|text|3991/9||
0206.txt|MMI|0.50|Code System Type - Internal|C1553872|[qlco]|"Internal"-text-0-"internal"-JJ-0|text|1629/8||
0206.txt|MMI|0.50|Concept Status - Active|C1553875|[idcn]|"Active"-text-2-"active"-JJ-0|text|2812/6||
0206.txt|MMI|0.50|Concern|C2699424|[idcn]|"Concerns"-text-0-"concerns"-NNS-0|text|4516/8||
0206.txt|MMI|0.50|Definitely Related to Intervention|C1704787|[qlco]|"Related"-text-0-"related"-JJ-0|text|1459/7||
0206.txt|MMI|0.50|Diagnostic radiologic examination|C0043299|[diap]|"X-Rays"-text-0-"X-rays"-NNP-0|text|1747/6||
0206.txt|MMI|0.50|Dioscorea trifida|C1018834|[plnt]|"name"-text-30-"NAME"-NNP-0|text|130/4||
0206.txt|MMI|0.50|Discharge date|C2361123|[tmco]|"Discharge date"-text-68-"DISCHARGE DATE"-NNP-0|text|215/14||
0206.txt|MMI|0.50|Discharge date:Time Stamp -- Date and Time:Point in time:^Patient:Quantitative|C2361122|[clna]|"Discharge date"-text-68-"DISCHARGE DATE"-NNP-0|text|215/14||
0206.txt|MMI|0.50|Discharge instructions|C4282220|[inpr]|"Discharge instructions"-text-0-"DISCHARGE INSTRUCTIONS"-NNP-0|text|3948/22||
0206.txt|MMI|0.50|Discharge instructions:Find:Pt:{Setting}:Doc:{Provider}|C3669312|[clna]|"Discharge instructions"-text-0-"DISCHARGE INSTRUCTIONS"-NNP-0|text|3948/22||
0206.txt|MMI|0.50|Distal (qualifier value)|C0205108|[spco]|"Distal"-text-0-"distal"-JJ-0|text|1676/6||
0206.txt|MMI|0.50|Distal Resection Margin|C4522154|[clna]|"Distal"-text-0-"distal"-JJ-0|text|1676/6||
0206.txt|MMI|0.50|Document Storage - active|C1561511|[idcn]|"active"-text-2-"active"-JJ-0|text|2812/6||
0206.txt|MMI|0.50|Document Storage Status - Active|C1561512|[idcn]|"Active"-text-2-"active"-JJ-0|text|2812/6||
0206.txt|MMI|0.50|Does walk|C0600108|[fndg]|"Walks"-text-0-"walks"-VBZ-0|text|1441/5||
0206.txt|MMI|0.50|Dosage|C0178602|[qnco]|"Dose"-text-0-"dose"-NN-0|text|3651/4||
0206.txt|MMI|0.50|EditStatus - Active|C1561507|[idcn]|"Active"-text-2-"active"-JJ-0|text|2812/6||
0206.txt|MMI|0.50|Eight|C0205454|[qnco]|"Eight"-text-6-"eight"-CD-0|text|689/5||
0206.txt|MMI|0.50|Entity Status - active|C1561510|[idcn]|"active"-text-2-"active"-JJ-0|text|2812/6||
0206.txt|MMI|0.50|Extended Priority Codes - Routine|C1547582|[inpr]|"Routine"-text-8-"routine"-JJ-0|text|2548/7||
0206.txt|MMI|0.50|External rotation|C0231462|[ftcn]|"External rotation"-text-2-"external rotation"-JJ-0|text|1642/17||
0206.txt|MMI|0.50|Fix|C3714578|[phpr]|"Fixed"-text-4-"fixed"-VBN-0|text|1530/5||
0206.txt|MMI|0.50|Fixed Specimen|C2827483|[bdsu]|"Fixed"-text-4-"fixed"-VBN-0|text|1530/5||
0206.txt|MMI|0.50|Fixed behavior|C0443218|[qlco]|"Fixed"-text-4-"fixed"-VBN-0|text|1530/5||
0206.txt|MMI|0.50|Follow-Up Information|C4745114|[inpr]|"Follow-Up"-text-2-"follow-up"-VB-0|text|3991/9||
0206.txt|MMI|0.50|Follow-Up Report|C1704685|[inpr]|"Follow-Up"-text-2-"follow-up"-VB-0|text|3991/9||
0206.txt|MMI|0.50|Follow-up status|C0589120|[fndg]|"Follow-up"-text-2-"follow-up"-VB-0|text|3991/9||
0206.txt|MMI|0.50|Immunization Registry Status - Active|C1561513|[idcn]|"Active"-text-2-"active"-JJ-0|text|2812/6||
0206.txt|MMI|0.50|Injury wounds|C0043250|[inpo]|"Wound"-text-0-"wound"-NN-0|text|4131/5||
0206.txt|MMI|0.50|Internal|C0205102|[spco]|"Internal"-text-0-"internal"-JJ-0|text|1629/8||
0206.txt|MMI|0.50|Level of Care - Routine|C1547137|[idcn]|"Routine"-text-8-"routine"-JJ-0|text|2548/7||
0206.txt|MMI|0.50|MDF Attribute Type - Name|C1554107|[inpr]|"Name"-text-30-"NAME"-NNP-0|text|130/4||
0206.txt|MMI|0.50|MIXL1 gene|C1421951|[gngm]|"MIX"-text-0-"mix"-NN-0|text|3829/3||
0206.txt|MMI|0.50|Male Gender, Self Report|C1706180|[qlco]|"Male"-text-6-"male"-NN-0|text|1846/4||
0206.txt|MMI|0.50|Male Phenotype|C1706428|[qlco]|"Male"-text-6-"male"-NN-0|text|1846/4||
0206.txt|MMI|0.50|Male, Self-Reported|C1706429|[orga]|"Male"-text-6-"male"-NN-0|text|1846/4||
0206.txt|MMI|0.50|Managed Participation Status - active|C1561508|[idcn]|"active"-text-2-"active"-JJ-0|text|2812/6||
0206.txt|MMI|0.50|Mix|C1720722|[qlco]|"Mix"-text-0-"mix"-NN-0|text|3829/3||
0206.txt|MMI|0.50|Mix (transformation)|C4553942|[ftcn]|"Mix"-text-0-"mix"-NN-0|text|3829/3||
0206.txt|MMI|0.50|Mixed (qualifier value)|C0205430|[ftcn]|"mix"-text-0-"mix"-NN-0|text|3829/3||
0206.txt|MMI|0.50|Moderate to severe|C1299393|[qlco]|"Moderate to severe"-text-22-"moderate to severe"-JJ-0|text|720/18||
0206.txt|MMI|0.50|NON Mouse|C1513853|[mamm]|"NON"-text-8-"non"-FW-0|text|1030/3||
0206.txt|MMI|0.50|Name (property) (qualifier value)|C4522128|[qlco]|"Name"-text-30-"NAME"-NNP-0|text|130/4||
0206.txt|MMI|0.50|Name:Patient number:Point in time:^Patient:Nominal|C2599456|[clna]|"Name"-text-30-"NAME"-NNP-0|text|130/4||
0206.txt|MMI|0.50|Negation|C1518422|[ftcn]|"Non"-text-8-"non"-FW-0|text|1030/3||
0206.txt|MMI|0.50|No evidence of|C0332125|[qlco]|"No evidence of"-text-18-"no evidence of"-DT-0|text|3200/14||
0206.txt|MMI|0.50|Pain in right hip joint|C2202100|[sosy]|"Right hip pain"-text-0-"Right hip pain"-RB-0|text|454/14||
0206.txt|MMI|0.50|Peri-Colace|C0307257|[orch, phsu]|"Peri-Colace"-text-0-"Peri-Colace"-FW-0|text|3859/11||
0206.txt|MMI|0.50|Person Name|C1547383|[inpr]|"Name"-text-30-"NAME"-NNP-0|text|130/4||
0206.txt|MMI|0.50|Plain x-ray|C1306645|[diap]|"X-Rays"-text-0-"X-rays"-NNP-0|text|1747/6||
0206.txt|MMI|0.50|Principal Diagnosis:-:Point in time:^Patient:-|C2598194|[clna]|"Principal Diagnosis"-text-80-"PRINCIPAL DIAGNOSIS"-NNP-0|text|243/19||
0206.txt|MMI|0.50|Principal diagnosis|C0332137|[qlco]|"Principal diagnosis"-text-80-"PRINCIPAL DIAGNOSIS"-NNP-0|text|243/19||
0206.txt|MMI|0.50|Priority - Routine|C1546438|[tmco]|"routine"-text-8-"routine"-JJ-0|text|2548/7||
0206.txt|MMI|0.50|Processing priority - Routine|C1549563|[idcn]|"Routine"-text-8-"routine"-JJ-0|text|2548/7||
0206.txt|MMI|0.50|Referral priority - Routine|C1548424|[idcn]|"Routine"-text-8-"routine"-JJ-0|text|2548/7||
0206.txt|MMI|0.50|Relate - vinyl resin|C0163712|[orch]|"related"-text-0-"related"-JJ-0|text|1459/7||
0206.txt|MMI|0.50|Related personal status|C0445223|[fndg]|"Related"-text-0-"related"-JJ-0|text|1459/7||
0206.txt|MMI|0.50|Relationships|C0439849|[qlco]|"Related"-text-0-"related"-JJ-0|text|1459/7||
0206.txt|MMI|0.50|Report priority - Routine|C1561591|[idcn]|"Routine"-text-8-"routine"-JJ-0|text|2548/7||
0206.txt|MMI|0.50|Right lower extremity|C0230415|[bpoc]|"Right lower extremity"-text-6-"right lower extremity"-JJ-0|text|2624/21||
0206.txt|MMI|0.50|Right lung|C0225706|[bpoc]|"Right lung"-text-26-"right lung"-JJ-0|text|1074/10||
0206.txt|MMI|0.50|Role Link Type - related|C1552599|[ftcn]|"related"-text-0-"related"-JJ-0|text|1459/7||
0206.txt|MMI|0.50|Role Status - active|C1561509|[idcn]|"active"-text-2-"active"-JJ-0|text|2812/6||
0206.txt|MMI|0.50|Route of Administration - Wound|C1549529|[ftcn]|"Wound"-text-0-"wound"-NN-0|text|4131/5||
0206.txt|MMI|0.50|Routine|C0205547|[qlco]|"Routine"-text-8-"routine"-JJ-0|text|2548/7||
0206.txt|MMI|0.50|Seven|C0205453|[qnco]|"Seven"-text-2-"seven"-CD-0|text|680/5||
0206.txt|MMI|0.50|Specimen Source Codes - Wound|C1547965|[inpr]|"Wound"-text-0-"wound"-NN-0|text|4131/5||
0206.txt|MMI|0.50|Specimen Type - Wound|C1550680|[bdsu]|"Wound"-text-0-"wound"-NN-0|text|4131/5||
0206.txt|MMI|0.50|Three|C0205449|[qnco]|"Three"-text-0-"three"-CD-0|text|3122/5||
0206.txt|MMI|0.50|Three (answer to question)|C5201107|[fndg]|"Three"-text-0-"three"-CD-0|text|3122/5||
0206.txt|MMI|0.50|Three months|C4082119|[tmco]|"Three months"-text-22-"three months"-CD-0|text|4258/12||
0206.txt|MMI|0.50|Three weeks|C4082109|[tmco]|"Three weeks"-text-4-"three weeks"-CD-0|text|4352/11||
0206.txt|MMI|0.50|Traumatic injury|C3263723|[inpo]|"Wound"-text-0-"wound"-NN-0|text|4131/5||
0206.txt|MMI|0.50|Unit dose|C0869039|[qnco]|"Dose"-text-0-"dose"-NN-0|text|3651/4||
0206.txt|MMI|0.50|Use - dosing instruction imperative|C1947944|[inpr]|"Use"-text-0-"use"-VB-0|text|777/3||
0206.txt|MMI|0.50|Venous blood sampling|C0190979|[diap]|"blood draws"-text-24-"blood draws"-NN-0|text|4407/11||
0206.txt|MMI|0.50|Walking (activity)|C0080331|[dora]|"Walk"-text-0-"walk"-VB-0|text|915/4||
0206.txt|MMI|0.50|Weight-Bearing state|C1318107|[orga]|"Weight-Bearing"-text-0-"weight-bearing"-NN-0|text|2601/14||
0206.txt|MMI|0.50|Weight-bearing:-:Point in time:^Patient:-|C2598162|[clna]|"Weight-bearing"-text-0-"weight-bearing"-NN-0|text|2601/14||
0206.txt|MMI|0.50|active (HL7 RoleLink)|C3853793|[idcn]|"active"-text-2-"active"-JJ-0|text|2812/6||
0206.txt|MMI|0.50|follow-up|C1522577|[hlca]|"follow-up"-text-2-"follow-up"-VB-0|text|3991/9||
0206.txt|MMI|0.50|percocet-5|C0684189|[orch, phsu]|"percocet 5"-text-0-"Percocet 5"-NNP-0|text|3680/10||
0206.txt|MMI|0.50|utilization qualifier|C0042153|[ftcn]|"use"-text-0-"use"-VB-0|text|777/3||
