0354.txt|MMI|64.71|Wiskott-Aldrich Syndrome|C0043194|[dsyn]|"WAS"-text-12-"was"-VBD-0,"WAS"-text-0-"was"-VBD-0,"WAS"-text-2-"was"-VBD-0,"WAS"-text-0-"was"-VBD-0|text|1390/3;1627/3;1651/3;1716/3|C20.673.627.900;C15.378.553.546.605.900;C16.320.798.875;C20.673.795.875;C16.320.322.937;C15.378.463.960;C16.320.099.970;C15.378.100.100.970|
0354.txt|MMI|17.33|Andorra|C0002838|[geoa]|"AND"-text-6-"and"-CC-0,"AND"-text-10-"and"-CC-0,"AND"-text-20-"and"-CC-0,"AND"-text-10-"and"-CC-0,"AND"-text-12-"and"-CC-0,"AND"-text-52-"and"-CC-0,"AND"-text-4-"and"-CC-0,"AND"-text-4-"and"-CC-0,"AND"-text-26-"and"-CC-0,"AND"-text-0-"and"-CC-0,"AND"-text-8-"and"-CC-0,"AND"-text-0-"and"-CC-0|text|525/3;613/3;765/3;869/3;979/3;1107/3;1236/3;1367/3;1541/3;1638/3;1667/3;1729/3|Z01.542.049|
0354.txt|MMI|13.85|X-Ray Computed Tomography|C0040405|[diap]|"CT SCAN"-text-0-"CT scan"-NNP-0|text|1190/7|E01.370.350.700.700.810;E01.370.350.350.810;E01.370.350.700.810.810;E01.370.350.600.350.700.810;E01.370.350.825.810.810|
0354.txt|MMI|9.86|Family|C0015576|[famg]|"Family"-text-20-"family"-NN-0,"Family"-text-0-"family"-NN-0,"Family"-text-0-"family"-NN-0|text|1413/6;1426/6;1709/6|I01.880.853.150;F01.829.263|
0354.txt|MMI|9.27|digoxin|C0012265|[orch, phsu]|"digoxin"-text-2-"Digoxin"-NNP-0|text|839/7|D04.210.500.155.580.130.500.436;D04.210.500.155.580.130.688;D09.408.180.261.436|
0354.txt|MMI|8.35|Myocardial Infarction|C0027051|[dsyn]|"Myocardial Infarction"-text-6-"myocardial infarction"-JJ-0|text|712/21|C23.550.717.489.750;C23.550.513.355.750;C14.280.647.500;C14.907.585.500|
0354.txt|MMI|8.35|daunorubicin|C0011015|[antb, orch]|"DNR"-text-24-"DNR"-NN-0|text|1537/3|D04.615.562.050.200;D09.408.051.059.200;D02.455.426.559.847.562.050.200|
0354.txt|MMI|7.62|HAC protocol|C0062074|[topp]|"HAD"-text-0-"had"-VBD-0,"HAD"-text-0-"had"-VBD-0,"HAD"-text-0-"had"-VBD-0,"HAD"-text-8-"had"-VBD-0|text|899/3;942/3;1148/3;1244/3|x.x.x.x|
0354.txt|MMI|7.62|WAS protein, human|C1565156|[bacs, aapp]|"WAS"-text-12-"was"-VBD-0,"WAS"-text-0-"was"-VBD-0,"WAS"-text-2-"was"-VBD-0,"WAS"-text-0-"was"-VBD-0|text|1390/3;1627/3;1651/3;1716/3|x.x.x.x|
0354.txt|MMI|7.49|Ventriculostomy|C0042517|[topp]|"Ventriculostomy"-text-12-"ventriculostomy"-NN-0,"Ventriculostomy"-text-2-"ventriculostomy"-NN-0|text|1250/15;1351/15|E04.525.170.860;E04.035.188.957|
0354.txt|MMI|7.41|Subarachnoid Hemorrhage|C0038525|[dsyn]|"Subarachnoid Hemorrhage"-text-36-"subarachnoid hemorrhage"-JJ-0|text|1041/23|C14.907.253.573.800;C10.228.140.300.535.800;C23.550.414.913.850|
0354.txt|MMI|6.97|Acute lymphocytic leukemia|C0023449|[neop]|"ALL"-text-0-"all"-DT-0|text|1733/3|C04.557.337.428.600;C15.604.515.560.600;C20.683.515.528.600|
0354.txt|MMI|6.97|Coronary Artery Disease|C1956346|[dsyn]|"Coronary Artery Disease"-text-0-"Coronary artery disease"-JJ-0|text|676/23|C14.280.647.250.260;C14.907.137.126.339;C14.907.585.250.260|
0354.txt|MMI|6.97|Precursor Cell Lymphoblastic Leukemia Lymphoma|C1961102|[neop]|"ALL"-text-0-"all"-DT-0|text|1733/3|C04.557.337.428.600;C15.604.515.560.600;C20.683.515.528.600|
0354.txt|MMI|6.28|And|C1515981|[idcn]|"And"-text-6-"and"-CC-0,"And"-text-10-"and"-CC-0,"And"-text-20-"and"-CC-0,"And"-text-10-"and"-CC-0,"And"-text-12-"and"-CC-0,"And"-text-52-"and"-CC-0,"And"-text-4-"and"-CC-0,"And"-text-4-"and"-CC-0,"And"-text-26-"and"-CC-0,"And"-text-0-"and"-CC-0,"And"-text-8-"and"-CC-0,"And"-text-0-"and"-CC-0|text|525/3;613/3;765/3;869/3;979/3;1107/3;1236/3;1367/3;1541/3;1638/3;1667/3;1729/3||
0354.txt|MMI|6.28|And - dosing instruction fragment|C1706368|[inpr]|"And"-text-6-"and"-CC-0,"And"-text-10-"and"-CC-0,"And"-text-20-"and"-CC-0,"And"-text-10-"and"-CC-0,"And"-text-12-"and"-CC-0,"And"-text-52-"and"-CC-0,"And"-text-4-"and"-CC-0,"And"-text-4-"and"-CC-0,"And"-text-26-"and"-CC-0,"And"-text-0-"and"-CC-0,"And"-text-8-"and"-CC-0,"And"-text-0-"and"-CC-0|text|525/3;613/3;765/3;869/3;979/3;1107/3;1236/3;1367/3;1541/3;1638/3;1667/3;1729/3||
0354.txt|MMI|6.28|RelationshipConjunction - and|C1550557|[inpr]|"and"-text-6-"and"-CC-0,"and"-text-10-"and"-CC-0,"and"-text-20-"and"-CC-0,"and"-text-10-"and"-CC-0,"and"-text-12-"and"-CC-0,"and"-text-52-"and"-CC-0,"and"-text-4-"and"-CC-0,"and"-text-4-"and"-CC-0,"and"-text-26-"and"-CC-0,"and"-text-0-"and"-CC-0,"and"-text-8-"and"-CC-0,"and"-text-0-"and"-CC-0|text|525/3;613/3;765/3;869/3;979/3;1107/3;1236/3;1367/3;1541/3;1638/3;1667/3;1729/3||
0354.txt|MMI|4.67|Autopsy|C0004398|[diap]|"Autopsy"-text-14-"autopsy"-NN-0|text|1683/7|E01.370.060;E05.070;I01.198.780.937.120|
0354.txt|MMI|4.19|Peptic Ulcer|C0030920|[dsyn]|"Peptic ulcer disease"-text-18-"peptic ulcer disease"-NN-0|text|744/20|C06.405.748.586;C06.405.469.275.800|
0354.txt|MMI|3.81|Hydrocephalus|C0020255|[dsyn]|"Hydrocephalus"-text-0-"hydrocephalus"-NN-0,"Hydrocephalus"-text-2-"hydrocephalus"-NN-0|text|1164/13;1222/13|C10.228.140.602|
0354.txt|MMI|3.66|SHE gene|C1822717|[gngm]|"SHE"-text-0-"She"-PRP-0,"SHE"-text-0-"She"-PRP-0,"SHE"-text-0-"she"-PRP-0,"SHE"-text-0-"she"-PRP-0,"SHE"-text-0-"She"-PRP-0,"SHE"-text-6-"she"-PRP-0,"SHE"-text-0-"She"-PRP-0|text|478/3;548/3;895/3;938/3;1139/3;1240/3;1302/3||
0354.txt|MMI|3.66|She Chinese|C4761447|[popg]|"SHE"-text-0-"She"-PRP-0,"SHE"-text-0-"She"-PRP-0,"SHE"-text-0-"she"-PRP-0,"SHE"-text-0-"she"-PRP-0,"SHE"-text-0-"She"-PRP-0,"SHE"-text-6-"she"-PRP-0,"SHE"-text-0-"She"-PRP-0|text|478/3;548/3;895/3;938/3;1139/3;1240/3;1302/3||
0354.txt|MMI|3.29|Identification (Psychology)|C0020792|[menp]|"Identification"-text-48-"IDENTIFICATION"-NN-0|text|161/14|F01.393.446;F01.752.747.385|
0354.txt|MMI|2.89|Disease|C0012634|[dsyn]|"DIS"-text-14-"DIS"-NNPS-0,"Diseases"-text-10-"diseases"-NNS-0|text|78/3;1498/8|C23.550.288|
0354.txt|MMI|2.37|Subarachnoid Space|C0038527|[bsoj]|"Subarachnoid Space"-text-48-"subarachnoid space"-JJ-0|text|1086/18|A08.186.566.166.686|
0354.txt|MMI|2.09|HADH gene|C1415458|[gngm]|"HAD"-text-0-"had"-VBD-0,"HAD"-text-0-"had"-VBD-0,"HAD"-text-0-"had"-VBD-0,"HAD"-text-8-"had"-VBD-0|text|899/3;942/3;1148/3;1244/3||
0354.txt|MMI|2.09|Have|C3539897|[qlco]|"Had"-text-0-"had"-VBD-0,"Had"-text-0-"had"-VBD-0,"Had"-text-0-"had"-VBD-0,"Had"-text-8-"had"-VBD-0|text|899/3;942/3;1148/3;1244/3||
0354.txt|MMI|2.09|WAS gene|C1421478|[gngm]|"WAS"-text-12-"was"-VBD-0,"WAS"-text-0-"was"-VBD-0,"WAS"-text-2-"was"-VBD-0,"WAS"-text-0-"was"-VBD-0|text|1390/3;1627/3;1651/3;1716/3||
0354.txt|MMI|2.09|Washoe language|C1555640|[lang]|"WAS"-text-12-"was"-VBD-0,"WAS"-text-0-"was"-VBD-0,"WAS"-text-2-"was"-VBD-0,"WAS"-text-0-"was"-VBD-0|text|1390/3;1627/3;1651/3;1716/3||
0354.txt|MMI|1.97|Patients|C0030705|[podg]|"Patient"-text-22-"patient"-NN-0,"Patient"-text-0-"patient"-NN-0|text|1529/7;1565/7|M01.643|
0354.txt|MMI|1.90|BCR protein, human|C0105421|[enzy, aapp]|"ALL"-text-0-"all"-DT-0|text|1733/3|x.x.x.x|
0354.txt|MMI|1.90|Cerebral Ventricles|C0007799|[bsoj]|"Ventricles"-text-58-"ventricles"-NNS-0|text|1126/10|A08.186.211.140|
0354.txt|MMI|1.90|Coronary Arteriosclerosis|C0010054|[dsyn]|"coronary artery disease"-text-0-"Coronary artery disease"-JJ-0|text|676/23|x.x.x.x|
0354.txt|MMI|1.90|Coumadin|C0699129|[orch, phsu]|"Coumadin"-text-0-"Coumadin"-NNP-0|text|828/8|x.x.x.x|
0354.txt|MMI|1.90|Deafness, Sensorineural, And Male Infertility|C1970187|[dsyn]|"DIS"-text-14-"DIS"-NNPS-0|text|78/3|x.x.x.x|
0354.txt|MMI|1.90|Do-Not-Resuscitate Orders|C0079252|[inpr]|"DNR"-text-24-"DNR"-NN-0|text|1537/3|x.x.x.x|
0354.txt|MMI|1.90|Embolectomy|C0162575|[topp]|"Embolectomy"-text-18-"embolectomy"-NN-0|text|639/11|E04.100.814.445|
0354.txt|MMI|1.90|Examiner, Medical|C0025082|[prog]|"medical examiner"-text-0-"medical examiner"-JJ-0|text|1610/16|x.x.x.x|
0354.txt|MMI|1.90|Lopressor|C0700776|[orch, phsu]|"Lopressor"-text-8-"Lopressor"-NNP-0|text|859/9|x.x.x.x|
0354.txt|MMI|1.90|Synthroid|C0728762|[aapp, phsu]|"Synthroid"-text-4-"Synthroid"-NNP-0|text|847/9|x.x.x.x|
0354.txt|MMI|1.90|Zantac|C0592278|[orch, phsu]|"Zantac"-text-12-"Zantac"-NNP-0|text|873/6|x.x.x.x|
0354.txt|MMI|1.90|intensive care unit|C0021708|[mnob, hcro]|"intensive care unit"-text-24-"Intensive Care Unit"-NNP-0|text|1280/19|N02.278.388.493|
0354.txt|MMI|1.57|Coverage level - Family|C3244301|[inpr]|"Family"-text-20-"family"-NN-0,"Family"-text-0-"family"-NN-0,"Family"-text-0-"family"-NN-0|text|1413/6;1426/6;1709/6||
0354.txt|MMI|1.57|Entity Name Part Type - family|C1546847|[idcn]|"family"-text-20-"family"-NN-0,"family"-text-0-"family"-NN-0,"family"-text-0-"family"-NN-0|text|1413/6;1426/6;1709/6||
0354.txt|MMI|1.57|Family (taxonomic)|C1704727|[cnce]|"Family"-text-20-"family"-NN-0,"Family"-text-0-"family"-NN-0,"Family"-text-0-"family"-NN-0|text|1413/6;1426/6;1709/6||
0354.txt|MMI|1.57|Family Collection|C2700055|[clas]|"Family"-text-20-"family"-NN-0,"Family"-text-0-"family"-NN-0,"Family"-text-0-"family"-NN-0|text|1413/6;1426/6;1709/6||
0354.txt|MMI|1.57|Herero language|C0574443|[lang]|"HER"-text-0-"her"-PRP$-0,"HER"-text-6-"her"-PRP$-0,"HER"-text-8-"her"-PRP$-0|text|1218/3;1371/3;1494/3||
0354.txt|MMI|1.57|In addition to|C0332287|[ftcn]|"With"-text-0-"with"-IN-0,"With"-text-38-"with"-IN-0,"With"-text-16-"with"-IN-0|text|578/4;1065/4;1404/4||
0354.txt|MMI|1.57|Last Name|C1301584|[inpr]|"family"-text-20-"family"-NN-0,"family"-text-0-"family"-NN-0,"family"-text-0-"family"-NN-0|text|1413/6;1426/6;1709/6||
0354.txt|MMI|1.57|Living Arrangement - Family|C1563343|[idcn]|"Family"-text-20-"family"-NN-0,"Family"-text-0-"family"-NN-0,"Family"-text-0-"family"-NN-0|text|1413/6;1426/6;1709/6||
0354.txt|MMI|1.57|With - dosing instruction fragment|C1705690|[inpr]|"With"-text-0-"with"-IN-0,"With"-text-38-"with"-IN-0,"With"-text-16-"with"-IN-0|text|578/4;1065/4;1404/4||
0354.txt|MMI|1.44|Drug Delivery Systems|C0085104|[medd]|"SYSTEM"-text-2-"system"-NN-0|text|1472/6|E02.319.300|
0354.txt|MMI|1.44|Heart Ventricle|C0018827|[bpoc]|"ventricles"-text-58-"ventricles"-NNS-0|text|1126/10|A07.541.560|
0354.txt|MMI|1.44|Hospitals|C0019994|[mnob, hcro]|"Hospital"-text-0-"hospital"-NN-0|text|569/8|N02.278.421|
0354.txt|MMI|1.42|Hemorrhage|C0019080|[patf]|"Bleeding"-text-40-"bleeding"-VBG-0|text|1070/8|C23.550.414|
0354.txt|MMI|1.05|Case (situation)|C0868928|[ftcn]|"Case"-text-0-"case"-NN-0,"Case"-text-20-"case"-NN-0|text|1646/4;1698/4||
0354.txt|MMI|1.05|Case unit dose|C1533148|[qnco]|"Case"-text-0-"case"-NN-0,"Case"-text-20-"case"-NN-0|text|1646/4;1698/4||
0354.txt|MMI|1.05|Clinical Study Case|C1706256|[cnce]|"Case"-text-0-"case"-NN-0,"Case"-text-20-"case"-NN-0|text|1646/4;1698/4||
0354.txt|MMI|1.05|Disabled Person Code - Patient|C1578486|[inpr]|"Patient"-text-22-"patient"-NN-0,"Patient"-text-0-"patient"-NN-0|text|1529/7;1565/7||
0354.txt|MMI|1.05|Hydrocephalus, CTCAE|C1963137|[fndg]|"Hydrocephalus"-text-0-"hydrocephalus"-NN-0,"Hydrocephalus"-text-2-"hydrocephalus"-NN-0|text|1164/13;1222/13||
0354.txt|MMI|1.05|Mail Claim Party - Patient|C1578481|[idcn]|"Patient"-text-22-"patient"-NN-0,"Patient"-text-0-"patient"-NN-0|text|1529/7;1565/7||
0354.txt|MMI|1.05|Packaging Case|C1706255|[medd]|"Case"-text-0-"case"-NN-0,"Case"-text-20-"case"-NN-0|text|1646/4;1698/4||
0354.txt|MMI|1.05|Placement action|C1533810|[hlca]|"Placed"-text-14-"placed"-VBN-0,"Placement"-text-0-"placement"-NN-0|text|1266/6;1334/9||
0354.txt|MMI|1.05|Relationship modifier - Patient|C1578484|[idcn]|"Patient"-text-22-"patient"-NN-0,"Patient"-text-0-"patient"-NN-0|text|1529/7;1565/7||
0354.txt|MMI|1.05|Report source - Patient|C1578483|[idcn]|"Patient"-text-22-"patient"-NN-0,"Patient"-text-0-"patient"-NN-0|text|1529/7;1565/7||
0354.txt|MMI|1.05|Signature|C1519316|[inpr]|"Signed"-text-12-"Signed"-NNP-0,"Signed"-text-34-"Signed"-VBN-0|text|71/6;126/6||
0354.txt|MMI|1.05|Specimen Source Codes - Patient|C1578485|[inpr]|"Patient"-text-22-"patient"-NN-0,"Patient"-text-0-"patient"-NN-0|text|1529/7;1565/7||
0354.txt|MMI|1.05|Specimen Type - Patient|C1550655|[bdsu]|"Patient"-text-22-"patient"-NN-0,"Patient"-text-0-"patient"-NN-0|text|1529/7;1565/7||
0354.txt|MMI|1.05|Status post|C0231290|[tmco]|"Status post"-text-2-"status post"-NN-0,"Following"-text-0-"following"-VBG-0|text|700/11;1324/9||
0354.txt|MMI|1.05|True Case Status|C3274647|[qlco]|"Case"-text-0-"case"-NN-0,"Case"-text-20-"case"-NN-0|text|1646/4;1698/4||
0354.txt|MMI|1.05|Veterinary Patient|C1705908|[orgm]|"Patient"-text-22-"patient"-NN-0,"Patient"-text-0-"patient"-NN-0|text|1529/7;1565/7||
0354.txt|MMI|1.05|emergent|C0750573|[idcn]|"emergent"-text-16-"emergent"-NN-0,"emergent"-text-18-"emergent"-NN-0|text|630/8;996/8||
0354.txt|MMI|1.05|signed - ParticipationSignature|C1561610|[inpr]|"signed"-text-12-"Signed"-NNP-0,"signed"-text-34-"Signed"-VBN-0|text|71/6;126/6||
0354.txt|MMI|0.98|Index|C0918012|[inpr]|"Index"-text-37-"Index"-NNP-0|text|1892/5|V02.550|
0354.txt|MMI|0.98|Indexes|C0600653|[inpr]|"Index"-text-37-"Index"-NNP-0|text|1892/5|V02.550|
0354.txt|MMI|0.52|Acute - Triage Code|C1547229|[inpr]|"Acute"-text-2-"acute"-JJ-0|text|949/5||
0354.txt|MMI|0.52|Admission Level of Care Code - Acute|C1547295|[inpr]|"Acute"-text-2-"acute"-JJ-0|text|949/5||
0354.txt|MMI|0.52|Admission date:Time Stamp -- Date and Time:Point in time:^Patient:Quantitative|C2598112|[clna]|"Admission date"-text-18-"Admission Date"-NNP-0|text|82/14||
0354.txt|MMI|0.52|All|C0444868|[qnco]|"All"-text-0-"all"-DT-0|text|1733/3||
0354.txt|MMI|0.52|Attending (action)|C1999232|[ftcn]|"attending"-text-7-"Attending"-VBG-0|text|1825/9||
0354.txt|MMI|0.52|Attending (provider role)|C1547429|[prog]|"Attending"-text-7-"Attending"-VBG-0|text|1825/9||
0354.txt|MMI|0.52|Autopsy - Consent type|C1548821|[hlca]|"Autopsy"-text-14-"autopsy"-NN-0|text|1683/7||
0354.txt|MMI|0.52|BCR gene|C0812385|[gngm]|"ALL"-text-0-"all"-DT-0|text|1733/3||
0354.txt|MMI|0.52|BCR wt Allele|C1704799|[gngm]|"ALL"-text-0-"all"-DT-0|text|1733/3||
0354.txt|MMI|0.52|Clinical act of insertion|C0441587|[hlca]|"placement"-text-0-"placement"-NN-0|text|1334/9||
0354.txt|MMI|0.52|Continuity Assessment Record and Evaluation|C2362566|[inpr]|"CARE"-text-30-"care"-NN-0|text|1554/4||
0354.txt|MMI|0.52|DNR - Do not resuscitate|C0582114|[fndg]|"DNR"-text-24-"DNR"-NN-0|text|1537/3||
0354.txt|MMI|0.52|Date of admission|C1302393|[tmco]|"Admission date"-text-18-"Admission Date"-NNP-0|text|82/14||
0354.txt|MMI|0.52|Device system|C3888058|[mnob]|"System"-text-2-"system"-NN-0|text|1472/6||
0354.txt|MMI|0.52|Diagnostic interview schedule|C0451119|[inpr]|"DIS"-text-14-"DIS"-NNPS-0|text|78/3||
0354.txt|MMI|0.52|Dialysis catheter|C0179747|[medd]|"Dialysis catheter"-text-4-"dialysis catheter"-NN-0|text|905/17||
0354.txt|MMI|0.52|Digoxin measurement|C0337449|[lbpr]|"digoxin"-text-2-"Digoxin"-NNP-0|text|839/7||
0354.txt|MMI|0.52|Discontinued|C1444662|[fndg]|"DIS"-text-14-"DIS"-NNPS-0|text|78/3||
0354.txt|MMI|0.52|Do not resuscitate:Find:Pt:{Setting}:Doc:{Role}|C4285234|[clna]|"DNR"-text-24-"DNR"-NN-0|text|1537/3||
0354.txt|MMI|0.52|Drug Delivery System Category|C4722239|[bodm]|"System"-text-2-"system"-NN-0|text|1472/6||
0354.txt|MMI|0.52|Electrocardiogram: myocardial infarction (finding)|C0428953|[lbtr]|"MYOCARDIAL INFARCTION"-text-6-"myocardial infarction"-JJ-0|text|712/21||
0354.txt|MMI|0.52|Event Seriousness - Significant|C1546944|[qlco]|"Significant"-text-0-"significant"-JJ-0|text|1152/11||
0354.txt|MMI|0.52|Facilitated oscillatory release technique|C1562169|[topp]|"FOR"-text-0-"for"-IN-0|text|504/3||
0354.txt|MMI|0.52|Failed|C0231175|[ftcn]|"Failed"-text-0-"failed"-VBD-0|text|1306/6||
0354.txt|MMI|0.52|Follow-Up Information|C4745114|[inpr]|"Follow Up"-text-0-"Follow up"-VB-0|text|1180/9||
0354.txt|MMI|0.52|Follow-up status|C0589120|[fndg]|"follow up"-text-0-"Follow up"-VB-0|text|1180/9||
0354.txt|MMI|0.52|Following|C0332282|[tmco]|"Following"-text-0-"following"-VBG-0|text|1324/9||
0354.txt|MMI|0.52|History of present illness|C0262512|[fndg]|"History of present illness"-text-0-"HISTORY OF PRESENT ILLNESS"-NN-0|text|346/26||
0354.txt|MMI|0.52|History of present illness:Finding:Point in time:^Patient:Nominal:Reported|C0488508|[clna]|"History of Present illness"-text-0-"HISTORY OF PRESENT ILLNESS"-NN-0|text|346/26||
0354.txt|MMI|0.52|Hospital environment|C1510665|[qlco]|"Hospital"-text-0-"hospital"-NN-0|text|569/8||
0354.txt|MMI|0.52|Html Link Type - index|C1552854|[idcn]|"index"-text-37-"Index"-NNP-0|text|1892/5||
0354.txt|MMI|0.52|Hypertension, CTCAE|C1963138|[fndg]|"Hypertension"-text-22-"hypertension"-NN-0|text|769/12||
0354.txt|MMI|0.52|Hypertensive disease|C0020538|[dsyn]|"Hypertension"-text-22-"hypertension"-NN-0|text|769/12||
0354.txt|MMI|0.52|Identified|C0205396|[qlco]|"Identification"-text-48-"IDENTIFICATION"-NN-0|text|161/14||
0354.txt|MMI|0.52|Implantation procedure|C0021107|[topp]|"Placement"-text-0-"placement"-NN-0|text|1334/9||
0354.txt|MMI|0.52|Informed|C1522154|[qlco]|"Informed"-text-0-"informed"-VBN-0|text|1720/8||
0354.txt|MMI|0.52|Involvement with|C1314939|[ftcn]|"Involvement"-text-4-"involvement"-NN-0|text|1479/11||
0354.txt|MMI|0.52|Make - Instruction Imperative|C1881534|[ftcn]|"Make"-text-18-"make"-VB-0|text|1520/4||
0354.txt|MMI|0.52|Manufacturer Name|C0947322|[inpr]|"Make"-text-18-"make"-VB-0|text|1520/4||
0354.txt|MMI|0.52|Massive|C0522501|[qlco]|"Massive"-text-32-"massive"-JJ-0|text|1033/7||
0354.txt|MMI|0.52|Material Identification|C4520791|[ftcn]|"Identification"-text-48-"IDENTIFICATION"-NN-0|text|161/14||
0354.txt|MMI|0.52|Medical History|C0262926|[fndg]|"Past Medical History"-text-0-"PAST MEDICAL HISTORY"-NN-0|text|653/20||
0354.txt|MMI|0.52|Medications|C4284232|[inpr]|"Medications"-text-0-"MEDICATIONS"-NNS-0|text|784/11||
0354.txt|MMI|0.52|Medications on admission|C1627937|[fndg]|"Medications on admission"-text-0-"Medications on admission"-NNS-0|text|798/24||
0354.txt|MMI|0.52|Medications:-:Point in time:^Patient:-|C2598133|[clna]|"Medications"-text-0-"MEDICATIONS"-NNS-0|text|784/11||
0354.txt|MMI|0.52|Medications:Presence or Identity:Duration of the study:^Patient:Nominal|C0802604|[clna]|"Medications"-text-0-"MEDICATIONS"-NNS-0|text|784/11||
0354.txt|MMI|0.52|Mental Status Change|C0856054|[mobd]|"Change in mental status"-text-10-"change in mental status"-NN-0|text|955/23||
0354.txt|MMI|0.52|Morning|C0332170|[tmco]|"Morning"-text-8-"morning"-NN-0|text|605/7||
0354.txt|MMI|0.52|Myocardial Infarction ECG Assessment|C3810814|[diap]|"Myocardial Infarction"-text-6-"myocardial infarction"-JJ-0|text|712/21||
0354.txt|MMI|0.52|Myocardial Infarction, CTCAE|C4552959|[fndg]|"Myocardial infarction"-text-6-"myocardial infarction"-JJ-0|text|712/21||
0354.txt|MMI|0.52|Myocardial infarction:Finding:Point in time:^Patient:Ordinal|C2926063|[clna]|"Myocardial infarction"-text-6-"myocardial infarction"-JJ-0|text|712/21||
0354.txt|MMI|0.52|NUMB gene|C1417890|[gngm]|"NUMB"-text-0-"numb"-JJ-0|text|585/4||
0354.txt|MMI|0.52|Numb (emotional response)|C1709287|[inbe]|"Numb"-text-0-"numb"-JJ-0|text|585/4||
0354.txt|MMI|0.52|Numerous|C0439064|[qnco]|"Multiple"-text-0-"multiple"-JJ-0|text|1463/8||
0354.txt|MMI|0.52|Organization unit type - Hospital|C1547192|[idcn]|"Hospital"-text-0-"hospital"-NN-0|text|569/8||
0354.txt|MMI|0.52|PMH - past medical history|C0455458|[fndg]|"Past medical history"-text-0-"PAST MEDICAL HISTORY"-NN-0|text|653/20||
0354.txt|MMI|0.52|Patient Outcome - Worsening|C1546960|[idcn]|"Worsening"-text-0-"worsening"-VBG-0|text|1205/9||
0354.txt|MMI|0.52|Pharmaceutical Preparations|C0013227|[phsu]|"medications"-text-0-"MEDICATIONS"-NNS-0|text|784/11|D26|
0354.txt|MMI|0.52|Placement|C1524072|[qlco]|"Placement"-text-0-"placement"-NN-0|text|1334/9||
0354.txt|MMI|0.52|Point|C3714763|[spco]|"Point"-text-0-"point"-NN-0|text|1441/5||
0354.txt|MMI|0.52|Point Name|C2347617|[qnco]|"point"-text-0-"point"-NN-0|text|1441/5||
0354.txt|MMI|0.52|Post|C0687676|[tmco]|"Status Post"-text-2-"status post"-NN-0|text|700/11||
0354.txt|MMI|0.52|Preposition For|C0521125|[qlco]|"For"-text-0-"for"-IN-0|text|504/3||
0354.txt|MMI|0.52|Presentation|C0449450|[idcn]|"Presented"-text-0-"presented"-VBD-0|text|552/9||
0354.txt|MMI|0.52|Prognosis bad|C0278252|[fndg]|"Poor prognosis"-text-10-"poor prognosis"-JJ-0|text|1375/14||
0354.txt|MMI|0.52|Report status (finding)|C0586177|[fndg]|"Report status"-text-30-"Report Status"-NNP-0|text|110/13||
0354.txt|MMI|0.52|Report status:Type:Point in time:Report:Nominal|C4760061|[clna]|"Report status"-text-30-"Report Status"-NNP-0|text|110/13||
0354.txt|MMI|0.52|Room type - Intensive care unit|C1549475|[idcn]|"Intensive care unit"-text-24-"Intensive Care Unit"-NNP-0|text|1280/19||
0354.txt|MMI|0.52|Significant|C0750502|[idcn]|"Significant"-text-0-"significant"-JJ-0|text|1152/11||
0354.txt|MMI|0.52|Specimen Source Codes - Autopsy|C1546546|[inpr]|"Autopsy"-text-14-"autopsy"-NN-0|text|1683/7||
0354.txt|MMI|0.52|Stage level 1|C0441766|[clas]|"Stage I"-text-0-"stage I"-NN-0|text|508/7||
0354.txt|MMI|0.52|Statistical Significance|C0237881|[qnco]|"significant"-text-0-"significant"-JJ-0|text|1152/11||
0354.txt|MMI|0.52|System|C0449913|[ftcn]|"System"-text-2-"system"-NN-0|text|1472/6||
0354.txt|MMI|0.52|System (unit of presentation)|C4318427|[qnco]|"System"-text-2-"system"-NN-0|text|1472/6||
0354.txt|MMI|0.52|System - kit|C1553451|[mnob]|"System"-text-2-"system"-NN-0|text|1472/6||
0354.txt|MMI|0.52|System Dosing Unit|C4724103|[qnco]|"System"-text-2-"system"-NN-0|text|1472/6||
0354.txt|MMI|0.52|Target Lesion Identification|C2986546|[diap]|"Index"-text-37-"Index"-NNP-0|text|1892/5||
0354.txt|MMI|0.52|This (eukaryote)|C1080058|[euka]|"This"-text-6-"this"-DT-0|text|600/4||
0354.txt|MMI|0.52|Treated with|C0332293|[topp]|"Treated with"-text-10-"treated with"-VBN-0|text|529/12||
0354.txt|MMI|0.52|Treating|C1522326|[ftcn]|"treated with"-text-10-"treated with"-VBN-0|text|529/12||
0354.txt|MMI|0.52|Universal restriction modifier (core metadata concept)|C3539085|[idcn]|"All"-text-0-"all"-DT-0|text|1733/3||
0354.txt|MMI|0.52|WWOX gene|C1421525|[gngm]|"FOR"-text-0-"for"-IN-0|text|504/3||
0354.txt|MMI|0.52|WWOX wt Allele|C4321252|[gngm]|"FOR"-text-0-"for"-IN-0|text|504/3||
0354.txt|MMI|0.52|Withdraw (activity)|C2349954|[acty]|"Withdraw"-text-28-"withdraw"-VB-0|text|1545/8||
0354.txt|MMI|0.52|Worse|C1457868|[fndg]|"Worsening"-text-0-"worsening"-VBG-0|text|1205/9||
0354.txt|MMI|0.52|Worsening pattern|C0332271|[qlco]|"Worsening"-text-0-"worsening"-VBG-0|text|1205/9||
0354.txt|MMI|0.52|acute|C0205178|[tmco]|"acute"-text-2-"acute"-JJ-0|text|949/5||
0354.txt|MMI|0.52|acute inpatient encounter|C1551345|[hlca]|"ACUTE"-text-2-"acute"-JJ-0|text|949/5||
0354.txt|MMI|0.52|all - LocalMarkupIgnore|C1552816|[inpr]|"all"-text-0-"all"-DT-0|text|1733/3||
0354.txt|MMI|0.52|all - TableRules|C1552837|[idcn]|"all"-text-0-"all"-DT-0|text|1733/3||
0354.txt|MMI|0.52|care activity|C1947933|[acty]|"Care"-text-30-"care"-NN-0|text|1554/4||
0354.txt|MMI|0.52|consider|C0750591|[idcn]|"considering"-text-0-"considering"-VBG-0|text|1447/11||
0354.txt|MMI|0.52|dictated - DocumentCompletion|C1609990|[idcn]|"dictated"-text-0-"Dictated"-NNP-0|text|1763/8||
0354.txt|MMI|0.52|dictated - ParticipationMode|C1548384|[ftcn]|"dictated"-text-0-"Dictated"-NNP-0|text|1763/8||
0354.txt|MMI|0.52|follow-up|C1522577|[hlca]|"Follow Up"-text-0-"Follow up"-VB-0|text|1180/9||
0354.txt|MMI|0.52|point - UnitsOfMeasure|C1552961|[qnco]|"Point"-text-0-"point"-NN-0|text|1441/5||
0354.txt|MMI|0.50|Batch (Response Modality)|C1550176|[inpr]|"Batch"-text-31-"Batch"-NNP-0|text|1879/5||
0354.txt|MMI|0.50|Batch (group)|C1948031|[qnco]|"Batch"-text-31-"Batch"-NNP-0|text|1879/5||
0354.txt|MMI|0.50|Batch Number|C3641829|[inpr]|"BATCH"-text-31-"Batch"-NNP-0|text|1879/5||
0354.txt|MMI|0.50|CAT scan of head|C0202691|[diap]|"head ct scan"-text-24-"head CT scan"-NN-0|text|1005/12||
0354.txt|MMI|0.50|Certificate Status - Expired|C1549070|[idcn]|"Expired"-text-0-"expired"-VBD-0|text|1573/7||
0354.txt|MMI|0.50|Cessation of life|C0011065|[orgf]|"EXPIRED"-text-0-"expired"-VBD-0|text|1573/7||
0354.txt|MMI|0.50|Discharge date|C2361123|[tmco]|"Discharge date"-text-38-"Discharge Date"-NNP-0|text|133/14||
0354.txt|MMI|0.50|Discharge date:Time Stamp -- Date and Time:Point in time:^Patient:Quantitative|C2361122|[clna]|"Discharge date"-text-38-"Discharge Date"-NNP-0|text|133/14||
0354.txt|MMI|0.50|Discharge summarization note:Finding:Point in time:{Setting}:Document:{Provider}|C0801840|[clna]|"Discharge summary"-text-10-"Discharge Summary"-JJ-0|text|53/17||
0354.txt|MMI|0.50|Discharge summary|C0743221|[inpr]|"Discharge summary"-text-10-"Discharge Summary"-JJ-0|text|53/17||
0354.txt|MMI|0.50|Entire right lower leg|C1279605|[bpoc]|"Right leg"-text-4-"right leg"-JJ-0|text|590/9||
0354.txt|MMI|0.50|Excision|C0728940|[topp]|"Resection"-text-0-"resection"-NN-0|text|494/9||
0354.txt|MMI|0.50|Expiration|C1704631|[idcn]|"Expired"-text-0-"expired"-VBD-0|text|1573/7||
0354.txt|MMI|0.50|Expiration, function|C0231800|[orgf]|"Expired"-text-0-"expired"-VBD-0|text|1573/7||
0354.txt|MMI|0.50|Referral status - Expired|C1548436|[idcn]|"Expired"-text-0-"expired"-VBD-0|text|1573/7||
0354.txt|MMI|0.50|Right lower extremity|C0230415|[bpoc]|"Right leg"-text-4-"right leg"-JJ-0|text|590/9||
0354.txt|MMI|0.50|Specimen Reject Reason - Expired|C1548771|[qlco]|"Expired"-text-0-"expired"-VBD-0|text|1573/7||
0354.txt|MMI|0.50|Structure of right lower leg|C0230442|[bpoc]|"Right leg"-text-4-"right leg"-JJ-0|text|590/9||
0354.txt|MMI|0.50|removal technique|C0015252|[topp]|"Resection"-text-0-"resection"-NN-0|text|494/9||
