0357.txt|MMI|194.14|Wiskott-Aldrich Syndrome|C0043194|[dsyn]|"WAS"-text-2-"was"-VBD-0,"WAS"-text-12-"was"-VBD-0,"WAS"-text-10-"was"-VBD-0,"WAS"-text-0-"was"-VBD-0,"WAS"-text-0-"was"-VBD-0,"WAS"-text-0-"was"-VBD-0,"WAS"-text-0-"was"-VBD-0,"WAS"-text-0-"was"-VBD-0,"WAS"-text-0-"was"-VBD-0,"WAS"-text-2-"was"-VBD-0,"WAS"-text-6-"was"-VBD-0,"WAS"-text-0-"was"-VBD-0|text|632/3;652/3;762/3;1082/3;1161/3;1248/3;1306/3;1349/3;1438/3;1571/3;1703/3;1733/3|C20.673.627.900;C15.378.553.546.605.900;C16.320.798.875;C20.673.795.875;C16.320.322.937;C15.378.463.960;C16.320.099.970;C15.378.100.100.970|
0357.txt|MMI|22.86|WAS protein, human|C1565156|[bacs, aapp]|"WAS"-text-2-"was"-VBD-0,"WAS"-text-12-"was"-VBD-0,"WAS"-text-10-"was"-VBD-0,"WAS"-text-0-"was"-VBD-0,"WAS"-text-0-"was"-VBD-0,"WAS"-text-0-"was"-VBD-0,"WAS"-text-0-"was"-VBD-0,"WAS"-text-0-"was"-VBD-0,"WAS"-text-0-"was"-VBD-0,"WAS"-text-2-"was"-VBD-0,"WAS"-text-6-"was"-VBD-0,"WAS"-text-0-"was"-VBD-0|text|632/3;652/3;762/3;1082/3;1161/3;1248/3;1306/3;1349/3;1438/3;1571/3;1703/3;1733/3|x.x.x.x|
0357.txt|MMI|14.99|Postoperative Period|C0032790|[tmco]|"Postop"-text-0-"postop"-JJ-0,"Postop"-text-0-"postop"-JJ-0,"Postop"-text-0-"postop"-JJ-0,"Postop"-text-0-"postop"-JJ-0|text|1135/6;1222/6;1402/6;1654/6|N02.421.585.753.750;E04.614.750|
0357.txt|MMI|14.44|Andorra|C0002838|[geoa]|"AND"-text-36-"and"-CC-0,"AND"-text-0-"and"-CC-0,"AND"-text-0-"and"-CC-0,"AND"-text-0-"and"-CC-0,"AND"-text-2-"and"-CC-0,"AND"-text-4-"and"-CC-0,"AND"-text-20-"and"-CC-0,"AND"-text-6-"and"-CC-0,"AND"-text-14-"and"-CC-0,"AND"-text-4-"and"-CC-0|text|499/3;628/3;835/3;1093/3;1174/3;1266/3;1488/3;1581/3;1611/3;1699/3|Z01.542.049|
0357.txt|MMI|11.13|Pain|C0030193|[sosy]|"Pain"-text-0-"pain"-NN-0,"Pain"-text-0-"pain"-NN-0|text|1841/4;1859/4|G11.561.790.444;F02.830.816.444;C23.888.592.612|
0357.txt|MMI|11.11|Patient Discharge|C0030685|[hlca]|"Discharged"-text-0-"discharged"-VBN-0|text|1737/10|N04.590.233.727.210.125;E02.760.169.125;N02.421.585.169.125;E02.760.400.610;N02.421.585.400.610|
0357.txt|MMI|9.52|HAC protocol|C0062074|[topp]|"HAD"-text-4-"had"-VBN-0,"HAD"-text-2-"had"-VBD-0,"HAD"-text-6-"had"-VBD-0,"HAD"-text-26-"had"-VBD-0,"HAD"-text-0-"had"-VBD-0|text|843/3;973/3;1270/3;1502/3;1681/3|x.x.x.x|
0357.txt|MMI|8.81|Passive Cutaneous Anaphylaxis|C0030625|[lbpr]|"PCA"-text-12-"PCA"-NNP-0|text|1196/3|E01.370.225.812.871.600;E05.200.812.871.600;E05.478.594.890.600;G12.122.754|
0357.txt|MMI|7.85|SHE gene|C1822717|[gngm]|"SHE"-text-0-"She"-PRP-0,"SHE"-text-0-"She"-PRP-0,"SHE"-text-0-"She"-PRP-0,"SHE"-text-8-"she"-PRP-0,"SHE"-text-0-"She"-PRP-0,"SHE"-text-0-"She"-PRP-0,"SHE"-text-0-"she"-PRP-0,"SHE"-text-0-"she"-PRP-0,"SHE"-text-0-"she"-PRP-0,"SHE"-text-0-"she"-PRP-0,"SHE"-text-0-"She"-PRP-0,"SHE"-text-22-"she"-PRP-0,"SHE"-text-0-"she"-PRP-0,"SHE"-text-0-"she"-PRP-0,"SHE"-text-0-"She"-PRP-0|text|517/3;579/3;694/3;758/3;797/3;908/3;969/3;1097/3;1157/3;1244/3;1302/3;1492/3;1567/3;1677/3;1729/3||
0357.txt|MMI|7.85|She Chinese|C4761447|[popg]|"SHE"-text-0-"She"-PRP-0,"SHE"-text-0-"She"-PRP-0,"SHE"-text-0-"She"-PRP-0,"SHE"-text-8-"she"-PRP-0,"SHE"-text-0-"She"-PRP-0,"SHE"-text-0-"She"-PRP-0,"SHE"-text-0-"she"-PRP-0,"SHE"-text-0-"she"-PRP-0,"SHE"-text-0-"she"-PRP-0,"SHE"-text-0-"she"-PRP-0,"SHE"-text-0-"She"-PRP-0,"SHE"-text-22-"she"-PRP-0,"SHE"-text-0-"she"-PRP-0,"SHE"-text-0-"she"-PRP-0,"SHE"-text-0-"She"-PRP-0|text|517/3;579/3;694/3;758/3;797/3;908/3;969/3;1097/3;1157/3;1244/3;1302/3;1492/3;1567/3;1677/3;1729/3||
0357.txt|MMI|6.97|Menorrhagia|C0025323|[patf]|"Menorrhagia"-text-0-"MENORRHAGIA"-NNP-0|text|287/11|C23.550.414.993.350;C23.550.568.875;C13.351.500.852.691.449|
0357.txt|MMI|6.97|pyrrolidonecarboxylic acid|C0034330|[bacs, irda, aapp]|"PCA"-text-12-"PCA"-NNP-0|text|1196/3|D12.125.067.625.850;D03.383.773.812.718;D12.125.072.401.761|
0357.txt|MMI|6.28|WAS gene|C1421478|[gngm]|"WAS"-text-2-"was"-VBD-0,"WAS"-text-12-"was"-VBD-0,"WAS"-text-10-"was"-VBD-0,"WAS"-text-0-"was"-VBD-0,"WAS"-text-0-"was"-VBD-0,"WAS"-text-0-"was"-VBD-0,"WAS"-text-0-"was"-VBD-0,"WAS"-text-0-"was"-VBD-0,"WAS"-text-0-"was"-VBD-0,"WAS"-text-2-"was"-VBD-0,"WAS"-text-6-"was"-VBD-0,"WAS"-text-0-"was"-VBD-0|text|632/3;652/3;762/3;1082/3;1161/3;1248/3;1306/3;1349/3;1438/3;1571/3;1703/3;1733/3||
0357.txt|MMI|6.28|Washoe language|C1555640|[lang]|"WAS"-text-2-"was"-VBD-0,"WAS"-text-12-"was"-VBD-0,"WAS"-text-10-"was"-VBD-0,"WAS"-text-0-"was"-VBD-0,"WAS"-text-0-"was"-VBD-0,"WAS"-text-0-"was"-VBD-0,"WAS"-text-0-"was"-VBD-0,"WAS"-text-0-"was"-VBD-0,"WAS"-text-0-"was"-VBD-0,"WAS"-text-2-"was"-VBD-0,"WAS"-text-6-"was"-VBD-0,"WAS"-text-0-"was"-VBD-0|text|632/3;652/3;762/3;1082/3;1161/3;1248/3;1306/3;1349/3;1438/3;1571/3;1703/3;1733/3||
0357.txt|MMI|6.05|Gravidity|C0600457|[fndg]|"Gravida"-text-12-"gravida"-NNP-0|text|437/7|N06.850.490.812.250;G08.686.340;G08.686.784.769.213|
0357.txt|MMI|6.05|Parity|C0030563|[fndg]|"Para"-text-18-"para"-NN-0|text|450/4|G08.686.677;N06.850.490.812.600;G08.686.784.769.472|
0357.txt|MMI|5.59|Buthionine Sulfoximine|C0054252|[hops, aapp, phsu]|"BSO"-text-0-"BSO"-NNP-0|text|363/3|D12.125.166.676.620.125;D02.886.030.676.620.125|
0357.txt|MMI|5.24|And|C1515981|[idcn]|"And"-text-36-"and"-CC-0,"And"-text-0-"and"-CC-0,"And"-text-0-"and"-CC-0,"And"-text-0-"and"-CC-0,"And"-text-2-"and"-CC-0,"And"-text-4-"and"-CC-0,"And"-text-20-"and"-CC-0,"And"-text-6-"and"-CC-0,"And"-text-14-"and"-CC-0,"And"-text-4-"and"-CC-0|text|499/3;628/3;835/3;1093/3;1174/3;1266/3;1488/3;1581/3;1611/3;1699/3||
0357.txt|MMI|5.24|And - dosing instruction fragment|C1706368|[inpr]|"And"-text-36-"and"-CC-0,"And"-text-0-"and"-CC-0,"And"-text-0-"and"-CC-0,"And"-text-0-"and"-CC-0,"And"-text-2-"and"-CC-0,"And"-text-4-"and"-CC-0,"And"-text-20-"and"-CC-0,"And"-text-6-"and"-CC-0,"And"-text-14-"and"-CC-0,"And"-text-4-"and"-CC-0|text|499/3;628/3;835/3;1093/3;1174/3;1266/3;1488/3;1581/3;1611/3;1699/3||
0357.txt|MMI|5.24|RelationshipConjunction - and|C1550557|[inpr]|"and"-text-36-"and"-CC-0,"and"-text-0-"and"-CC-0,"and"-text-0-"and"-CC-0,"and"-text-0-"and"-CC-0,"and"-text-2-"and"-CC-0,"and"-text-4-"and"-CC-0,"and"-text-20-"and"-CC-0,"and"-text-6-"and"-CC-0,"and"-text-14-"and"-CC-0,"and"-text-4-"and"-CC-0|text|499/3;628/3;835/3;1093/3;1174/3;1266/3;1488/3;1581/3;1611/3;1699/3||
0357.txt|MMI|5.11|Metrorrhagia|C0025874|[patf]|"BREAK-THROUGH BLEEDING"-text-14-"break-through bleeding"-NN-0|text|859/22|C23.550.414.993.700;C13.351.500.852.691.622|
0357.txt|MMI|4.69|Pelvic Pain|C0030794|[sosy]|"Pelvic Pain"-text-0-"PELVIC PAIN"-NN-0,"Pelvic Pain"-text-40-"pelvic pain"-JJ-0|text|304/11;503/11|C23.888.592.612.944|
0357.txt|MMI|4.21|Laparoscopy|C0031150|[diap]|"laparoscopies"-text-0-"laparoscopies"-NNS-0|text|721/13|E04.502.250.520;E01.370.388.250.520|
0357.txt|MMI|4.19|Have|C3539897|[qlco]|"Has"-text-0-"has"-VBZ-0,"Has"-text-0-"has"-VBZ-0,"Has"-text-2-"has"-VBZ-0,"Had"-text-4-"had"-VBN-0,"Had"-text-2-"had"-VBD-0,"Had"-text-6-"had"-VBD-0,"Had"-text-26-"had"-VBD-0,"Had"-text-0-"had"-VBD-0|text|526/3;801/3;839/3;843/3;973/3;1270/3;1502/3;1681/3||
0357.txt|MMI|3.81|Demerol|C0935966|[orch, phsu]|"Demerol"-text-0-"Demerol"-NNP-0,"Demerol"-text-0-"Demerol"-NNP-0|text|1559/7;1829/7|x.x.x.x|
0357.txt|MMI|3.81|Endometriosis|C0014175|[dsyn]|"Endometriosis"-text-0-"ENDOMETRIOSIS"-NNP-0,"Endometriosis"-text-16-"endometriosis"-NN-0|text|321/13;781/13|C13.351.500.163|
0357.txt|MMI|3.81|Flatulence|C0016204|[sosy]|"Flatus"-text-14-"flatus"-NN-1,"Flatus"-text-2-"flatus"-NN-0|text|1289/6;1692/6|C23.888.821.360|
0357.txt|MMI|3.66|In addition to|C0332287|[ftcn]|"With"-text-24-"with"-IN-0,"With"-text-4-"with"-IN-0,"With"-text-14-"with"-IN-0,"With"-text-8-"with"-IN-0,"With"-text-10-"with"-IN-0,"With"-text-10-"with"-IN-0,"With"-text-0-"with"-IN-0|text|464/4;747/4;776/4;1189/4;1464/4;1598/4;1933/4||
0357.txt|MMI|3.66|With - dosing instruction fragment|C1705690|[inpr]|"With"-text-24-"with"-IN-0,"With"-text-4-"with"-IN-0,"With"-text-14-"with"-IN-0,"With"-text-8-"with"-IN-0,"With"-text-10-"with"-IN-0,"With"-text-10-"with"-IN-0,"With"-text-0-"with"-IN-0|text|464/4;747/4;776/4;1189/4;1464/4;1598/4;1933/4||
0357.txt|MMI|2.95|Patients|C0030705|[podg]|"Patient"-text-0-"patient"-NN-0,"Patient"-text-0-"patient"-NN-0,"Patient"-text-0-"patient"-NN-0|text|412/7;1527/7;1908/7|M01.643|
0357.txt|MMI|2.89|Disease|C0012634|[dsyn]|"DIS"-text-14-"DIS"-NNPS-0,"condition"-text-0-"condition"-NN-0|text|77/3;1764/9|C23.550.288|
0357.txt|MMI|2.83|p-Chloroamphetamine|C0030131|[orch, phsu]|"PCA"-text-12-"PCA"-NNP-0|text|1196/3|D02.092.471.683.152.200|
0357.txt|MMI|2.80|Pain management|C0002766|[topp]|"Pain Control"-text-18-"pain control"-NN-0|text|1204/12|E02.745;N04.590.607.500|
0357.txt|MMI|2.62|Facilitated oscillatory release technique|C1562169|[topp]|"FOR"-text-0-"for"-IN-0,"FOR"-text-16-"for"-IN-0,"FOR"-text-14-"for"-IN-0,"FOR"-text-0-"for"-IN-0,"FOR"-text-0-"for"-IN-0|text|598/3;882/3;1200/3;1837/3;1855/3||
0357.txt|MMI|2.62|HADH gene|C1415458|[gngm]|"HAD"-text-4-"had"-VBN-0,"HAD"-text-2-"had"-VBD-0,"HAD"-text-6-"had"-VBD-0,"HAD"-text-26-"had"-VBD-0,"HAD"-text-0-"had"-VBD-0|text|843/3;973/3;1270/3;1502/3;1681/3||
0357.txt|MMI|2.62|Preposition For|C0521125|[qlco]|"For"-text-0-"for"-IN-0,"For"-text-16-"for"-IN-0,"For"-text-14-"for"-IN-0,"For"-text-0-"for"-IN-0,"For"-text-0-"for"-IN-0|text|598/3;882/3;1200/3;1837/3;1855/3||
0357.txt|MMI|2.62|WWOX gene|C1421525|[gngm]|"FOR"-text-0-"for"-IN-0,"FOR"-text-16-"for"-IN-0,"FOR"-text-14-"for"-IN-0,"FOR"-text-0-"for"-IN-0,"FOR"-text-0-"for"-IN-0|text|598/3;882/3;1200/3;1837/3;1855/3||
0357.txt|MMI|2.62|WWOX wt Allele|C4321252|[gngm]|"FOR"-text-0-"for"-IN-0,"FOR"-text-16-"for"-IN-0,"FOR"-text-14-"for"-IN-0,"FOR"-text-0-"for"-IN-0,"FOR"-text-0-"for"-IN-0|text|598/3;882/3;1200/3;1837/3;1855/3||
0357.txt|MMI|2.09|Count of entities|C0449788|[qnco]|"number"-text-0-"number"-NN-0,"number"-text-0-"number"-NN-0,"number"-text-0-"number"-NN-0,"number"-text-0-"number"-NN-0|text|1146/6;1233/6;1413/6;1665/6||
0357.txt|MMI|2.09|Daily|C0332173|[tmco]|"Day"-text-0-"day"-NN-0,"Day"-text-0-"day"-NN-0,"Day"-text-0-"day"-NN-0,"Day"-text-0-"day"-NN-0|text|1142/3;1229/3;1409/3;1661/3||
0357.txt|MMI|2.09|MDF AttributeType - Number|C1554106|[idcn]|"Number"-text-0-"number"-NN-0,"Number"-text-0-"number"-NN-0,"Number"-text-0-"number"-NN-0,"Number"-text-0-"number"-NN-0|text|1146/6;1233/6;1413/6;1665/6||
0357.txt|MMI|2.09|Numbers|C0237753|[qnco]|"Number"-text-0-"number"-NN-0,"Number"-text-0-"number"-NN-0,"Number"-text-0-"number"-NN-0,"Number"-text-0-"number"-NN-0|text|1146/6;1233/6;1413/6;1665/6||
0357.txt|MMI|2.09|Precision - day|C1561539|[idcn]|"day"-text-0-"day"-NN-0,"day"-text-0-"day"-NN-0,"day"-text-0-"day"-NN-0,"day"-text-0-"day"-NN-0|text|1142/3;1229/3;1409/3;1661/3||
0357.txt|MMI|2.09|Transaction counts and value totals - day|C1561538|[inpr]|"day"-text-0-"day"-NN-0,"day"-text-0-"day"-NN-0,"day"-text-0-"day"-NN-0,"day"-text-0-"day"-NN-0|text|1142/3;1229/3;1409/3;1661/3||
0357.txt|MMI|2.09|day|C0439228|[tmco]|"day"-text-0-"day"-NN-0,"day"-text-0-"day"-NN-0,"day"-text-0-"day"-NN-0,"day"-text-0-"day"-NN-0|text|1142/3;1229/3;1409/3;1661/3||
0357.txt|MMI|1.97|Diagnosis|C0011900|[diap]|"Diagnosis"-text-0-"DIAGNOSIS"-NNP-0,"diagnosed"-text-12-"diagnosed"-VBN-0|text|272/9;766/9|E01;Y04|
0357.txt|MMI|1.90|Abdominal Cavity|C0230168|[blor]|"Abdomen"-text-0-"abdomen"-NN-0|text|1430/7|A01.923.047.025|
0357.txt|MMI|1.90|Adverse effects|C0879626|[patf]|"side effects"-text-24-"side effects"-NN-0|text|679/12|Y10.020;Y07.020|
0357.txt|MMI|1.90|Ambulation|C0945826|[orgf]|"Ambulation"-text-22-"ambulation"-NN-0|text|1638/10|x.x.x.x|
0357.txt|MMI|1.90|CHOANAL ATRESIA, POSTERIOR|C0220723|[fndg]|"PCA"-text-12-"PCA"-NNP-0|text|1196/3|x.x.x.x|
0357.txt|MMI|1.90|Colace|C0282139|[orch, phsu]|"Colace"-text-0-"Colace"-NNP-0|text|1866/6|x.x.x.x|
0357.txt|MMI|1.90|Danocrine|C0813502|[orch, phsu]|"Danocrine"-text-0-"Danocrine"-NNP-0|text|588/9|x.x.x.x|
0357.txt|MMI|1.90|Deafness, Sensorineural, And Male Infertility|C1970187|[dsyn]|"DIS"-text-14-"DIS"-NNPS-0|text|77/3|x.x.x.x|
0357.txt|MMI|1.90|Motrin|C0699203|[orch, phsu]|"Motrin"-text-0-"Motrin"-NNP-0|text|1848/6|x.x.x.x|
0357.txt|MMI|1.90|Principal Component Analysis|C0429865|[qnco]|"PCA"-text-12-"PCA"-NNP-0|text|1196/3|E05.318.740.562|
0357.txt|MMI|1.90|Tylenol|C0699142|[orch, phsu]|"Tylenol"-text-12-"Tylenol"-NNP-0|text|1603/7|x.x.x.x|
0357.txt|MMI|1.88|Depo-Provera|C0699700|[orch, phsu]|"Depo-Provera"-text-0-"Depo-Provera"-NNP-0|text|822/12|x.x.x.x|
0357.txt|MMI|1.88|Feelings|C1527305|[menp]|"Feeling"-text-8-"feeling"-VBG-0|text|1707/7|x.x.x.x|
0357.txt|MMI|1.88|Females|C0086287|[orga]|"Female"-text-22-"female"-NN-0|text|457/6|x.x.x.x|
0357.txt|MMI|1.88|Pain-Free|C0908489|[orch]|"pain free"-text-6-"pain free"-NN-0|text|636/9|x.x.x.x|
0357.txt|MMI|1.57|Disabled Person Code - Patient|C1578486|[inpr]|"Patient"-text-0-"patient"-NN-0,"Patient"-text-0-"patient"-NN-0,"Patient"-text-0-"patient"-NN-0|text|412/7;1527/7;1908/7||
0357.txt|MMI|1.57|Good|C0205170|[qlco]|"Well"-text-8-"well"-RB-0,"Well"-text-6-"well"-RB-0,"Good"-text-0-"good"-JJ-0|text|1125/4;1184/4;1759/4||
0357.txt|MMI|1.57|Herero language|C0574443|[lang]|"HER"-text-0-"Her"-PRP$-0,"HER"-text-0-"her"-PRP-0,"HER"-text-18-"her"-PRP$-0|text|1334/3;1426/3;1625/3||
0357.txt|MMI|1.57|Mail Claim Party - Patient|C1578481|[idcn]|"Patient"-text-0-"patient"-NN-0,"Patient"-text-0-"patient"-NN-0,"Patient"-text-0-"patient"-NN-0|text|412/7;1527/7;1908/7||
0357.txt|MMI|1.57|Pass (indicator)|C2828386|[fndg]|"Passed"-text-10-"passed"-VBN-1,"Passed"-text-30-"passed"-VBN-1,"Passed"-text-0-"passed"-VBN-0|text|1278/6;1510/6;1685/6||
0357.txt|MMI|1.57|Relationship modifier - Patient|C1578484|[idcn]|"Patient"-text-0-"patient"-NN-0,"Patient"-text-0-"patient"-NN-0,"Patient"-text-0-"patient"-NN-0|text|412/7;1527/7;1908/7||
0357.txt|MMI|1.57|Report source - Patient|C1578483|[idcn]|"Patient"-text-0-"patient"-NN-0,"Patient"-text-0-"patient"-NN-0,"Patient"-text-0-"patient"-NN-0|text|412/7;1527/7;1908/7||
0357.txt|MMI|1.57|Specimen Source Codes - Patient|C1578485|[inpr]|"Patient"-text-0-"patient"-NN-0,"Patient"-text-0-"patient"-NN-0,"Patient"-text-0-"patient"-NN-0|text|412/7;1527/7;1908/7||
0357.txt|MMI|1.57|Specimen Type - Patient|C1550655|[bdsu]|"Patient"-text-0-"patient"-NN-0,"Patient"-text-0-"patient"-NN-0,"Patient"-text-0-"patient"-NN-0|text|412/7;1527/7;1908/7||
0357.txt|MMI|1.57|Status post|C0231290|[tmco]|"Status post"-text-56-"STATUS POST"-NNP-0,"Status post"-text-0-"status post"-NN-0,"Following"-text-6-"following"-VBG-0|text|182/11;701/11;1781/9||
0357.txt|MMI|1.57|Veterinary Patient|C1705908|[orgm]|"Patient"-text-0-"patient"-NN-0,"Patient"-text-0-"patient"-NN-0,"Patient"-text-0-"patient"-NN-0|text|412/7;1527/7;1908/7||
0357.txt|MMI|1.44|Abdomen|C0000726|[blor]|"Abdomen"-text-0-"abdomen"-NN-0|text|1430/7|A01.923.047|
0357.txt|MMI|1.44|History|C0019664|[ocdi]|"History"-text-0-"HISTORY"-NNP-0|text|369/7|K01.400;Y27|
0357.txt|MMI|1.44|Patient-Controlled Analgesia|C0078944|[topp]|"PCA"-text-12-"PCA"-NNP-0|text|1196/3|E03.091.120|
0357.txt|MMI|1.05|Act Class - procedure|C1546467|[ocac]|"procedure"-text-0-"PROCEDURE"-NNP-0,"procedure"-text-6-"procedure"-NN-0|text|347/9;1115/9||
0357.txt|MMI|1.05|Apyrexial|C0277797|[fndg]|"Afebrile"-text-0-"afebrile"-JJ-0,"Afebrile"-text-2-"afebrile"-JJ-0|text|1165/8;1257/8||
0357.txt|MMI|1.05|CDISC SDTM Procedure Terminology|C3539779|[inpr]|"Procedure"-text-0-"PROCEDURE"-NNP-0,"Procedure"-text-6-"procedure"-NN-0|text|347/9;1115/9||
0357.txt|MMI|1.05|Frequently|C0332183|[tmco]|"Frequently"-text-0-"frequently"-RB-0,"Frequent"-text-20-"frequent"-JJ-0|text|1321/10;1629/8||
0357.txt|MMI|1.05|Interventional procedure|C0184661|[topp]|"Procedure"-text-0-"PROCEDURE"-NNP-0,"Procedure"-text-6-"procedure"-NN-0|text|347/9;1115/9||
0357.txt|MMI|1.05|Loss|C1517945|[qnco]|"Loss"-text-14-"LOSS"-NNP-0,"Loss"-text-74-"LOSS"-NNP-0|text|2023/4;2129/4||
0357.txt|MMI|1.05|Microplate Well|C4283957|[spco]|"Well"-text-8-"well"-RB-0,"Well"-text-6-"well"-RB-0|text|1125/4;1184/4||
0357.txt|MMI|1.05|NR4A2 gene|C1417836|[gngm]|"NOT"-text-8-"not"-RB-0,"NOT"-text-28-"not"-RB-0|text|1274/3;1506/3||
0357.txt|MMI|1.05|Negation|C1518422|[ftcn]|"Not"-text-8-"not"-RB-0,"Not"-text-28-"not"-RB-0|text|1274/3;1506/3||
0357.txt|MMI|1.05|Physical Medical Procedure|C3274430|[hlca]|"PROCEDURE"-text-0-"PROCEDURE"-NNP-0,"PROCEDURE"-text-6-"procedure"-NN-0|text|347/9;1115/9||
0357.txt|MMI|1.05|Post|C0687676|[tmco]|"Status Post"-text-56-"STATUS POST"-NNP-0,"Status Post"-text-0-"status post"-NN-0|text|182/11;701/11||
0357.txt|MMI|1.05|Procedure (set of actions)|C2700391|[ftcn]|"Procedure"-text-0-"PROCEDURE"-NNP-0,"Procedure"-text-6-"procedure"-NN-0|text|347/9;1115/9||
0357.txt|MMI|1.05|Procedure:Type:Point in time:^Patient:Narrative|C0945766|[clna]|"Procedure"-text-0-"PROCEDURE"-NNP-0,"Procedure"-text-6-"procedure"-NN-0|text|347/9;1115/9||
0357.txt|MMI|1.05|Signature|C1519316|[inpr]|"Signed"-text-12-"Signed"-NNP-0,"Signed"-text-34-"Signed"-VBN-0|text|70/6;125/6||
0357.txt|MMI|1.05|Well|C3146287|[mnob]|"Well"-text-8-"well"-RB-0,"Well"-text-6-"well"-RB-0|text|1125/4;1184/4||
0357.txt|MMI|1.05|Well Marginated Nodule|C4761387|[fndg]|"Well"-text-8-"well"-RB-0,"Well"-text-6-"well"-RB-0|text|1125/4;1184/4||
0357.txt|MMI|1.05|signed - ParticipationSignature|C1561610|[inpr]|"signed"-text-12-"Signed"-NNP-0,"signed"-text-34-"Signed"-VBN-0|text|70/6;125/6||
0357.txt|MMI|1.01|Administration Method - Pain|C1549543|[ftcn]|"Pain"-text-0-"pain"-NN-0,"Pain"-text-0-"pain"-NN-0|text|1841/4;1859/4||
0357.txt|MMI|1.01|Adverse Event Associated with Pain|C1557397|[fndg]|"PAIN"-text-0-"pain"-NN-0,"PAIN"-text-0-"pain"-NN-0|text|1841/4;1859/4||
0357.txt|MMI|1.01|Feel Pain|C4554132|[inpr]|"Pain"-text-0-"pain"-NN-0,"Pain"-text-0-"pain"-NN-0|text|1841/4;1859/4||
0357.txt|MMI|1.01|Frequency of Pain Question|C0518090|[inpr]|"Pain"-text-0-"pain"-NN-0,"Pain"-text-0-"pain"-NN-0|text|1841/4;1859/4||
0357.txt|MMI|1.01|Have Pain|C2984058|[inpr]|"Pain"-text-0-"pain"-NN-0,"Pain"-text-0-"pain"-NN-0|text|1841/4;1859/4||
0357.txt|MMI|1.01|How Much Distress Pain|C4085212|[inpr]|"Pain"-text-0-"pain"-NN-0,"Pain"-text-0-"pain"-NN-0|text|1841/4;1859/4||
0357.txt|MMI|1.01|Pain Distress Question|C4085211|[inpr]|"Pain"-text-0-"pain"-NN-0,"Pain"-text-0-"pain"-NN-0|text|1841/4;1859/4||
0357.txt|MMI|1.01|Pain by Anatomic Descriptor, CTCAE|C1882272|[fndg]|"Pain"-text-0-"pain"-NN-0,"Pain"-text-0-"pain"-NN-0|text|1841/4;1859/4||
0357.txt|MMI|1.01|Pain, CTCAE|C4553004|[fndg]|"Pain"-text-0-"pain"-NN-0,"Pain"-text-0-"pain"-NN-0|text|1841/4;1859/4||
0357.txt|MMI|1.01|Pain:-:Point in time:^Patient:-|C2598155|[clna]|"Pain"-text-0-"pain"-NN-0,"Pain"-text-0-"pain"-NN-0|text|1841/4;1859/4||
0357.txt|MMI|1.01|Pelvic Pain, CTCAE 5.0|C4554551|[fndg]|"Pelvic pain"-text-0-"PELVIC PAIN"-NN-0,"Pelvic pain"-text-40-"pelvic pain"-JJ-0|text|304/11;503/11||
0357.txt|MMI|1.01|Pelvic pain female|C0850758|[sosy]|"PELVIC PAIN"-text-0-"PELVIC PAIN"-NN-0,"PELVIC PAIN"-text-40-"pelvic pain"-JJ-0|text|304/11;503/11||
0357.txt|MMI|1.01|Total abdominal hysterectomy with bilateral salpingo-oophorectomy|C0542407|[topp]|"Total abdominal hysterectomy and bilateral salpingo-oophorectomy"-text-70-"TOTAL ABDOMINAL HYSTERECTOMY AND BILATERAL SALPINGO-OOPHORECTOMY"-NNP-0,"Total abdominal hysterectomy and bilateral salpingo-oophorectomy"-text-20-"total abdominal hysterectomy and bilateral salpingo-oophorectomy"-NN-0|text|194/64;994/64||
0357.txt|MMI|1.01|Usual Severity Pain|C4085210|[inpr]|"Pain"-text-0-"pain"-NN-0,"Pain"-text-0-"pain"-NN-0|text|1841/4;1859/4||
0357.txt|MMI|0.98|Gases|C0017110|[chvs]|"gas"-text-32-"gas"-NN-1|text|1517/3|D01.362|
0357.txt|MMI|0.98|Index|C0918012|[inpr]|"Index"-text-35-"Index"-NNP-0|text|2065/5|V02.550|
0357.txt|MMI|0.98|Indexes|C0600653|[inpr]|"Index"-text-35-"Index"-NNP-0|text|2065/5|V02.550|
0357.txt|MMI|0.96|Time|C0040223|[tmco]|"Time"-text-26-"time"-NN-0|text|901/4|G01.910|
0357.txt|MMI|0.96|Woman|C0043210|[popg]|"female"-text-22-"female"-NN-0|text|457/6|M01.975|
0357.txt|MMI|0.52|Abdominopelvic structure|C1508499|[blor]|"Abdomen"-text-0-"abdomen"-NN-0|text|1430/7||
0357.txt|MMI|0.52|Address type - Home|C1549632|[idcn]|"Home"-text-0-"home"-NN-0|text|1751/4||
0357.txt|MMI|0.52|Admission date:Time Stamp -- Date and Time:Point in time:^Patient:Quantitative|C2598112|[clna]|"Admission date"-text-18-"Admission Date"-NNP-0|text|81/14||
0357.txt|MMI|0.52|Adverse event|C0877248|[patf]|"side effects"-text-24-"side effects"-NN-0|text|679/12||
0357.txt|MMI|0.52|Ambulation:Find:Pt:^Patient:Nom|C4285652|[clna]|"Ambulation"-text-22-"ambulation"-NN-0|text|1638/10||
0357.txt|MMI|0.52|Amount class - Amount|C1561574|[inpr]|"Amount"-text-0-"amount"-NN-0|text|1549/6||
0357.txt|MMI|0.52|Any|C1552551|[qlco]|"Any"-text-12-"any"-DT-0|text|1285/3||
0357.txt|MMI|0.52|Any Data Type|C3272371|[inpr]|"ANY"-text-12-"any"-DT-0|text|1285/3||
0357.txt|MMI|0.52|Approximate|C0332232|[qlco]|"Approximately"-text-0-"approximately"-RB-0|text|602/13||
0357.txt|MMI|0.52|Associated with|C0332281|[qlco]|"associated"-text-0-"ASSOCIATED"-NNP-0|text|261/10||
0357.txt|MMI|0.52|Attending (action)|C1999232|[ftcn]|"attending"-text-5-"Attending"-VBG-0|text|2001/9||
0357.txt|MMI|0.52|Attending (provider role)|C1547429|[prog]|"Attending"-text-5-"Attending"-VBG-0|text|2001/9||
0357.txt|MMI|0.52|Beta-hemolytic Streptococcus, group A|C1541907|[bact]|"GAS"-text-32-"gas"-NN-1|text|1517/3||
0357.txt|MMI|0.52|Butting|C0233535|[mobd]|"but"-text-10-"but"-CC-0|text|648/3||
0357.txt|MMI|0.52|Concept History|C1705255|[cnce]|"History"-text-0-"HISTORY"-NNP-0|text|369/7||
0357.txt|MMI|0.52|Condition|C0348080|[qlco]|"Condition"-text-0-"condition"-NN-0|text|1764/9||
0357.txt|MMI|0.52|Condition Domain|C4722256|[inpr]|"CONDITION"-text-0-"condition"-NN-0|text|1764/9||
0357.txt|MMI|0.52|Condition:Find:Pt:^Patient:Nom|C3864998|[clna]|"Condition"-text-0-"condition"-NN-0|text|1764/9||
0357.txt|MMI|0.52|Continuous|C0549178|[idcn]|"Continued"-text-16-"continued"-VBD-0|text|1615/9||
0357.txt|MMI|0.52|Date of admission|C1302393|[tmco]|"Admission date"-text-18-"Admission Date"-NNP-0|text|81/14||
0357.txt|MMI|0.52|Decreased|C0205216|[qnco]|"Decreased"-text-0-"decreased"-VBD-0|text|1535/9||
0357.txt|MMI|0.52|Decreasing|C0442797|[fndg]|"decreased"-text-0-"decreased"-VBD-0|text|1535/9||
0357.txt|MMI|0.52|Diagnosis Classification - Diagnosis|C1546899|[clas]|"Diagnosis"-text-0-"DIAGNOSIS"-NNP-0|text|272/9||
0357.txt|MMI|0.52|Diagnosis Code|C1550350|[inpr]|"DIAGNOSIS"-text-0-"DIAGNOSIS"-NNP-0|text|272/9||
0357.txt|MMI|0.52|Diagnosis Study|C1704656|[resa]|"DIAGNOSIS"-text-0-"DIAGNOSIS"-NNP-0|text|272/9||
0357.txt|MMI|0.52|Diagnosis:Impression/interpretation of study:Point in time:^Patient:Nominal|C0945731|[clna]|"Diagnosis"-text-0-"DIAGNOSIS"-NNP-0|text|272/9||
0357.txt|MMI|0.52|Diagnostic interview schedule|C0451119|[inpr]|"DIS"-text-14-"DIS"-NNPS-0|text|77/3||
0357.txt|MMI|0.52|Dilated|C0700124|[fndg]|"Distended"-text-8-"distended"-VBN-0|text|1454/9||
0357.txt|MMI|0.52|Discontinued|C1444662|[fndg]|"DIS"-text-14-"DIS"-NNPS-0|text|77/3||
0357.txt|MMI|0.52|Distended|C4082695|[qlco]|"Distended"-text-8-"distended"-VBN-0|text|1454/9||
0357.txt|MMI|0.52|ENG gene|C1366583|[gngm]|"END"-text-91-"end"-NN-0|text|2157/3||
0357.txt|MMI|0.52|ENG wt Allele|C1704837|[gngm]|"END"-text-91-"end"-NN-0|text|2157/3||
0357.txt|MMI|0.52|End|C0444930|[spco]|"End"-text-91-"end"-NN-0|text|2157/3||
0357.txt|MMI|0.52|Endoglin, human|C0082420|[imft, aapp]|"END"-text-91-"end"-NN-0|text|2157/3||
0357.txt|MMI|0.52|Entire abdomen|C1281594|[bpoc]|"Abdomen"-text-0-"abdomen"-NN-0|text|1430/7||
0357.txt|MMI|0.52|Episode of|C0332189|[tmco]|"Episodes"-text-6-"episodes"-NNS-0|text|847/8||
0357.txt|MMI|0.52|Estimated blood loss|C1443559|[fndg]|"Estimated blood loss"-text-0-"Estimated blood loss"-VBN-0|text|1061/20||
0357.txt|MMI|0.52|FLVCR1 gene|C1836722|[gngm]|"PCA"-text-12-"PCA"-NNP-0|text|1196/3||
0357.txt|MMI|0.52|Familial lichen amyloidosis|C0268398|[dsyn]|"PCA"-text-12-"PCA"-NNP-0|text|1196/3||
0357.txt|MMI|0.52|Few|C0205388|[qnco]|"Few"-text-14-"few"-JJ-0|text|1471/3||
0357.txt|MMI|0.52|Following|C0332282|[tmco]|"Following"-text-6-"following"-VBG-0|text|1781/9||
0357.txt|MMI|0.52|GALNS gene|C1414950|[gngm]|"GAS"-text-32-"gas"-NN-1|text|1517/3||
0357.txt|MMI|0.52|GAST gene|C1439341|[gngm]|"GAS"-text-32-"gas"-NN-1|text|1517/3||
0357.txt|MMI|0.52|GAST wt Allele|C2986619|[gngm]|"GAS"-text-32-"gas"-NN-1|text|1517/3||
0357.txt|MMI|0.52|Gas - Specimen Source Codes|C1546643|[inpr]|"Gas"-text-32-"gas"-NN-1|text|1517/3||
0357.txt|MMI|0.52|Gas - SpecimenType|C1550641|[sbst]|"Gas"-text-32-"gas"-NN-1|text|1517/3||
0357.txt|MMI|0.52|Gas Dosage Form|C1704673|[bodm]|"Gas"-text-32-"gas"-NN-1|text|1517/3||
0357.txt|MMI|0.52|H/O: menorrhagia|C0699890|[dsyn]|"History of menorrhagia"-text-34-"history of menorrhagia"-NN-0|text|476/22||
0357.txt|MMI|0.52|Hematocrit level|C0518014|[fndg]|"Hematocrit"-text-0-"hematocrit"-NN-0|text|1338/10||
0357.txt|MMI|0.52|Hematocrit procedure|C0018935|[lbpr]|"Hematocrit"-text-0-"hematocrit"-NN-0|text|1338/10||
0357.txt|MMI|0.52|Historical aspects qualifier|C0019665|[ftcn]|"history"-text-0-"HISTORY"-NNP-0|text|369/7||
0357.txt|MMI|0.52|History of endometriosis|C4047997|[fndg]|"History of endometriosis"-text-0-"history of endometriosis"-NN-0|text|532/24||
0357.txt|MMI|0.52|History of present illness|C0262512|[fndg]|"history"-text-0-"HISTORY"-NNP-0|text|369/7||
0357.txt|MMI|0.52|History of previous events|C2004062|[fndg]|"History"-text-0-"HISTORY"-NNP-0|text|369/7||
0357.txt|MMI|0.52|Home environment|C0442519|[spco]|"Home"-text-0-"home"-NN-0|text|1751/4||
0357.txt|MMI|0.52|Hospital course|C0489547|[fndg]|"Hospital course"-text-0-"HOSPITAL COURSE"-NNP-0|text|939/15||
0357.txt|MMI|0.52|Hospital course:Finding:Point in time:^Patient:Narrative|C0488549|[clna]|"Hospital course"-text-0-"HOSPITAL COURSE"-NNP-0|text|939/15||
0357.txt|MMI|0.52|Html Link Type - index|C1552854|[idcn]|"index"-text-35-"Index"-NNP-0|text|2065/5||
0357.txt|MMI|0.52|In the past|C1444637|[tmco]|"In the past"-text-2-"in the past"-IN-0|text|735/11||
0357.txt|MMI|0.52|Is a|C1292718|[ftcn]|"Is a"-text-4-"is a"-VBZ-0|text|420/4||
0357.txt|MMI|0.52|Logical Condition|C1705253|[cnce]|"Condition"-text-0-"condition"-NN-0|text|1764/9||
0357.txt|MMI|0.52|Medical History|C0262926|[fndg]|"History"-text-0-"HISTORY"-NNP-0|text|369/7||
0357.txt|MMI|0.52|Medications|C4284232|[inpr]|"Medications"-text-8-"medications"-NNS-0|text|1791/11||
0357.txt|MMI|0.52|Medications:-:Point in time:^Patient:-|C2598133|[clna]|"Medications"-text-8-"medications"-NNS-0|text|1791/11||
0357.txt|MMI|0.52|Medications:Presence or Identity:Duration of the study:^Patient:Nominal|C0802604|[clna]|"Medications"-text-8-"medications"-NNS-0|text|1791/11||
0357.txt|MMI|0.52|Menorrhagia, CTCAE|C4553737|[fndg]|"Menorrhagia"-text-0-"MENORRHAGIA"-NNP-0|text|287/11||
0357.txt|MMI|0.52|Notable|C4288581|[qlco]|"Noted"-text-2-"noted"-VBN-0|text|1442/5||
0357.txt|MMI|0.52|Numerous|C0439064|[qnco]|"Several"-text-0-"several"-JJ-0|text|713/7||
0357.txt|MMI|0.52|Old|C0580836|[tmco]|"Old"-text-10-"old"-JJ-0|text|433/3||
0357.txt|MMI|0.52|Old episode|C0677546|[tmco]|"Old"-text-10-"old"-JJ-0|text|433/3||
0357.txt|MMI|0.52|Operative Surgical Procedures|C0543467|[topp]|"Surgical"-text-0-"surgical"-JJ-0|text|920/8|E04|
0357.txt|MMI|0.52|Organization unit type - Home|C1547197|[orgt]|"Home"-text-0-"home"-NN-0|text|1751/4||
0357.txt|MMI|0.52|PAGR1 gene|C1540252|[gngm]|"GAS"-text-32-"gas"-NN-1|text|1517/3||
0357.txt|MMI|0.52|PAGR1 wt Allele|C3812826|[gngm]|"GAS"-text-32-"gas"-NN-1|text|1517/3||
0357.txt|MMI|0.52|PCA Message Structure|C1549860|[inpr]|"PCA"-text-12-"PCA"-NNP-0|text|1196/3||
0357.txt|MMI|0.52|Para (geographic area)|C4722300|[geoa]|"Para"-text-18-"para"-NN-0|text|450/4||
0357.txt|MMI|0.52|Person location type - Home|C1548530|[spco]|"Home"-text-0-"home"-NN-0|text|1751/4||
0357.txt|MMI|0.52|Pharmaceutical Preparations|C0013227|[phsu]|"medications"-text-8-"medications"-NNS-0|text|1791/11|D26|
0357.txt|MMI|0.52|Precision - year|C1561544|[idcn]|"year"-text-8-"year"-NN-0|text|428/4||
0357.txt|MMI|0.52|Procedure estimated blood loss:Finding:Point in time:^Patient:Narrative|C2926617|[clna]|"Estimated blood loss"-text-0-"Estimated blood loss"-VBN-0|text|1061/20||
0357.txt|MMI|0.52|Quantity|C1265611|[qnco]|"Amount"-text-0-"amount"-NN-0|text|1549/6||
0357.txt|MMI|0.52|Reason for hospitalization|C1830395|[inpr]|"Reason for hospitalization"-text-0-"REASON FOR HOSPITALIZATION"-NNP-0|text|379/26||
0357.txt|MMI|0.52|Reason for hospitalization:Type:Pt:^Patient:Nom|C4522174|[clna]|"Reason for hospitalization"-text-0-"REASON FOR HOSPITALIZATION"-NNP-0|text|379/26||
0357.txt|MMI|0.52|Recent|C0332185|[tmco]|"Recently"-text-0-"recently"-RB-0|text|805/8||
0357.txt|MMI|0.52|Reduced|C0392756|[qlco]|"Decreased"-text-0-"decreased"-VBD-0|text|1535/9||
0357.txt|MMI|0.52|Regulatory Report|C3273238|[inpr]|"Report"-text-87-"report"-NN-0|text|2148/6||
0357.txt|MMI|0.52|Report (document)|C0684224|[inpr]|"Report"-text-87-"report"-NN-0|text|2148/6||
0357.txt|MMI|0.52|Report status (finding)|C0586177|[fndg]|"Report status"-text-30-"Report Status"-NNP-0|text|109/13||
0357.txt|MMI|0.52|Report status:Type:Point in time:Report:Nominal|C4760061|[clna]|"Report status"-text-30-"Report Status"-NNP-0|text|109/13||
0357.txt|MMI|0.52|Report:Finding:Point in time:{Setting}:Document:{Role}|C4255046|[clna]|"Report"-text-87-"report"-NN-0|text|2148/6||
0357.txt|MMI|0.52|Reporting|C0700287|[hlca]|"report"-text-87-"report"-NN-0|text|2148/6||
0357.txt|MMI|0.52|Several|C0443302|[qnco]|"Several"-text-0-"several"-JJ-0|text|713/7||
0357.txt|MMI|0.52|Side|C0441987|[spco]|"Side"-text-0-"SIDE"-NNP-0|text|1984/4||
0357.txt|MMI|0.52|Stop (qualifier value)|C2746065|[tmco]|"End"-text-91-"end"-NN-0|text|2157/3||
0357.txt|MMI|0.52|Structure of posterior cerebral artery|C0149576|[bpoc]|"PCA"-text-12-"PCA"-NNP-0|text|1196/3||
0357.txt|MMI|0.52|Surgical service|C0587668|[hlca]|"Surgical"-text-0-"surgical"-JJ-0|text|920/8||
0357.txt|MMI|0.52|Symptomatic|C0231220|[ftcn]|"Symptomatic"-text-4-"symptomatic"-JJ-0|text|565/11||
0357.txt|MMI|0.52|Tahitian language|C0574402|[lang]|"TAH"-text-0-"TAH"-NNP-0|text|359/3||
0357.txt|MMI|0.52|Target Lesion Identification|C2986546|[diap]|"Index"-text-35-"Index"-NNP-0|text|2065/5||
0357.txt|MMI|0.52|Therapeutic procedure|C0087111|[topp]|"Therapy"-text-0-"therapy"-NN-0|text|929/7||
0357.txt|MMI|0.52|Therapy Object (animal model)|C1363945|[fndg]|"Therapy"-text-0-"therapy"-NN-0|text|929/7||
0357.txt|MMI|0.52|Total abdominal hysterectomy|C0404079|[topp]|"tah"-text-0-"TAH"-NNP-0|text|359/3||
0357.txt|MMI|0.52|Transaction counts and value totals - year|C1561543|[inpr]|"year"-text-8-"year"-NN-0|text|428/4||
0357.txt|MMI|0.52|Two|C0205448|[qnco]|"Two"-text-0-"two"-CD-0|text|1240/3||
0357.txt|MMI|0.52|Unable|C1299582|[fndg]|"Unable"-text-14-"unable"-JJ-0|text|656/6||
0357.txt|MMI|0.52|Unable to Do|C4048706|[fndg]|"unable"-text-14-"unable"-JJ-0|text|656/6||
0357.txt|MMI|0.52|Unable to Use Stairs|C4321405|[inpr]|"unable"-text-14-"unable"-JJ-0|text|656/6||
0357.txt|MMI|0.52|Unable to feed self|C0566415|[fndg]|"unable"-text-14-"unable"-JJ-0|text|656/6||
0357.txt|MMI|0.52|Uncomplicated|C0443334|[qlco]|"Uncomplicated"-text-6-"uncomplicated"-JJ-0|text|980/13||
0357.txt|MMI|0.52|Use of|C1524063|[ftcn]|"Using"-text-4-"using"-VBG-0|text|1575/5||
0357.txt|MMI|0.52|Used by|C1273517|[fndg]|"used"-text-0-"used"-VBD-0|text|583/4||
0357.txt|MMI|0.52|Visit User Code - Home|C1548341|[inpr]|"Home"-text-0-"home"-NN-0|text|1751/4||
0357.txt|MMI|0.52|Walking (activity)|C0080331|[dora]|"Ambulation"-text-22-"ambulation"-NN-0|text|1638/10||
0357.txt|MMI|0.52|aspects of adverse effects|C0001688|[ftcn]|"side effects"-text-24-"side effects"-NN-0|text|679/12||
0357.txt|MMI|0.52|diagnosis aspect|C1704338|[ftcn]|"diagnosis"-text-0-"DIAGNOSIS"-NNP-0|text|272/9||
0357.txt|MMI|0.52|dictated - DocumentCompletion|C1609990|[idcn]|"dictated"-text-0-"Dictated"-NNP-0|text|1962/8||
0357.txt|MMI|0.52|dictated - ParticipationMode|C1548384|[ftcn]|"dictated"-text-0-"Dictated"-NNP-0|text|1962/8||
0357.txt|MMI|0.52|end - ActRelationshipCheckpoint|C1561490|[ftcn]|"end"-text-91-"end"-NN-0|text|2157/3||
0357.txt|MMI|0.52|gastrointestinal gas|C0596601|[sosy]|"Gas"-text-32-"gas"-NN-1|text|1517/3||
0357.txt|MMI|0.52|germacrene-A synthase activity|C2266618|[moft]|"GAS"-text-32-"gas"-NN-1|text|1517/3||
0357.txt|MMI|0.52|home health encounter|C1553498|[hlca]|"Home"-text-0-"home"-NN-0|text|1751/4||
0357.txt|MMI|0.52|month|C0439231|[tmco]|"Months"-text-0-"months"-NNS-0|text|621/6||
0357.txt|MMI|0.52|therapeutic aspects|C0039798|[ftcn]|"therapy"-text-0-"therapy"-NN-0|text|929/7||
0357.txt|MMI|0.52|week|C0439230|[tmco]|"Weeks"-text-20-"weeks"-NNS-0|text|890/5||
0357.txt|MMI|0.52|year|C0439234|[tmco]|"year"-text-8-"year"-NN-0|text|428/4||
0357.txt|MMI|0.50|1 (finding)|C5201140|[fndg]|"One"-text-0-"one"-CD-0|text|1153/3||
0357.txt|MMI|0.50|Arabic numeral 100|C1704407|[qnco]|"100"-text-0-"100"-CD-0|text|1086/3||
0357.txt|MMI|0.50|Batch (Response Modality)|C1550176|[inpr]|"Batch"-text-29-"Batch"-NNP-0|text|2051/5||
0357.txt|MMI|0.50|Batch (group)|C1948031|[qnco]|"Batch"-text-29-"Batch"-NNP-0|text|2051/5||
0357.txt|MMI|0.50|Batch Number|C3641829|[inpr]|"BATCH"-text-29-"Batch"-NNP-0|text|2051/5||
0357.txt|MMI|0.50|Bowel sounds|C0232693|[fndg]|"Bowel sounds"-text-18-"bowel sounds"-NN-0|text|1475/12||
0357.txt|MMI|0.50|Break-through bleeding (finding)|C3495440|[fndg]|"Break-through bleeding"-text-14-"break-through bleeding"-NN-0|text|859/22||
0357.txt|MMI|0.50|Clinical Study Follow-up|C3274571|[hlca]|"FOLLOW-UP"-text-0-"follow-up"-VB-0|text|1923/9||
0357.txt|MMI|0.50|Data types - Time|C1547403|[idcn]|"Time"-text-26-"time"-NN-0|text|901/4||
0357.txt|MMI|0.50|Discharge date|C2361123|[tmco]|"Discharge date"-text-38-"Discharge Date"-NNP-0|text|132/14||
0357.txt|MMI|0.50|Discharge date:Time Stamp -- Date and Time:Point in time:^Patient:Quantitative|C2361122|[clna]|"Discharge date"-text-38-"Discharge Date"-NNP-0|text|132/14||
0357.txt|MMI|0.50|Discharge summarization note:Finding:Point in time:{Setting}:Document:{Provider}|C0801840|[clna]|"Discharge summary"-text-10-"Discharge Summary"-JJ-0|text|52/17||
0357.txt|MMI|0.50|Discharge summary|C0743221|[inpr]|"Discharge summary"-text-10-"Discharge Summary"-JJ-0|text|52/17||
0357.txt|MMI|0.50|Female Phenotype|C1705498|[qlco]|"Female"-text-22-"female"-NN-0|text|457/6||
0357.txt|MMI|0.50|Female, Self-Report|C1705497|[qlco]|"Female"-text-22-"female"-NN-0|text|457/6||
0357.txt|MMI|0.50|Follow-Up Information|C4745114|[inpr]|"Follow-Up"-text-0-"follow-up"-VB-0|text|1923/9||
0357.txt|MMI|0.50|Follow-Up Report|C1704685|[inpr]|"Follow-Up"-text-0-"follow-up"-VB-0|text|1923/9||
0357.txt|MMI|0.50|Follow-up status|C0589120|[fndg]|"Follow-up"-text-0-"follow-up"-VB-0|text|1923/9||
0357.txt|MMI|0.50|Four|C0205450|[qnco]|"Four"-text-0-"four"-CD-0|text|1672/4||
0357.txt|MMI|0.50|Karnofsky Performance Status 100|C3829431|[fndg]|"100"-text-0-"100"-CD-0|text|1086/3||
0357.txt|MMI|0.50|Language Ability Proficiency - Good|C1551023|[idcn]|"Good"-text-0-"good"-JJ-0|text|1759/4||
0357.txt|MMI|0.50|Language Proficiency - Good|C1610541|[idcn]|"Good"-text-0-"good"-JJ-0|text|1759/4||
0357.txt|MMI|0.50|Lengthened (qualifier value)|C0392744|[ftcn]|"Long"-text-28-"long"-JJ-0|text|471/4||
0357.txt|MMI|0.50|Long|C0205166|[qlco]|"Long"-text-28-"long"-JJ-0|text|471/4||
0357.txt|MMI|0.50|Long Variable|C1706317|[qlco]|"Long"-text-28-"long"-JJ-0|text|471/4||
0357.txt|MMI|0.50|Medication.discharge|C0806915|[fndg]|"Discharge medications"-text-0-"DISCHARGE MEDICATIONS"-NN-0|text|1805/21||
0357.txt|MMI|0.50|Much better|C3841449|[fndg]|"Much better"-text-12-"much better"-RB-0|text|1715/11||
0357.txt|MMI|0.50|Nine|C0205455|[qnco]|"Nine"-text-0-"nine"-CD-0|text|616/4||
0357.txt|MMI|0.50|One|C0205447|[qnco]|"One"-text-0-"one"-CD-0|text|1153/3||
0357.txt|MMI|0.50|Pain control|C1304888|[topp]|"Pain control"-text-18-"pain control"-NN-0|text|1204/12||
0357.txt|MMI|0.50|Primary|C0205225|[qlco]|"Principal"-text-0-"PRINCIPAL"-NNP-0|text|337/9||
0357.txt|MMI|0.50|Principal Diagnosis:-:Point in time:^Patient:-|C2598194|[clna]|"Principal Diagnosis"-text-50-"PRINCIPAL DIAGNOSIS"-NNP-0|text|160/19||
0357.txt|MMI|0.50|Principal diagnosis|C0332137|[qlco]|"Principal diagnosis"-text-50-"PRINCIPAL DIAGNOSIS"-NNP-0|text|160/19||
0357.txt|MMI|0.50|Six|C0205452|[qnco]|"Six"-text-18-"six"-CD-0|text|886/3||
0357.txt|MMI|0.50|Specimen Quality - Good|C1561563|[qlco]|"Good"-text-0-"good"-JJ-0|text|1759/4||
0357.txt|MMI|0.50|Stool Softener|C0301470|[phsu]|"Stool Softener"-text-0-"stool softener"-NN-0|text|1873/14||
0357.txt|MMI|0.50|Stool Softener brand of docusate sodium|C1154263|[orch, phsu]|"stool softener"-text-0-"stool softener"-NN-0|text|1873/14||
0357.txt|MMI|0.50|Teaching principal|C0401925|[prog]|"Principal"-text-0-"PRINCIPAL"-NNP-0|text|337/9||
0357.txt|MMI|0.50|Three|C0205449|[qnco]|"Three"-text-0-"three"-CD-0|text|1420/5||
0357.txt|MMI|0.50|Three (answer to question)|C5201107|[fndg]|"Three"-text-0-"three"-CD-0|text|1420/5||
0357.txt|MMI|0.50|Time (foundation metadata concept)|C3541383|[tmco]|"Time"-text-26-"time"-NN-0|text|901/4||
0357.txt|MMI|0.50|Value type - Time|C1548318|[idcn]|"Time"-text-26-"time"-NN-0|text|901/4||
0357.txt|MMI|0.50|follow-up|C1522577|[hlca]|"follow-up"-text-0-"follow-up"-VB-0|text|1923/9||
