0374.txt|MMI|161.78|Wiskott-Aldrich Syndrome|C0043194|[dsyn]|"WAS"-text-0-"was"-VBD-0,"WAS"-text-4-"was"-VBD-0,"WAS"-text-0-"was"-VBD-0,"WAS"-text-12-"was"-VBD-0,"WAS"-text-2-"was"-VBD-0,"WAS"-text-0-"was"-VBD-0,"WAS"-text-6-"was"-VBD-0,"WAS"-text-0-"was"-VBD-0,"WAS"-text-0-"was"-VBD-0,"WAS"-text-0-"was"-VBD-0|text|411/3;899/3;1424/3;1457/3;1642/3;1681/3;1715/3;1763/3;1803/3;1893/3|C20.673.627.900;C15.378.553.546.605.900;C16.320.798.875;C20.673.795.875;C16.320.322.937;C15.378.463.960;C16.320.099.970;C15.378.100.100.970|
0374.txt|MMI|22.23|Patient Discharge|C0030685|[hlca]|"Discharged"-text-0-"discharged"-VBN-0,"Discharge"-text-2-"discharge"-NN-0|text|1767/10;1931/9|N04.590.233.727.210.125;E02.760.169.125;N02.421.585.169.125;E02.760.400.610;N02.421.585.400.610|
0374.txt|MMI|19.05|WAS protein, human|C1565156|[bacs, aapp]|"WAS"-text-0-"was"-VBD-0,"WAS"-text-4-"was"-VBD-0,"WAS"-text-0-"was"-VBD-0,"WAS"-text-12-"was"-VBD-0,"WAS"-text-2-"was"-VBD-0,"WAS"-text-0-"was"-VBD-0,"WAS"-text-6-"was"-VBD-0,"WAS"-text-0-"was"-VBD-0,"WAS"-text-0-"was"-VBD-0,"WAS"-text-0-"was"-VBD-0|text|411/3;899/3;1424/3;1457/3;1642/3;1681/3;1715/3;1763/3;1803/3;1893/3|x.x.x.x|
0374.txt|MMI|18.73|histidine|C0019602|[bacs, aapp, phsu]|"HIS"-text-6-"his"-PRP$-0,"HIS"-text-0-"his"-PRP$-0,"HIS"-text-0-"his"-PRP$-0,"HIS"-text-0-"His"-PRP$-0,"HIS"-text-0-"his"-PRP$-0|text|448/3;868/3;1168/3;1671/3;1842/3|D12.125.072.329;D12.125.142.308|
0374.txt|MMI|13.00|Andorra|C0002838|[geoa]|"AND"-text-2-"and"-CC-0,"AND"-text-8-"and"-CC-0,"AND"-text-2-"and"-CC-0,"AND"-text-0-"and"-CC-0,"AND"-text-0-"AND"-CC-0,"AND"-text-10-"and"-CC-0,"AND"-text-0-"and"-CC-0,"AND"-text-0-"and"-CC-0,"AND"-text-2-"and"-CC-0|text|436/3;983/3;1105/3;1164/3;1396/3;1453/3;1638/3;1700/3;1708/3|Z01.542.049|
0374.txt|MMI|8.81|Vision|C0042789|[orgf]|"see"-text-44-"see"-VB-0|text|1550/3|F02.830.816.964;G02.111.820.480.900;G11.561.790.964;G14.935;G04.835.480.900|
0374.txt|MMI|5.57|Pain|C0030193|[sosy]|"Pain"-text-0-"pain"-NN-0|text|531/4|G11.561.790.444;F02.830.816.444;C23.888.592.612|
0374.txt|MMI|5.24|WAS gene|C1421478|[gngm]|"WAS"-text-0-"was"-VBD-0,"WAS"-text-4-"was"-VBD-0,"WAS"-text-0-"was"-VBD-0,"WAS"-text-12-"was"-VBD-0,"WAS"-text-2-"was"-VBD-0,"WAS"-text-0-"was"-VBD-0,"WAS"-text-6-"was"-VBD-0,"WAS"-text-0-"was"-VBD-0,"WAS"-text-0-"was"-VBD-0,"WAS"-text-0-"was"-VBD-0|text|411/3;899/3;1424/3;1457/3;1642/3;1681/3;1715/3;1763/3;1803/3;1893/3||
0374.txt|MMI|5.24|Washoe language|C1555640|[lang]|"WAS"-text-0-"was"-VBD-0,"WAS"-text-4-"was"-VBD-0,"WAS"-text-0-"was"-VBD-0,"WAS"-text-12-"was"-VBD-0,"WAS"-text-2-"was"-VBD-0,"WAS"-text-0-"was"-VBD-0,"WAS"-text-6-"was"-VBD-0,"WAS"-text-0-"was"-VBD-0,"WAS"-text-0-"was"-VBD-0,"WAS"-text-0-"was"-VBD-0|text|411/3;899/3;1424/3;1457/3;1642/3;1681/3;1715/3;1763/3;1803/3;1893/3||
0374.txt|MMI|4.71|And|C1515981|[idcn]|"And"-text-2-"and"-CC-0,"And"-text-8-"and"-CC-0,"And"-text-2-"and"-CC-0,"And"-text-0-"and"-CC-0,"And"-text-0-"AND"-CC-0,"And"-text-10-"and"-CC-0,"And"-text-0-"and"-CC-0,"And"-text-0-"and"-CC-0,"And"-text-2-"and"-CC-0|text|436/3;983/3;1105/3;1164/3;1396/3;1453/3;1638/3;1700/3;1708/3||
0374.txt|MMI|4.71|And - dosing instruction fragment|C1706368|[inpr]|"And"-text-2-"and"-CC-0,"And"-text-8-"and"-CC-0,"And"-text-2-"and"-CC-0,"And"-text-0-"and"-CC-0,"And"-text-0-"AND"-CC-0,"And"-text-10-"and"-CC-0,"And"-text-0-"and"-CC-0,"And"-text-0-"and"-CC-0,"And"-text-2-"and"-CC-0|text|436/3;983/3;1105/3;1164/3;1396/3;1453/3;1638/3;1700/3;1708/3||
0374.txt|MMI|4.71|RelationshipConjunction - and|C1550557|[inpr]|"and"-text-2-"and"-CC-0,"and"-text-8-"and"-CC-0,"and"-text-2-"and"-CC-0,"and"-text-0-"and"-CC-0,"and"-text-0-"AND"-CC-0,"and"-text-10-"and"-CC-0,"and"-text-0-"and"-CC-0,"and"-text-0-"and"-CC-0,"and"-text-2-"and"-CC-0|text|436/3;983/3;1105/3;1164/3;1396/3;1453/3;1638/3;1700/3;1708/3||
0374.txt|MMI|3.81|Percocet|C0086787|[orch, phsu]|"Percocet"-text-0-"Percocet"-NNP-0,"Percocet"-text-0-"Percocet"-NNP-0|text|1789/8;2052/8|x.x.x.x|
0374.txt|MMI|3.29|Antibiotics, Antitubercular|C0003237|[antb]|"Antibiotics"-text-14-"antibiotics"-NNS-0|text|1746/11|D27.505.954.122.085.255.135|
0374.txt|MMI|3.29|Rotator Cuff|C0085515|[bpoc]|"Rotator Cuff"-text-0-"Rotator cuff"-NNP-0|text|1066/12|A02.633.567.912;A02.880.700|
0374.txt|MMI|3.29|Tenodesis|C1260974|[topp]|"Tenodesis"-text-38-"tenodesis"-NN-0|text|1531/9|E04.987.775.900;E04.555.710|
0374.txt|MMI|3.14|In addition to|C0332287|[ftcn]|"With"-text-12-"with"-IN-0,"With"-text-0-"with"-IN-0,"With"-text-0-"with"-IN-0,"With"-text-34-"with"-IN-0,"With"-text-10-"with"-IN-0,"With"-text-2-"with"-IN-0|text|467/4;946/4;1144/4;1519/4;1727/4;1974/4||
0374.txt|MMI|3.14|With - dosing instruction fragment|C1705690|[inpr]|"With"-text-12-"with"-IN-0,"With"-text-0-"with"-IN-0,"With"-text-0-"with"-IN-0,"With"-text-34-"with"-IN-0,"With"-text-10-"with"-IN-0,"With"-text-2-"with"-IN-0|text|467/4;946/4;1144/4;1519/4;1727/4;1974/4||
0374.txt|MMI|2.95|Patients|C0030705|[podg]|"Patient"-text-0-"patient"-NN-0,"Patient"-text-0-"patient"-NN-0,"Patient"-text-0-"patient"-NN-0|text|403/7;1416/7;1616/7|M01.643|
0374.txt|MMI|2.83|Sleep|C0037313|[orgf]|"Sleep"-text-24-"sleep"-VB-0|text|620/5|G11.561.803;F02.830.855|
0374.txt|MMI|2.83|ethanol|C0001962|[orch, phsu]|"Alcohol"-text-0-"alcohol"-NN-0|text|808/7|D02.033.375;D02.033.375|
0374.txt|MMI|2.62|AKR1B10 gene|C1412323|[gngm]|"HIS"-text-6-"his"-PRP$-0,"HIS"-text-0-"his"-PRP$-0,"HIS"-text-0-"his"-PRP$-0,"HIS"-text-0-"His"-PRP$-0,"HIS"-text-0-"his"-PRP$-0|text|448/3;868/3;1168/3;1671/3;1842/3||
0374.txt|MMI|2.62|Histidine measurement|C0523697|[lbpr]|"HIS"-text-6-"his"-PRP$-0,"HIS"-text-0-"his"-PRP$-0,"HIS"-text-0-"his"-PRP$-0,"HIS"-text-0-"His"-PRP$-0,"HIS"-text-0-"his"-PRP$-0|text|448/3;868/3;1168/3;1671/3;1842/3||
0374.txt|MMI|2.62|Structure of hippocampal fissure|C0228251|[bsoj]|"his"-text-6-"his"-PRP$-0,"his"-text-0-"his"-PRP$-0,"his"-text-0-"his"-PRP$-0,"his"-text-0-"His"-PRP$-0,"his"-text-0-"his"-PRP$-0|text|448/3;868/3;1168/3;1671/3;1842/3||
0374.txt|MMI|2.37|United Arab Emirates|C0041698|[geoa]|"ARE"-text-0-"are"-VBP-0|text|1367/3|Z01.252.245.500.900|
0374.txt|MMI|2.37|World Health Organization|C0043237|[hcro]|"WHO"-text-16-"who"-WP-0|text|358/3|N03.540.514.718.800|
0374.txt|MMI|2.34|Desiccation|C0011682|[npop]|"Dry"-text-0-"dry"-JJ-0|text|1704/3|G02.176;E05.196.335|
0374.txt|MMI|2.34|Name|C0027365|[inpr]|"Name"-text-30-"NAME"-NNP-0|text|127/4|L01.559.598.400.556|
0374.txt|MMI|1.90|Antibiotics|C0003232|[antb]|"Antibiotics"-text-14-"antibiotics"-NNS-0|text|1746/11|x.x.x.x|
0374.txt|MMI|1.90|Deafness, Sensorineural, And Male Infertility|C1970187|[dsyn]|"DIS"-text-16-"DIS"-NNPS-0|text|82/3|x.x.x.x|
0374.txt|MMI|1.90|Deidentification|C1707660|[mcha]|"DID"-text-0-"did"-VBD-0|text|1624/3|x.x.x.x|
0374.txt|MMI|1.90|HAC protocol|C0062074|[topp]|"HAD"-text-0-"had"-VBN-0|text|516/3|x.x.x.x|
0374.txt|MMI|1.90|Kidnapping|C0086505|[socb]|"Abduction"-text-14-"abduction"-NN-0|text|472/9|x.x.x.x|
0374.txt|MMI|1.90|Operating Room|C0029064|[mnob, hcro]|"Operating Room"-text-22-"operating room"-NN-0|text|1474/14|N02.278.388.700|
0374.txt|MMI|1.90|Shoulder|C0037004|[blor]|"Shoulder"-text-0-"Shoulder"-NNP-0|text|912/8|A01.378.800.750|
0374.txt|MMI|1.88|Measures|C0079809|[qnco]|"Measures"-text-0-"measures"-NNS-0|text|1079/8|x.x.x.x|
0374.txt|MMI|1.57|Academic degree|C0542560|[inpr]|"degrees"-text-0-"degrees"-NNS-0,"degrees"-text-0-"degrees"-NNS-0,"degrees"-text-14-"degrees"-NNS-0|text|938/7;954/7;1880/7||
0374.txt|MMI|1.57|Degree or extent|C0449286|[qnco]|"degrees"-text-0-"degrees"-NNS-0,"degrees"-text-0-"degrees"-NNS-0,"degrees"-text-14-"degrees"-NNS-0|text|938/7;954/7;1880/7||
0374.txt|MMI|1.57|Disabled Person Code - Patient|C1578486|[inpr]|"Patient"-text-0-"patient"-NN-0,"Patient"-text-0-"patient"-NN-0,"Patient"-text-0-"patient"-NN-0|text|403/7;1416/7;1616/7||
0374.txt|MMI|1.57|Have|C3539897|[qlco]|"Has"-text-0-"has"-VBZ-0,"Had"-text-0-"had"-VBN-0,"Has"-text-4-"has"-VBZ-0|text|512/3;516/3;557/3||
0374.txt|MMI|1.57|Mail Claim Party - Patient|C1578481|[idcn]|"Patient"-text-0-"patient"-NN-0,"Patient"-text-0-"patient"-NN-0,"Patient"-text-0-"patient"-NN-0|text|403/7;1416/7;1616/7||
0374.txt|MMI|1.57|Relationship modifier - Patient|C1578484|[idcn]|"Patient"-text-0-"patient"-NN-0,"Patient"-text-0-"patient"-NN-0,"Patient"-text-0-"patient"-NN-0|text|403/7;1416/7;1616/7||
0374.txt|MMI|1.57|Report source - Patient|C1578483|[idcn]|"Patient"-text-0-"patient"-NN-0,"Patient"-text-0-"patient"-NN-0,"Patient"-text-0-"patient"-NN-0|text|403/7;1416/7;1616/7||
0374.txt|MMI|1.57|Specimen Source Codes - Patient|C1578485|[inpr]|"Patient"-text-0-"patient"-NN-0,"Patient"-text-0-"patient"-NN-0,"Patient"-text-0-"patient"-NN-0|text|403/7;1416/7;1616/7||
0374.txt|MMI|1.57|Specimen Type - Patient|C1550655|[bdsu]|"Patient"-text-0-"patient"-NN-0,"Patient"-text-0-"patient"-NN-0,"Patient"-text-0-"patient"-NN-0|text|403/7;1416/7;1616/7||
0374.txt|MMI|1.57|Veterinary Patient|C1705908|[orgm]|"Patient"-text-0-"patient"-NN-0,"Patient"-text-0-"patient"-NN-0,"Patient"-text-0-"patient"-NN-0|text|403/7;1416/7;1616/7||
0374.txt|MMI|1.51|Entire right shoulder region|C1288639|[blor]|"Right shoulder"-text-86-"Right shoulder"-RB-0,"Right shoulder"-text-10-"right shoulder"-JJ-0,"Right shoulder"-text-20-"right shoulder"-JJ-0|text|248/14;452/14;1012/14||
0374.txt|MMI|1.51|External rotation|C0231462|[ftcn]|"External rotation"-text-18-"external rotation"-JJ-0,"External rotation"-text-6-"external rotation"-JJ-0,"External rotation"-text-4-"external rotation"-JJ-0|text|482/17;965/17;1846/17||
0374.txt|MMI|1.51|Left|C0205091|[spco]|"Left"-text-36-"left"-NN-0,"Left"-text-16-"left"-NN-0,"Left"-text-24-"left"-NN-0|text|1059/4;1127/4;1234/4||
0374.txt|MMI|1.51|Left sided|C0443246|[spco]|"Left"-text-36-"left"-NN-0,"Left"-text-16-"left"-NN-0,"Left"-text-24-"left"-NN-0|text|1059/4;1127/4;1234/4||
0374.txt|MMI|1.51|Right|C0205090|[spco]|"Right"-text-0-"right"-NN-0,"Right"-text-14-"right"-JJ-0,"Right"-text-10-"right"-NN-0|text|1099/5;1210/5;1352/5||
0374.txt|MMI|1.51|Right sided|C0444532|[spco]|"Right"-text-0-"right"-NN-0,"Right"-text-14-"right"-JJ-0,"Right"-text-10-"right"-NN-0|text|1099/5;1210/5;1352/5||
0374.txt|MMI|1.51|Structure of right shoulder region|C0524468|[blor]|"Right shoulder"-text-86-"Right shoulder"-RB-0,"Right shoulder"-text-10-"right shoulder"-JJ-0,"Right shoulder"-text-20-"right shoulder"-JJ-0|text|248/14;452/14;1012/14||
0374.txt|MMI|1.51|Table Cell Horizontal Align - left|C1552822|[ftcn]|"left"-text-36-"left"-NN-0,"left"-text-16-"left"-NN-0,"left"-text-24-"left"-NN-0|text|1059/4;1127/4;1234/4||
0374.txt|MMI|1.51|Table Cell Horizontal Align - right|C1552823|[ftcn]|"right"-text-0-"right"-NN-0,"right"-text-14-"right"-JJ-0,"right"-text-10-"right"-NN-0|text|1099/5;1210/5;1352/5||
0374.txt|MMI|1.44|Ambulatory Care Facilities|C0002424|[mnob, hcro]|"Clinic"-text-0-"Clinic"-NNP-0|text|861/6|N02.278.035|
0374.txt|MMI|1.44|Computer software|C0037585|[inpr, mnob]|"Software"-text-20-"Software"-NNP-0|text|371/8|L01.224.900|
0374.txt|MMI|1.44|Disease|C0012634|[dsyn]|"DIS"-text-16-"DIS"-NNPS-0|text|82/3|C23.550.288|
0374.txt|MMI|1.44|Hospitals|C0019994|[mnob, hcro]|"Hospital"-text-8-"Hospital"-NNP-0|text|1444/8|N02.278.421|
0374.txt|MMI|1.44|Physical Examination|C0031809|[hlca]|"Physical Examination"-text-0-"PHYSICAL EXAMINATION"-NNP-0|text|835/20|E01.370.600|
0374.txt|MMI|1.44|Smoke|C0037366|[hops]|"Smoke"-text-2-"smoke"-VB-1|text|827/5|D20.633.937|
0374.txt|MMI|1.05|Biceps brachii muscle structure|C0559499|[bpoc]|"Biceps"-text-0-"Biceps"-NNS-0,"Biceps"-text-36-"biceps"-NNS-0|text|1360/6;1524/6||
0374.txt|MMI|1.05|Facilitated oscillatory release technique|C1562169|[topp]|"FOR"-text-24-"for"-IN-0,"FOR"-text-52-"for"-IN-0|text|1489/3;1573/3||
0374.txt|MMI|1.05|Follow-Up Information|C4745114|[inpr]|"Follow Up"-text-0-"FOLLOW UP"-NNP-0,"Follow Up"-text-0-"follow up"-VB-0|text|1943/9;1964/9||
0374.txt|MMI|1.05|Follow-up status|C0589120|[fndg]|"follow up"-text-0-"FOLLOW UP"-NNP-0,"follow up"-text-0-"follow up"-VB-0|text|1943/9;1964/9||
0374.txt|MMI|1.05|Gender Status - Intact|C1554187|[fndg]|"Intact"-text-6-"intact"-JJ-0,"Intact"-text-0-"intact"-JJ-0|text|1662/6;1685/6||
0374.txt|MMI|1.05|In the past|C1444637|[tmco]|"In the past"-text-12-"in the past"-IN-0,"Past"-text-0-"PAST"-NNP-0|text|570/11;669/4||
0374.txt|MMI|1.05|Intact|C0205266|[qlco]|"Intact"-text-6-"intact"-JJ-0,"Intact"-text-0-"intact"-JJ-0|text|1662/6;1685/6||
0374.txt|MMI|1.05|Normal|C0205307|[qlco]|"Unremarkable"-text-0-"unremarkable"-JJ-0,"Normal"-text-0-"normal"-JJ-0|text|654/12;1371/6||
0374.txt|MMI|1.05|Preposition For|C0521125|[qlco]|"For"-text-24-"for"-IN-0,"For"-text-52-"for"-IN-0|text|1489/3;1573/3||
0374.txt|MMI|1.05|Signature|C1519316|[inpr]|"Signed"-text-14-"Signed"-NNP-0,"Signed"-text-24-"Signed"-VBN-0|text|75/6;102/6||
0374.txt|MMI|1.05|WWOX gene|C1421525|[gngm]|"FOR"-text-24-"for"-IN-0,"FOR"-text-52-"for"-IN-0|text|1489/3;1573/3||
0374.txt|MMI|1.05|WWOX wt Allele|C4321252|[gngm]|"FOR"-text-24-"for"-IN-0,"FOR"-text-52-"for"-IN-0|text|1489/3;1573/3||
0374.txt|MMI|1.05|follow-up|C1522577|[hlca]|"Follow Up"-text-0-"FOLLOW UP"-NNP-0,"Follow Up"-text-0-"follow up"-VB-0|text|1943/9;1964/9||
0374.txt|MMI|1.05|signed - ParticipationSignature|C1561610|[inpr]|"signed"-text-14-"Signed"-NNP-0,"signed"-text-24-"Signed"-VBN-0|text|75/6;102/6||
0374.txt|MMI|1.05|year|C0439234|[tmco]|"year"-text-4-"year"-NN-0,"years"-text-0-"years"-NNS-0|text|319/4;545/5||
0374.txt|MMI|1.01|BRAF Gene Rearrangement|C4727483|[comd]|"Positive"-text-8-"positive"-JJ-0,"Positive"-text-0-"positive"-JJ-0|text|1194/8;1318/8||
0374.txt|MMI|1.01|Discharge summarization note:Finding:Point in time:{Setting}:Document:{Provider}|C0801840|[clna]|"Discharge summary"-text-12-"Discharge Summary"-JJ-0,"Discharge summary"-text-28-"DISCHARGE SUMMARY"-NNP-0|text|57/17;109/17||
0374.txt|MMI|1.01|Discharge summary|C0743221|[inpr]|"Discharge summary"-text-12-"Discharge Summary"-JJ-0,"Discharge summary"-text-28-"DISCHARGE SUMMARY"-NNP-0|text|57/17;109/17||
0374.txt|MMI|1.01|Language Ability - Sign|C1547188|[idcn]|"Sign"-text-2-"sign"-NN-0,"Sign"-text-0-"sign"-NN-0|text|1179/4;1263/4||
0374.txt|MMI|1.01|Physical findings|C0311392|[fndg]|"Sign"-text-2-"sign"-NN-0,"Sign"-text-0-"sign"-NN-0|text|1179/4;1263/4||
0374.txt|MMI|1.01|Positive|C1446409|[fndg]|"Positive"-text-8-"positive"-JJ-0,"Positive"-text-0-"positive"-JJ-0|text|1194/8;1318/8||
0374.txt|MMI|1.01|Positive Charge|C2825490|[qlco]|"Positive"-text-8-"positive"-JJ-0,"Positive"-text-0-"positive"-JJ-0|text|1194/8;1318/8||
0374.txt|MMI|1.01|Positive Finding|C1514241|[fndg]|"Positive"-text-8-"positive"-JJ-0,"Positive"-text-0-"positive"-JJ-0|text|1194/8;1318/8||
0374.txt|MMI|1.01|Positive Number|C3812269|[qnco]|"Positive"-text-8-"positive"-JJ-0,"Positive"-text-0-"positive"-JJ-0|text|1194/8;1318/8||
0374.txt|MMI|0.98|Alcohols|C0001975|[orch, phsu]|"Alcohol"-text-0-"alcohol"-NN-0|text|808/7|D02.033|
0374.txt|MMI|0.98|Engineering|C0014279|[ocdi]|"Engineer"-text-22-"Engineer"-NNP-0|text|380/8|J01.293|
0374.txt|MMI|0.98|Hypersensitivity|C0020517|[patf]|"Allergies"-text-0-"ALLERGIES"-NNP-0|text|708/9|C20.543|
0374.txt|MMI|0.52|Abduction, function|C0231456|[phsf]|"Abduction"-text-14-"abduction"-NN-0|text|472/9||
0374.txt|MMI|0.52|Act Class - procedure|C1546467|[ocac]|"procedure"-text-32-"procedure"-NN-0|text|1509/9||
0374.txt|MMI|0.52|Address type - Home|C1549632|[idcn]|"Home"-text-0-"home"-NN-0|text|1781/4||
0374.txt|MMI|0.52|Administration procedure|C1533734|[topp]|"Treatment"-text-0-"TREATMENT"-NNP-0|text|1400/9||
0374.txt|MMI|0.52|Admission date:Time Stamp -- Date and Time:Point in time:^Patient:Quantitative|C2598112|[clna]|"Admission date"-text-56-"ADMISSION DATE"-NNP-0|text|174/14||
0374.txt|MMI|0.52|Admitted to|C4482331|[hlca]|"Admitted to"-text-4-"admitted to"-VBN-0|text|1428/11||
0374.txt|MMI|0.52|Alcohol - Recreational Drug Use Code|C1547288|[inpr]|"Alcohol"-text-0-"alcohol"-NN-0|text|808/7||
0374.txt|MMI|0.52|Androgen Response Element|C1515984|[nusq]|"ARE"-text-0-"are"-VBP-0|text|1367/3||
0374.txt|MMI|0.52|Antibiotic throat preparations|C3540706|[antb]|"Antibiotics"-text-14-"antibiotics"-NNS-0|text|1746/11||
0374.txt|MMI|0.52|Antibiotics FOR TREATMENT OF HEMORRHOIDS AND ANAL FISSURES FOR TOPICAL USE|C3540707|[antb]|"Antibiotics"-text-14-"antibiotics"-NNS-0|text|1746/11||
0374.txt|MMI|0.52|Antibiotics for systemic use|C3540704|[antb]|"Antibiotics"-text-14-"antibiotics"-NNS-0|text|1746/11||
0374.txt|MMI|0.52|Antibiotics, Gynecological|C3540708|[antb]|"Antibiotics"-text-14-"antibiotics"-NNS-0|text|1746/11||
0374.txt|MMI|0.52|Antibiotics, ophthalmologic|C3540710|[antb]|"Antibiotics"-text-14-"antibiotics"-NNS-0|text|1746/11||
0374.txt|MMI|0.52|Antifungal Antibiotics, Topical|C3540705|[antb]|"Antibiotics"-text-14-"antibiotics"-NNS-0|text|1746/11||
0374.txt|MMI|0.52|Basketball game|C0004818|[dora]|"Basketball"-text-0-"basketball"-NN-0|text|425/10||
0374.txt|MMI|0.52|Before|C0332152|[tmco]|"Prior to"-text-0-"prior to"-RB-0|text|1922/8||
0374.txt|MMI|0.52|Benign|C0205183|[qlco]|"Benign"-text-6-"benign"-JJ-0|text|903/6||
0374.txt|MMI|0.52|Biomaterial Treatment|C1705169|[cnce]|"Treatment"-text-0-"TREATMENT"-NNP-0|text|1400/9||
0374.txt|MMI|0.52|Bone structure of T9|C0459954|[bpoc]|"T9 vertebra"-text-26-"T9 vertebra"-DT-0|text|1030/11||
0374.txt|MMI|0.52|Bound (value)|C2349209|[cnce]|"Limit"-text-0-"limit"-VB-0|text|1836/5||
0374.txt|MMI|0.52|CDISC SDTM Adverse Event Outcome Terminology|C1879925|[inpr]|"OUT"-text-6-"out"-IN-0|text|1111/3||
0374.txt|MMI|0.52|CDISC SDTM Procedure Terminology|C3539779|[inpr]|"Procedure"-text-32-"procedure"-NN-0|text|1509/9||
0374.txt|MMI|0.52|CDISC SDTM Unit of Measure Terminology|C2347274|[inpr]|"UNIT"-text-42-"UNIT"-NNP-0|text|150/4||
0374.txt|MMI|0.52|Can Do Very Well|C5202953|[fndg]|"Very Well"-text-0-"very well"-RB-0|text|1628/9||
0374.txt|MMI|0.52|Cervical spine|C0728985|[bpoc]|"Cervical spine"-text-0-"cervical spine"-JJ-0|text|872/14||
0374.txt|MMI|0.52|Chief complaint (finding)|C0277786|[fndg]|"Chief complaint"-text-80-"CHIEF COMPLAINT"-JJ-0|text|230/15||
0374.txt|MMI|0.52|Cleaning (activity)|C1947930|[acty]|"Clean"-text-0-"clean"-JJ-0|text|1694/5||
0374.txt|MMI|0.52|Clinic|C0442592|[mnob, hcro]|"Clinic"-text-0-"Clinic"-NNP-0|text|861/6||
0374.txt|MMI|0.52|Count of entities|C0449788|[qnco]|"number"-text-44-"NUMBER"-NNP-0|text|155/6||
0374.txt|MMI|0.52|Cover - action|C1999244|[ftcn]|"Covered"-text-8-"covered"-VBN-0|text|1719/7||
0374.txt|MMI|0.52|Covered (qualifier value)|C0439844|[ftcn]|"Covered"-text-8-"covered"-VBN-0|text|1719/7||
0374.txt|MMI|0.52|Date of admission|C1302393|[tmco]|"Admission date"-text-56-"ADMISSION DATE"-NNP-0|text|174/14||
0374.txt|MMI|0.52|Describes Very Well|C5202952|[fndg]|"Very Well"-text-0-"very well"-RB-0|text|1628/9||
0374.txt|MMI|0.52|Details|C1522508|[qlco]|"Details"-text-56-"details"-NNS-0|text|1582/7||
0374.txt|MMI|0.52|Diagnostic Service Section ID - Physical Therapy|C1547999|[inpr]|"Physical Therapy"-text-0-"physical therapy"-JJ-0|text|1905/16||
0374.txt|MMI|0.52|Diagnostic interview schedule|C0451119|[inpr]|"DIS"-text-16-"DIS"-NNPS-0|text|82/3||
0374.txt|MMI|0.52|Discontinued|C1444662|[fndg]|"DIS"-text-16-"DIS"-NNPS-0|text|82/3||
0374.txt|MMI|0.52|Do (activity)|C2828361|[acty]|"Did"-text-0-"did"-VBD-0|text|1624/3||
0374.txt|MMI|0.52|Does not|C1299585|[qlco]|"Does not"-text-0-"does not"-VBZ-0|text|818/8||
0374.txt|MMI|0.52|During|C0347984|[tmco]|"Over"-text-0-"over"-IN-0|text|536/4||
0374.txt|MMI|0.52|EHD1 wt Allele|C4284302|[gngm]|"PAST"-text-0-"PAST"-NNP-0|text|669/4||
0374.txt|MMI|0.52|Elevation|C0702240|[spco]|"Elevation"-text-0-"elevation"-NN-0|text|921/9||
0374.txt|MMI|0.52|Elevation procedure|C0439775|[topp]|"Elevation"-text-0-"elevation"-NN-0|text|921/9||
0374.txt|MMI|0.52|Engineer|C0878517|[prog]|"Engineer"-text-22-"Engineer"-NNP-0|text|380/8||
0374.txt|MMI|0.52|Entire T9 vertebra|C0223326|[bpoc]|"T9 vertebra"-text-26-"T9 vertebra"-DT-0|text|1030/11||
0374.txt|MMI|0.52|Entire cervical spinal column|C1284110|[bpoc]|"Cervical spine"-text-0-"cervical spine"-JJ-0|text|872/14||
0374.txt|MMI|0.52|Entire shoulder region|C1283792|[blor]|"Shoulder"-text-0-"Shoulder"-NNP-0|text|912/8||
0374.txt|MMI|0.52|Entity Name Part Type - given|C1550718|[idcn]|"given"-text-0-"given"-VBN-0|text|1807/5||
0374.txt|MMI|0.52|Enzyme Unit|C1880519|[qnco]|"Unit"-text-42-"UNIT"-NNP-0|text|150/4||
0374.txt|MMI|0.52|Ethanol measurement|C0202304|[lbpr]|"Alcohol"-text-0-"alcohol"-NN-0|text|808/7||
0374.txt|MMI|0.52|Examination of spine|C0562264|[diap]|"spine examination"-text-2-"spine examination"-NN-0|text|881/17||
0374.txt|MMI|0.52|Fixation of tendon|C0185441|[topp]|"tenodesis"-text-38-"tenodesis"-NN-0|text|1531/9||
0374.txt|MMI|0.52|Full|C0443225|[qlco]|"Full"-text-54-"full"-JJ-0|text|1577/4||
0374.txt|MMI|0.52|GIVEN|C1442162|[ftcn]|"GIVEN"-text-0-"given"-VBN-0|text|1807/5||
0374.txt|MMI|0.52|Give - dosing instruction imperative|C1947971|[ftcn]|"Given"-text-0-"given"-VBN-0|text|1807/5||
0374.txt|MMI|0.52|Given name|C3244317|[inpr]|"given"-text-0-"given"-VBN-0|text|1807/5||
0374.txt|MMI|0.52|Good|C0205170|[qlco]|"Well"-text-0-"well"-RB-0|text|1301/4||
0374.txt|MMI|0.52|Got Worse|C4084902|[inpr]|"Worsened"-text-6-"worsened"-VBN-0|text|561/8||
0374.txt|MMI|0.52|Greater Than|C0439093|[qnco]|"More Than"-text-10-"more than"-JJR-0|text|1867/9||
0374.txt|MMI|0.52|Groove|C1184482|[bsoj]|"Sulcus"-text-0-"sulcus"-NN-0|text|1256/6||
0374.txt|MMI|0.52|HADH gene|C1415458|[gngm]|"HAD"-text-0-"had"-VBN-0|text|516/3||
0374.txt|MMI|0.52|History of present illness|C0262512|[fndg]|"History of present illness"-text-0-"HISTORY OF PRESENT ILLNESS"-NN-0|text|277/26||
0374.txt|MMI|0.52|History of present illness:Finding:Point in time:^Patient:Nominal:Reported|C0488508|[clna]|"History of Present illness"-text-0-"HISTORY OF PRESENT ILLNESS"-NN-0|text|277/26||
0374.txt|MMI|0.52|Home environment|C0442519|[spco]|"Home"-text-0-"home"-NN-0|text|1781/4||
0374.txt|MMI|0.52|Hospital course|C0489547|[fndg]|"Hospital course"-text-0-"HOSPITAL COURSE"-NNP-0|text|1380/15||
0374.txt|MMI|0.52|Hospital course:Finding:Point in time:^Patient:Narrative|C0488549|[clna]|"Hospital course"-text-0-"HOSPITAL COURSE"-NNP-0|text|1380/15||
0374.txt|MMI|0.52|Hospital environment|C1510665|[qlco]|"Hospital"-text-8-"Hospital"-NNP-0|text|1444/8||
0374.txt|MMI|0.52|Including (qualifier)|C0332257|[ftcn]|"Including"-text-18-"including"-VBG-0|text|597/9||
0374.txt|MMI|0.52|Infrequent|C0521114|[tmco]|"Occasional"-text-0-"Occasional"-JJ-0|text|797/10||
0374.txt|MMI|0.52|Instruction [Publication Type]|C0302828|[inpr]|"instructions"-text-0-"instructions"-NNS-0|text|1820/12||
0374.txt|MMI|0.52|Instructions|C1442085|[inpr]|"Instructions"-text-0-"instructions"-NNS-0|text|1820/12||
0374.txt|MMI|0.52|Instructions:Text:Point in time:^Patient:Narrative|C3263700|[clna]|"Instructions"-text-0-"instructions"-NNS-0|text|1820/12||
0374.txt|MMI|0.52|International Unit|C0439453|[qnco]|"Unit"-text-42-"UNIT"-NNP-0|text|150/4||
0374.txt|MMI|0.52|Interventional procedure|C0184661|[topp]|"Procedure"-text-32-"procedure"-NN-0|text|1509/9||
0374.txt|MMI|0.52|Is a|C1292718|[ftcn]|"Is a"-text-0-"is a"-VBZ-0|text|311/4||
0374.txt|MMI|0.52|Laxity|C0332536|[qlco]|"Laxity"-text-0-"Laxity"-NNP-0|text|1282/6||
0374.txt|MMI|0.52|Limit - Amount class|C1549649|[idcn]|"Limit"-text-0-"limit"-VB-0|text|1836/5||
0374.txt|MMI|0.52|Limited (extensiveness)|C0439801|[ftcn]|"limit"-text-0-"limit"-VB-0|text|1836/5||
0374.txt|MMI|0.52|MDF AttributeType - Number|C1554106|[idcn]|"Number"-text-44-"NUMBER"-NNP-0|text|155/6||
0374.txt|MMI|0.52|MILDLY|C0750532|[qlco]|"MILDLY"-text-6-"mildly"-RB-0|text|1187/6||
0374.txt|MMI|0.52|Manufactured basketball|C0336987|[mnob]|"Basketball"-text-0-"basketball"-NN-0|text|425/10||
0374.txt|MMI|0.52|Massive|C0522501|[qlco]|"Markedly"-text-0-"markedly"-RB-0|text|1309/8||
0374.txt|MMI|0.52|Medical Device Emits Smoke|C1881674|[fndg]|"Smoke"-text-2-"smoke"-VB-1|text|827/5||
0374.txt|MMI|0.52|Medical History|C0262926|[fndg]|"Past Medical History"-text-0-"PAST MEDICAL HISTORY"-NN-0|text|628/20||
0374.txt|MMI|0.52|Medications|C4284232|[inpr]|"Medications"-text-0-"MEDICATIONS"-NNS-0|text|2025/11||
0374.txt|MMI|0.52|Medications on admission|C1627937|[fndg]|"Medications on admission"-text-0-"MEDICATIONS ON ADMISSION"-NNS-0|text|746/24||
0374.txt|MMI|0.52|Medications:-:Point in time:^Patient:-|C2598133|[clna]|"Medications"-text-0-"MEDICATIONS"-NNS-0|text|2025/11||
0374.txt|MMI|0.52|Medications:Presence or Identity:Duration of the study:^Patient:Nominal|C0802604|[clna]|"Medications"-text-0-"MEDICATIONS"-NNS-0|text|2025/11||
0374.txt|MMI|0.52|Microplate Well|C4283957|[spco]|"Well"-text-0-"well"-RB-0|text|1301/4||
0374.txt|MMI|0.52|Mild (qualifier value)|C2945599|[qlco]|"Mildly"-text-6-"mildly"-RB-0|text|1187/6||
0374.txt|MMI|0.52|No Effort|C5202819|[fndg]|"None"-text-0-"None"-NN-0|text|773/4||
0374.txt|MMI|0.52|No Hand Mobility|C4050154|[inpr]|"None"-text-0-"None"-NN-0|text|773/4||
0374.txt|MMI|0.52|No Support Needed|C4050155|[inpr]|"None"-text-0-"None"-NN-0|text|773/4||
0374.txt|MMI|0.52|No known drug allergy|C0262581|[fndg]|"No known drug allergies"-text-0-"No known drug allergies"-DT-1|text|720/23||
0374.txt|MMI|0.52|None|C0549184|[fndg]|"None"-text-0-"None"-NN-0|text|773/4||
0374.txt|MMI|0.52|None (no infant feeding)|C5200984|[fndg]|"None"-text-0-"None"-NN-0|text|773/4||
0374.txt|MMI|0.52|None - Action Taken in Response to the Event|C1556148|[ftcn]|"None"-text-0-"None"-NN-0|text|773/4||
0374.txt|MMI|0.52|None - Additive/Preservative|C1556152|[ftcn]|"None"-text-0-"None"-NN-0|text|773/4||
0374.txt|MMI|0.52|None - ContainerSeparator|C1551387|[ftcn]|"None"-text-0-"None"-NN-0|text|773/4||
0374.txt|MMI|0.52|None - Eligibility Source|C1556147|[idcn]|"None"-text-0-"None"-NN-0|text|773/4||
0374.txt|MMI|0.52|None - Language Proficiency|C1556151|[ftcn]|"None"-text-0-"None"-NN-0|text|773/4||
0374.txt|MMI|0.52|None - ObservationValue|C1556150|[idcn]|"None"-text-0-"None"-NN-0|text|773/4||
0374.txt|MMI|0.52|None - Relationship|C1556146|[idcn]|"None"-text-0-"None"-NN-0|text|773/4||
0374.txt|MMI|0.52|None - Sequencing|C1550437|[ftcn]|"None"-text-0-"None"-NN-0|text|773/4||
0374.txt|MMI|0.52|None - Specimen Additive|C1550083|[inpr]|"None"-text-0-"None"-NN-0|text|773/4||
0374.txt|MMI|0.52|None Device|C1706277|[mnob]|"None"-text-0-"None"-NN-0|text|773/4||
0374.txt|MMI|0.52|Notable|C4288581|[qlco]|"Noted"-text-0-"noted"-VBN-0|text|1292/5||
0374.txt|MMI|0.52|Null Value|C0456148|[qnco]|"None"-text-0-"None"-NN-0|text|773/4||
0374.txt|MMI|0.52|Numbers|C0237753|[qnco]|"Number"-text-44-"NUMBER"-NNP-0|text|155/6||
0374.txt|MMI|0.52|Numerous|C0439064|[qnco]|"Several"-text-14-"several"-JJ-0|text|582/7||
0374.txt|MMI|0.52|Old|C0580836|[tmco]|"Old"-text-6-"old"-JJ-0|text|324/3||
0374.txt|MMI|0.52|Old episode|C0677546|[tmco]|"Old"-text-6-"old"-JJ-0|text|324/3||
0374.txt|MMI|0.52|Operative procedure on knee|C0187769|[topp]|"knee surgery"-text-0-"Knee surgery"-NNP-0|text|693/12||
0374.txt|MMI|0.52|Organization unit type - Home|C1547197|[orgt]|"Home"-text-0-"home"-NN-0|text|1781/4||
0374.txt|MMI|0.52|Organization unit type - Hospital|C1547192|[idcn]|"Hospital"-text-8-"Hospital"-NNP-0|text|1444/8||
0374.txt|MMI|0.52|Out (direction)|C0439787|[spco]|"Out"-text-6-"out"-IN-0|text|1111/3||
0374.txt|MMI|0.52|Over (spatial)|C0205136|[spco]|"Over"-text-0-"over"-IN-0|text|536/4||
0374.txt|MMI|0.52|PMH - past medical history|C0455458|[fndg]|"Past medical history"-text-0-"PAST MEDICAL HISTORY"-NN-0|text|628/20||
0374.txt|MMI|0.52|Patient location type - Clinic|C1547115|[spco]|"Clinic"-text-0-"Clinic"-NNP-0|text|861/6||
0374.txt|MMI|0.52|Patient location type - Operating Room|C1578465|[spco]|"Operating Room"-text-22-"operating room"-NN-0|text|1474/14||
0374.txt|MMI|0.52|Persistent|C0205322|[tmco]|"Persistent"-text-0-"persistent"-JJ-0|text|520/10||
0374.txt|MMI|0.52|Persistent embryonic structure|C0332996|[cgab]|"PERSISTENT"-text-0-"persistent"-JJ-0|text|520/10||
0374.txt|MMI|0.52|Person location type - Clinic|C1548528|[spco]|"Clinic"-text-0-"Clinic"-NNP-0|text|861/6||
0374.txt|MMI|0.52|Person location type - Home|C1548530|[spco]|"Home"-text-0-"home"-NN-0|text|1781/4||
0374.txt|MMI|0.52|Pharmaceutical Preparations|C0013227|[phsu]|"medications"-text-0-"MEDICATIONS"-NNS-0|text|2025/11|D26|
0374.txt|MMI|0.52|Physical Exam Domain|C1744699|[inpr]|"Physical Examination"-text-0-"PHYSICAL EXAMINATION"-NNP-0|text|835/20||
0374.txt|MMI|0.52|Physical Medical Procedure|C3274430|[hlca]|"PROCEDURE"-text-32-"procedure"-NN-0|text|1509/9||
0374.txt|MMI|0.52|Physical therapy|C0949766|[topp]|"Physical therapy"-text-0-"physical therapy"-JJ-0|text|1905/16||
0374.txt|MMI|0.52|Physical therapy (field)|C0699718|[bmod]|"Physical therapy"-text-0-"physical therapy"-JJ-0|text|1905/16||
0374.txt|MMI|0.52|Pleasant|C2987187|[menp]|"Pleasant"-text-18-"pleasant"-JJ-0|text|362/8||
0374.txt|MMI|0.52|Precision - year|C1561544|[idcn]|"year"-text-4-"year"-NN-0|text|319/4||
0374.txt|MMI|0.52|Procedure (set of actions)|C2700391|[ftcn]|"Procedure"-text-32-"procedure"-NN-0|text|1509/9||
0374.txt|MMI|0.52|Procedure:Type:Point in time:^Patient:Narrative|C0945766|[clna]|"Procedure"-text-32-"procedure"-NN-0|text|1509/9||
0374.txt|MMI|0.52|Removed|C0849355|[qlco]|"Out"-text-6-"out"-IN-0|text|1111/3||
0374.txt|MMI|0.52|Report status (finding)|C0586177|[fndg]|"Report status"-text-20-"Report Status"-NNP-0|text|86/13||
0374.txt|MMI|0.52|Report status:Type:Point in time:Report:Nominal|C4760061|[clna]|"Report status"-text-20-"Report Status"-NNP-0|text|86/13||
0374.txt|MMI|0.52|Result|C1274040|[ftcn]|"OUT"-text-6-"out"-IN-0|text|1111/3||
0374.txt|MMI|0.52|Rotation injury|C3698034|[inpo]|"Rotation injury"-text-20-"rotation injury"-NN-0|text|491/15||
0374.txt|MMI|0.52|See|C1947903|[acty]|"See"-text-44-"see"-VB-0|text|1550/3||
0374.txt|MMI|0.52|Several|C0443302|[qnco]|"Several"-text-14-"several"-JJ-0|text|582/7||
0374.txt|MMI|0.52|Shoulder joint unstable|C0575624|[fndg]|"shoulder instability"-text-88-"shoulder instability"-NN-0|text|254/20||
0374.txt|MMI|0.52|Social History|C3714536|[fndg]|"Social History"-text-0-"SOCIAL HISTORY"-JJ-0|text|780/14||
0374.txt|MMI|0.52|Social and personal history|C0424945|[fndg]|"Social history"-text-0-"SOCIAL HISTORY"-JJ-0|text|780/14||
0374.txt|MMI|0.52|Storage Unit|C1704753|[mnob]|"Unit"-text-42-"UNIT"-NNP-0|text|150/4||
0374.txt|MMI|0.52|Surgical operation note:Find:Pt:{Setting}:Doc:{Role}|C0551628|[clna]|"Operative note"-text-50-"operative note"-JJ-0|text|1558/14||
0374.txt|MMI|0.52|TCF23 gene|C1425640|[gngm]|"OUT"-text-6-"out"-IN-0|text|1111/3||
0374.txt|MMI|0.52|Tablet Dosage Form|C0039225|[bodm]|"Tablets"-text-0-"tablets"-NNS-0|text|2065/7||
0374.txt|MMI|0.52|Taken|C1883727|[cnce]|"Taken"-text-14-"taken"-VBN-0|text|1461/5||
0374.txt|MMI|0.52|Therapeutic procedure|C0087111|[topp]|"Treatment"-text-0-"TREATMENT"-NNP-0|text|1400/9||
0374.txt|MMI|0.52|This (eukaryote)|C1080058|[euka]|"This"-text-0-"This"-DT-0|text|306/4||
0374.txt|MMI|0.52|Tobacco smoke|C0439994|[hops]|"Smoke"-text-2-"smoke"-VB-1|text|827/5||
0374.txt|MMI|0.52|Transaction counts and value totals - year|C1561543|[inpr]|"year"-text-4-"year"-NN-0|text|319/4||
0374.txt|MMI|0.52|Treating|C1522326|[ftcn]|"Treatment"-text-0-"TREATMENT"-NNP-0|text|1400/9||
0374.txt|MMI|0.52|Treatment Epoch|C3538994|[resa]|"TREATMENT"-text-0-"TREATMENT"-NNP-0|text|1400/9||
0374.txt|MMI|0.52|Treatment Study|C3161471|[resa]|"TREATMENT"-text-0-"TREATMENT"-NNP-0|text|1400/9||
0374.txt|MMI|0.52|Unit|C0439148|[qnco]|"Unit"-text-42-"UNIT"-NNP-0|text|150/4||
0374.txt|MMI|0.52|Unit - NCI Thesaurus Property|C3853603|[qnco]|"Unit"-text-42-"UNIT"-NNP-0|text|150/4||
0374.txt|MMI|0.52|Unit device|C1509845|[medd]|"Unit"-text-42-"UNIT"-NNP-0|text|150/4||
0374.txt|MMI|0.52|Unit of Measure|C1519795|[qnco]|"Unit"-text-42-"UNIT"-NNP-0|text|150/4||
0374.txt|MMI|0.52|Very Well|C5202951|[fndg]|"Very Well"-text-0-"very well"-RB-0|text|1628/9||
0374.txt|MMI|0.52|Very good (qualifier value)|C3641222|[qlco]|"Very well"-text-0-"very well"-RB-0|text|1628/9||
0374.txt|MMI|0.52|Visit User Code - Home|C1548341|[inpr]|"Home"-text-0-"home"-NN-0|text|1781/4||
0374.txt|MMI|0.52|WHO Temperature/Humidity Storage Condition|C3272598|[qlco]|"WHO"-text-16-"who"-WP-0|text|358/3||
0374.txt|MMI|0.52|Well|C3146287|[mnob]|"Well"-text-0-"well"-RB-0|text|1301/4||
0374.txt|MMI|0.52|Well Marginated Nodule|C4761387|[fndg]|"Well"-text-0-"well"-RB-0|text|1301/4||
0374.txt|MMI|0.52|Worse|C1457868|[fndg]|"Worsened"-text-6-"worsened"-VBN-0|text|561/8||
0374.txt|MMI|0.52|antibiotics, intestinal|C3540709|[antb]|"Antibiotics"-text-14-"antibiotics"-NNS-0|text|1746/11||
0374.txt|MMI|0.52|are unit of measure|C1551058|[qnco]|"Are"-text-0-"are"-VBP-0|text|1367/3||
0374.txt|MMI|0.52|dinoflagellate sulcus|C3893558|[celc]|"sulcus"-text-0-"sulcus"-NN-0|text|1256/6||
0374.txt|MMI|0.52|home health encounter|C1553498|[hlca]|"Home"-text-0-"home"-NN-0|text|1781/4||
0374.txt|MMI|0.52|injured|C0332664|[ftcn]|"injured"-text-4-"injured"-VBD-0|text|440/7||
0374.txt|MMI|0.52|month|C0439231|[tmco]|"Months"-text-16-"months"-NNS-0|text|590/6||
0374.txt|MMI|0.52|none - ResponseLevel|C1547191|[qlco]|"none"-text-0-"None"-NN-0|text|773/4||
0374.txt|MMI|0.52|none - SubstanceAdminSubstitution|C1553523|[fndg]|"none"-text-0-"None"-NN-0|text|773/4||
0374.txt|MMI|0.52|none - TableRules|C1546509|[qnco]|"none"-text-0-"None"-NN-0|text|773/4||
0374.txt|MMI|0.52|perioperative|C1518988|[tmco]|"perioperative"-text-12-"perioperative"-JJ-0|text|1732/13||
0374.txt|MMI|0.52|seen|C0205397|[qlco]|"seen"-text-0-"seen"-VBN-0|text|1897/4||
0374.txt|MMI|0.52|surgical history|C0744961|[fndg]|"surgical history"-text-0-"SURGICAL HISTORY"-NNP-0|text|674/16||
0374.txt|MMI|0.52|therapeutic aspects|C0039798|[ftcn]|"treatment"-text-0-"TREATMENT"-NNP-0|text|1400/9||
0374.txt|MMI|0.52|treatment - ActInformationManagementReason|C3887704|[hlca]|"treatment"-text-0-"TREATMENT"-NNP-0|text|1400/9||
0374.txt|MMI|0.50|1-2|C3843716|[fndg]|"1-2"-text-0-"1-2"-CD-0|text|2061/3||
0374.txt|MMI|0.50|170|C4517599|[qnco]|"170"-text-0-"170"-CD-0|text|934/3||
0374.txt|MMI|0.50|Administration Method - Pain|C1549543|[ftcn]|"Pain"-text-0-"pain"-NN-0|text|531/4||
0374.txt|MMI|0.50|Adverse Event Associated with Pain|C1557397|[fndg]|"PAIN"-text-0-"pain"-NN-0|text|531/4||
0374.txt|MMI|0.50|Apprehension test response|C0231741|[clna]|"Apprehension sign"-text-4-"apprehension sign"-NN-0|text|1327/17||
0374.txt|MMI|0.50|Blood Products Laboratory Testing|C3831328|[lbpr]|"Test"-text-0-"test"-NN-0|text|1159/4||
0374.txt|MMI|0.50|Body Fluid Discharge|C0012621|[bdsu]|"Discharge"-text-2-"discharge"-NN-0|text|1931/9||
0374.txt|MMI|0.50|Dioscorea trifida|C1018834|[plnt]|"name"-text-30-"NAME"-NNP-0|text|127/4||
0374.txt|MMI|0.50|Discharge date|C2361123|[tmco]|"Discharge date"-text-68-"DISCHARGE DATE"-NNP-0|text|202/14||
0374.txt|MMI|0.50|Discharge date:Time Stamp -- Date and Time:Point in time:^Patient:Quantitative|C2361122|[clna]|"Discharge date"-text-68-"DISCHARGE DATE"-NNP-0|text|202/14||
0374.txt|MMI|0.50|Discharge, Body Substance, Sample|C0600083|[bdsu]|"Discharge"-text-2-"discharge"-NN-0|text|1931/9||
0374.txt|MMI|0.50|Discharge, body substance|C2926602|[sosy]|"Discharge"-text-2-"discharge"-NN-0|text|1931/9||
0374.txt|MMI|0.50|Dominant|C1527180|[ftcn]|"Dominant"-text-12-"dominant"-JJ-0|text|339/8||
0374.txt|MMI|0.50|Dry|C0205222|[qlco]|"Dry"-text-0-"dry"-JJ-0|text|1704/3||
0374.txt|MMI|0.50|Dry skin|C0151908|[sosy]|"DRY"-text-0-"dry"-JJ-0|text|1704/3||
0374.txt|MMI|0.50|Dryness (characteristic)|C1512080|[qlco]|"Dry"-text-0-"dry"-JJ-0|text|1704/3||
0374.txt|MMI|0.50|Entire right hand|C1288948|[bpoc]|"Right hand"-text-10-"right hand"-JJ-0|text|328/10||
0374.txt|MMI|0.50|Entity Handling - dry|C1550582|[hcpp]|"dry"-text-0-"dry"-JJ-0|text|1704/3||
0374.txt|MMI|0.50|Feel Pain|C4554132|[inpr]|"Pain"-text-0-"pain"-NN-0|text|531/4||
0374.txt|MMI|0.50|Frequency of Pain Question|C0518090|[inpr]|"Pain"-text-0-"pain"-NN-0|text|531/4||
0374.txt|MMI|0.50|Have Pain|C2984058|[inpr]|"Pain"-text-0-"pain"-NN-0|text|531/4||
0374.txt|MMI|0.50|How Much Distress Pain|C4085212|[inpr]|"Pain"-text-0-"pain"-NN-0|text|531/4||
0374.txt|MMI|0.50|How Often Felt Normal question|C4553972|[inpr]|"Normal"-text-0-"normal"-JJ-0|text|1371/6||
0374.txt|MMI|0.50|Injury wounds|C0043250|[inpo]|"Wound"-text-0-"wound"-NN-0|text|1675/5||
0374.txt|MMI|0.50|Internal rotation|C0231459|[ftcn]|"Internal rotation"-text-12-"internal rotation"-JJ-0|text|987/17||
0374.txt|MMI|0.50|Laboratory Procedures|C0022885|[lbpr]|"Test"-text-0-"test"-NN-0|text|1159/4||
0374.txt|MMI|0.50|MDF Attribute Type - Name|C1554107|[inpr]|"Name"-text-30-"NAME"-NNP-0|text|127/4||
0374.txt|MMI|0.50|Measures (attribute)|C1879489|[ftcn]|"Measures"-text-0-"measures"-NNS-0|text|1079/8||
0374.txt|MMI|0.50|Mild pain|C0278138|[fndg]|"Mild pain"-text-0-"Mild pain"-NNP-0|text|1134/9||
0374.txt|MMI|0.50|Name (property) (qualifier value)|C4522128|[qlco]|"Name"-text-30-"NAME"-NNP-0|text|127/4||
0374.txt|MMI|0.50|Name:Patient number:Point in time:^Patient:Nominal|C2599456|[clna]|"Name"-text-30-"NAME"-NNP-0|text|127/4||
0374.txt|MMI|0.50|Neck Pain Score 2|C4522280|[fndg]|"Mild Pain"-text-0-"Mild pain"-NNP-0|text|1134/9||
0374.txt|MMI|0.50|Negative|C0205160|[fndg]|"Negative"-text-18-"negative"-JJ-0|text|1218/8||
0374.txt|MMI|0.50|Negative - answer|C3853545|[qlco]|"Negative"-text-18-"negative"-JJ-0|text|1218/8||
0374.txt|MMI|0.50|Negative Charge|C2825491|[qlco]|"Negative"-text-18-"negative"-JJ-0|text|1218/8||
0374.txt|MMI|0.50|Negative Finding|C1513916|[fndg]|"Negative"-text-18-"negative"-JJ-0|text|1218/8||
0374.txt|MMI|0.50|Negative Number|C2825415|[cnce]|"Negative"-text-18-"negative"-JJ-0|text|1218/8||
0374.txt|MMI|0.50|Normal Gait|C5200925|[fndg]|"Normal"-text-0-"normal"-JJ-0|text|1371/6||
0374.txt|MMI|0.50|Normal Immune Presence|C5202633|[fndg]|"Normal"-text-0-"normal"-JJ-0|text|1371/6||
0374.txt|MMI|0.50|Normal Observation Interpretation|C1550457|[fndg]|"Normal"-text-0-"normal"-JJ-0|text|1371/6||
0374.txt|MMI|0.50|Normal Reference Range|C2698497|[inpr]|"Normal"-text-0-"normal"-JJ-0|text|1371/6||
0374.txt|MMI|0.50|Normal assessment finding|C1873497|[fndg]|"Normal"-text-0-"normal"-JJ-0|text|1371/6||
0374.txt|MMI|0.50|Normal, Unit of Concentration|C1704701|[qnco]|"Normal"-text-0-"normal"-JJ-0|text|1371/6||
0374.txt|MMI|0.50|On discharge|C1548175|[tmco]|"On discharge"-text-0-"ON DISCHARGE"-IN-0|text|2037/12||
0374.txt|MMI|0.50|Open|C0175566|[spco]|"Open"-text-28-"open"-JJ-0|text|1496/4||
0374.txt|MMI|0.50|Open Surgical Procedure|C4283938|[topp]|"Open"-text-28-"open"-JJ-0|text|1496/4||
0374.txt|MMI|0.50|Pain Distress Question|C4085211|[inpr]|"Pain"-text-0-"pain"-NN-0|text|531/4||
0374.txt|MMI|0.50|Pain by Anatomic Descriptor, CTCAE|C1882272|[fndg]|"Pain"-text-0-"pain"-NN-0|text|531/4||
0374.txt|MMI|0.50|Pain, CTCAE|C4553004|[fndg]|"Pain"-text-0-"pain"-NN-0|text|531/4||
0374.txt|MMI|0.50|Pain:-:Point in time:^Patient:-|C2598155|[clna]|"Pain"-text-0-"pain"-NN-0|text|531/4||
0374.txt|MMI|0.50|Person Name|C1547383|[inpr]|"Name"-text-30-"NAME"-NNP-0|text|127/4||
0374.txt|MMI|0.50|Phase I/II Trial|C1519043|[resa]|"1-2"-text-0-"1-2"-CD-0|text|2061/3||
0374.txt|MMI|0.50|Route of Administration - Wound|C1549529|[ftcn]|"Wound"-text-0-"wound"-NN-0|text|1675/5||
0374.txt|MMI|0.50|Skin appearance normal (finding)|C0558145|[fndg]|"NORMAL"-text-0-"normal"-JJ-0|text|1371/6||
0374.txt|MMI|0.50|Special Handling Code - Dry|C1550118|[inpr]|"Dry"-text-0-"dry"-JJ-0|text|1704/3||
0374.txt|MMI|0.50|Specimen Source Codes - Discharge|C1546601|[inpr]|"Discharge"-text-2-"discharge"-NN-0|text|1931/9||
0374.txt|MMI|0.50|Specimen Source Codes - Wound|C1547965|[inpr]|"Wound"-text-0-"wound"-NN-0|text|1675/5||
0374.txt|MMI|0.50|Specimen Type - Wound|C1550680|[bdsu]|"Wound"-text-0-"wound"-NN-0|text|1675/5||
0374.txt|MMI|0.50|Structure of right hand|C0230370|[bpoc]|"Right hand"-text-10-"right hand"-JJ-0|text|328/10||
0374.txt|MMI|0.50|Test - temporal region|C4318744|[blor]|"Test"-text-0-"test"-NN-0|text|1159/4||
0374.txt|MMI|0.50|Test Dosing Unit|C1704435|[qnco]|"Test"-text-0-"test"-NN-0|text|1159/4||
0374.txt|MMI|0.50|Test Name|C2826273|[inpr]|"TEST"-text-0-"test"-NN-0|text|1159/4||
0374.txt|MMI|0.50|Test Result|C0456984|[lbtr]|"Test"-text-0-"test"-NN-0|text|1159/4||
0374.txt|MMI|0.50|Testing|C0039593|[ftcn]|"Test"-text-0-"test"-NN-0|text|1159/4||
0374.txt|MMI|0.50|Tests (qualifier value)|C0392366|[inpr]|"test"-text-0-"test"-NN-0|text|1159/4||
0374.txt|MMI|0.50|Traumatic injury|C3263723|[inpo]|"Wound"-text-0-"wound"-NN-0|text|1675/5||
0374.txt|MMI|0.50|Usual Severity Pain|C4085210|[inpr]|"Pain"-text-0-"pain"-NN-0|text|531/4||
0374.txt|MMI|0.50|normal Act Status|C1553386|[inpr]|"normal"-text-0-"normal"-JJ-0|text|1371/6||
0374.txt|MMI|0.50|normal Confidentiality|C1550469|[idcn]|"normal"-text-0-"normal"-JJ-0|text|1371/6||
0374.txt|MMI|0.50|normal Device Alert Level|C1551394|[fndg]|"Normal"-text-0-"normal"-JJ-0|text|1371/6||
0374.txt|MMI|0.50|normal Entity Status|C1553406|[qlco]|"normal"-text-0-"normal"-JJ-0|text|1371/6||
0374.txt|MMI|0.50|normal Managed Participation Status|C1553399|[idcn]|"normal"-text-0-"normal"-JJ-0|text|1371/6||
0374.txt|MMI|0.50|normal Role Status|C1553402|[idcn]|"normal"-text-0-"normal"-JJ-0|text|1371/6||
