0445.txt|MMI|453.09|Wiskott-Aldrich Syndrome|C0043194|[dsyn]|"WAS"-text-0-"was"-VBD-0,"WAS"-text-0-"was"-VBD-0,"WAS"-text-0-"was"-VBD-0,"WAS"-text-0-"was"-VBD-0,"WAS"-text-0-"was"-VBD-0,"WAS"-text-0-"was"-VBD-0,"WAS"-text-0-"was"-VBD-0,"WAS"-text-0-"was"-VBD-0,"WAS"-text-0-"was"-VBD-0,"WAS"-text-0-"was"-VBD-0,"WAS"-text-4-"was"-VBD-0,"WAS"-text-0-"was"-VBD-0,"WAS"-text-0-"was"-VBD-0,"WAS"-text-10-"was"-VBD-0,"WAS"-text-0-"was"-VBD-0,"WAS"-text-0-"was"-VBD-0,"WAS"-text-0-"was"-VBD-0,"WAS"-text-0-"was"-VBD-0,"WAS"-text-10-"was"-VBD-0,"WAS"-text-4-"was"-VBD-0,"WAS"-text-16-"was"-VBD-0,"WAS"-text-0-"was"-VBD-0,"WAS"-text-0-"was"-VBD-0,"WAS"-text-0-"was"-VBD-0,"WAS"-text-0-"was"-VBD-0,"WAS"-text-0-"was"-VBD-0,"WAS"-text-0-"was"-VBD-0,"WAS"-text-0-"was"-VBD-0|text|521/3;2952/3;3155/3;3209/3;3340/3;3550/3;3645/3;3719/3;3758/3;3815/3;3847/3;3930/3;4052/3;4101/3;4145/3;4214/3;4233/3;4272/3;4304/3;4476/3;4515/3;4648/3;4759/3;4833/3;4893/3;4951/3;5042/3;5144/3|C20.673.627.900;C15.378.553.546.605.900;C16.320.798.875;C20.673.795.875;C16.320.322.937;C15.378.463.960;C16.320.099.970;C15.378.100.100.970|
0445.txt|MMI|53.35|WAS protein, human|C1565156|[bacs, aapp]|"WAS"-text-0-"was"-VBD-0,"WAS"-text-0-"was"-VBD-0,"WAS"-text-0-"was"-VBD-0,"WAS"-text-0-"was"-VBD-0,"WAS"-text-0-"was"-VBD-0,"WAS"-text-0-"was"-VBD-0,"WAS"-text-0-"was"-VBD-0,"WAS"-text-0-"was"-VBD-0,"WAS"-text-0-"was"-VBD-0,"WAS"-text-0-"was"-VBD-0,"WAS"-text-4-"was"-VBD-0,"WAS"-text-0-"was"-VBD-0,"WAS"-text-0-"was"-VBD-0,"WAS"-text-10-"was"-VBD-0,"WAS"-text-0-"was"-VBD-0,"WAS"-text-0-"was"-VBD-0,"WAS"-text-0-"was"-VBD-0,"WAS"-text-0-"was"-VBD-0,"WAS"-text-10-"was"-VBD-0,"WAS"-text-4-"was"-VBD-0,"WAS"-text-16-"was"-VBD-0,"WAS"-text-0-"was"-VBD-0,"WAS"-text-0-"was"-VBD-0,"WAS"-text-0-"was"-VBD-0,"WAS"-text-0-"was"-VBD-0,"WAS"-text-0-"was"-VBD-0,"WAS"-text-0-"was"-VBD-0,"WAS"-text-0-"was"-VBD-0|text|521/3;2952/3;3155/3;3209/3;3340/3;3550/3;3645/3;3719/3;3758/3;3815/3;3847/3;3930/3;4052/3;4101/3;4145/3;4214/3;4233/3;4272/3;4304/3;4476/3;4515/3;4648/3;4759/3;4833/3;4893/3;4951/3;5042/3;5144/3|x.x.x.x|
0445.txt|MMI|29.59|Endoscopic Retrograde Cholangiopancreatography|C0008310|[diap]|"ERCP"-text-0-"ERCP"-NNP-0,"ERCP"-text-0-"ERCP"-NNP-0|text|2776/4;4246/4|E04.502.250.250.160;E01.370.388.250.250.160;E01.370.372.250.200;E01.370.372.200.200;E04.210.240.160;E01.370.350.700.715.200.200|
0445.txt|MMI|20.22|Andorra|C0002838|[geoa]|"AND"-text-14-"and"-CC-0,"AND"-text-0-"and"-CC-0,"AND"-text-88-"and"-CC-0,"AND"-text-20-"and"-CC-0,"AND"-text-0-"and"-CC-0,"AND"-text-4-"and"-CC-0,"AND"-text-0-"and"-CC-0,"AND"-text-2-"and"-CC-0,"AND"-text-0-"and"-CC-0,"AND"-text-4-"and"-CC-0,"AND"-text-0-"and"-CC-0,"AND"-text-20-"and"-CC-0,"AND"-text-0-"and"-CC-0,"AND"-text-0-"and"-CC-0|text|566/3;747/3;1082/3;3008/3;3354/3;3432/3;3785/3;3978/3;4073/3;4286/3;4350/3;4528/3;5003/3;5075/3|Z01.542.049|
0445.txt|MMI|16.76|SHE gene|C1822717|[gngm]|"SHE"-text-0-"she"-PRP-0,"SHE"-text-0-"She"-PRP-0,"SHE"-text-10-"she"-PRP-0,"SHE"-text-0-"She"-PRP-0,"SHE"-text-0-"She"-PRP-0,"SHE"-text-0-"she"-PRP-0,"SHE"-text-0-"She"-PRP-0,"SHE"-text-0-"She"-PRP-0,"SHE"-text-0-"She"-PRP-0,"SHE"-text-0-"She"-PRP-0,"SHE"-text-0-"She"-PRP-0,"SHE"-text-0-"She"-PRP-0,"SHE"-text-0-"she"-PRP-0,"SHE"-text-0-"She"-PRP-0,"SHE"-text-0-"she"-PRP-0,"SHE"-text-2-"she"-PRP-0,"SHE"-text-0-"She"-PRP-0,"SHE"-text-0-"She"-PRP-0,"SHE"-text-0-"she"-PRP-0,"SHE"-text-0-"She"-PRP-0,"SHE"-text-0-"She"-PRP-0,"SHE"-text-0-"She"-PRP-0,"SHE"-text-0-"She"-PRP-0,"SHE"-text-0-"she"-PRP-0,"SHE"-text-0-"she"-PRP-0,"SHE"-text-0-"she"-PRP-0,"SHE"-text-0-"She"-PRP-0,"SHE"-text-0-"She"-PRP-0,"SHE"-text-0-"She"-PRP-0,"SHE"-text-0-"She"-PRP-0,"SHE"-text-0-"she"-PRP-0,"SHE"-text-0-"She"-PRP-0|text|517/3;584/3;678/3;720/3;3151/3;3205/3;3273/3;3336/3;3383/3;3500/3;3546/3;3596/3;3641/3;3691/3;3715/3;3843/3;3926/3;4010/3;4048/3;4167/3;4210/3;4229/3;4317/3;4444/3;4570/3;4644/3;4700/3;4755/3;4977/3;5038/3;5140/3;5268/3||
0445.txt|MMI|16.76|She Chinese|C4761447|[popg]|"SHE"-text-0-"she"-PRP-0,"SHE"-text-0-"She"-PRP-0,"SHE"-text-10-"she"-PRP-0,"SHE"-text-0-"She"-PRP-0,"SHE"-text-0-"She"-PRP-0,"SHE"-text-0-"she"-PRP-0,"SHE"-text-0-"She"-PRP-0,"SHE"-text-0-"She"-PRP-0,"SHE"-text-0-"She"-PRP-0,"SHE"-text-0-"She"-PRP-0,"SHE"-text-0-"She"-PRP-0,"SHE"-text-0-"She"-PRP-0,"SHE"-text-0-"she"-PRP-0,"SHE"-text-0-"She"-PRP-0,"SHE"-text-0-"she"-PRP-0,"SHE"-text-2-"she"-PRP-0,"SHE"-text-0-"She"-PRP-0,"SHE"-text-0-"She"-PRP-0,"SHE"-text-0-"she"-PRP-0,"SHE"-text-0-"She"-PRP-0,"SHE"-text-0-"She"-PRP-0,"SHE"-text-0-"She"-PRP-0,"SHE"-text-0-"She"-PRP-0,"SHE"-text-0-"she"-PRP-0,"SHE"-text-0-"she"-PRP-0,"SHE"-text-0-"she"-PRP-0,"SHE"-text-0-"She"-PRP-0,"SHE"-text-0-"She"-PRP-0,"SHE"-text-0-"She"-PRP-0,"SHE"-text-0-"She"-PRP-0,"SHE"-text-0-"she"-PRP-0,"SHE"-text-0-"She"-PRP-0|text|517/3;584/3;678/3;720/3;3151/3;3205/3;3273/3;3336/3;3383/3;3500/3;3546/3;3596/3;3641/3;3691/3;3715/3;3843/3;3926/3;4010/3;4048/3;4167/3;4210/3;4229/3;4317/3;4444/3;4570/3;4644/3;4700/3;4755/3;4977/3;5038/3;5140/3;5268/3||
0445.txt|MMI|16.70|Pain|C0030193|[sosy]|"Pain"-text-0-"pain"-NN-0,"Pain"-text-0-"pain"-NN-0,"Pain"-text-0-"pain"-NN-0|text|3810/4;4828/4;10155/4|G11.561.790.444;F02.830.816.444;C23.888.592.612|
0445.txt|MMI|14.86|insulin, regular, human|C0795635|[horm, aapp, phsu]|"INSULIN"-text-0-"insulin"-NN-0,"INSULIN"-text-0-"insulin"-NN-0|text|798/7;7097/7|D06.472.699.587.200.500.625.500;D12.644.548.586.200.500.625.500|
0445.txt|MMI|14.66|WAS gene|C1421478|[gngm]|"WAS"-text-0-"was"-VBD-0,"WAS"-text-0-"was"-VBD-0,"WAS"-text-0-"was"-VBD-0,"WAS"-text-0-"was"-VBD-0,"WAS"-text-0-"was"-VBD-0,"WAS"-text-0-"was"-VBD-0,"WAS"-text-0-"was"-VBD-0,"WAS"-text-0-"was"-VBD-0,"WAS"-text-0-"was"-VBD-0,"WAS"-text-0-"was"-VBD-0,"WAS"-text-4-"was"-VBD-0,"WAS"-text-0-"was"-VBD-0,"WAS"-text-0-"was"-VBD-0,"WAS"-text-10-"was"-VBD-0,"WAS"-text-0-"was"-VBD-0,"WAS"-text-0-"was"-VBD-0,"WAS"-text-0-"was"-VBD-0,"WAS"-text-0-"was"-VBD-0,"WAS"-text-10-"was"-VBD-0,"WAS"-text-4-"was"-VBD-0,"WAS"-text-16-"was"-VBD-0,"WAS"-text-0-"was"-VBD-0,"WAS"-text-0-"was"-VBD-0,"WAS"-text-0-"was"-VBD-0,"WAS"-text-0-"was"-VBD-0,"WAS"-text-0-"was"-VBD-0,"WAS"-text-0-"was"-VBD-0,"WAS"-text-0-"was"-VBD-0|text|521/3;2952/3;3155/3;3209/3;3340/3;3550/3;3645/3;3719/3;3758/3;3815/3;3847/3;3930/3;4052/3;4101/3;4145/3;4214/3;4233/3;4272/3;4304/3;4476/3;4515/3;4648/3;4759/3;4833/3;4893/3;4951/3;5042/3;5144/3||
0445.txt|MMI|14.66|Washoe language|C1555640|[lang]|"WAS"-text-0-"was"-VBD-0,"WAS"-text-0-"was"-VBD-0,"WAS"-text-0-"was"-VBD-0,"WAS"-text-0-"was"-VBD-0,"WAS"-text-0-"was"-VBD-0,"WAS"-text-0-"was"-VBD-0,"WAS"-text-0-"was"-VBD-0,"WAS"-text-0-"was"-VBD-0,"WAS"-text-0-"was"-VBD-0,"WAS"-text-0-"was"-VBD-0,"WAS"-text-4-"was"-VBD-0,"WAS"-text-0-"was"-VBD-0,"WAS"-text-0-"was"-VBD-0,"WAS"-text-10-"was"-VBD-0,"WAS"-text-0-"was"-VBD-0,"WAS"-text-0-"was"-VBD-0,"WAS"-text-0-"was"-VBD-0,"WAS"-text-0-"was"-VBD-0,"WAS"-text-10-"was"-VBD-0,"WAS"-text-4-"was"-VBD-0,"WAS"-text-16-"was"-VBD-0,"WAS"-text-0-"was"-VBD-0,"WAS"-text-0-"was"-VBD-0,"WAS"-text-0-"was"-VBD-0,"WAS"-text-0-"was"-VBD-0,"WAS"-text-0-"was"-VBD-0,"WAS"-text-0-"was"-VBD-0,"WAS"-text-0-"was"-VBD-0|text|521/3;2952/3;3155/3;3209/3;3340/3;3550/3;3645/3;3719/3;3758/3;3815/3;3847/3;3930/3;4052/3;4101/3;4145/3;4214/3;4233/3;4272/3;4304/3;4476/3;4515/3;4648/3;4759/3;4833/3;4893/3;4951/3;5042/3;5144/3||
0445.txt|MMI|13.42|Ice|C0020746|[inch]|"Ice"-text-0-"ice"-NN-0|text|3729/3|D01.650.550.925.400;N06.230.291;G16.500.275.410;G16.500.750.775.342;D01.248.497.158.459.650.400;D01.045.250.875.400|
0445.txt|MMI|13.02|Insulin|C0021641|[horm, aapp, phsu]|"Insulin"-text-0-"insulin"-NN-0,"Insulin"-text-0-"insulin"-NN-0|text|798/7;7097/7|D06.472.699.587.200.500.625;D12.644.548.586.200.500.625|
0445.txt|MMI|11.11|Patient Discharge|C0030685|[hlca]|"Discharged"-text-0-"discharged"-VBN-0|text|5148/10|N04.590.233.727.210.125;E02.760.169.125;N02.421.585.169.125;E02.760.400.610;N02.421.585.400.610|
0445.txt|MMI|10.19|ErbB Receptors|C3812393|[rcpt, enzy, aapp]|"HER Family"-text-0-"Her family"-PRP$-0|text|485/10|D08.811.913.696.620.682.725.400.009;D12.776.543.750.750.400.074;D12.776.543.750.630.009|
0445.txt|MMI|9.25|Swimming|C0039003|[dora]|"Swimming"-text-0-"swimming"-NN-0|text|9707/8|I03.350.875;G11.427.410.568.800;G11.427.410.698.277.875;I03.450.642.845.945.500|
0445.txt|MMI|8.81|Passive Cutaneous Anaphylaxis|C0030625|[lbpr]|"PCA"-text-12-"PCA"-NNP-0|text|3870/3|E01.370.225.812.871.600;E05.200.812.871.600;E05.478.594.890.600;G12.122.754|
0445.txt|MMI|8.81|Vision|C0042789|[orgf]|"see"-text-0-"see"-VB-0|text|3308/3|F02.830.816.964;G02.111.820.480.900;G11.561.790.964;G14.935;G04.835.480.900|
0445.txt|MMI|8.41|Heterosexuality|C0019421|[socb]|"Straight"-text-6-"straight"-RB-0,"Straight"-text-0-"straight"-JJ-0|text|4480/8;4728/8|G08.686.867.400;F01.145.802.975.400|
0445.txt|MMI|8.37|Abdominal Pain|C0000737|[sosy]|"Abdominal Pain"-text-32-"abdominal pain"-JJ-0,"Abdominal Pain"-text-0-"abdominal pain"-JJ-0|text|3039/14;4185/14|C23.888.592.612.054;C23.888.821.030|
0445.txt|MMI|7.43|tramadol|C0040610|[orch, phsu]|"tramadol"-text-0-"Tramadol"-NNP-0|text|5355/8|D02.033.415.510.500.802;D10.289.510.500.802;D02.092.668.387.750|
0445.txt|MMI|7.33|And|C1515981|[idcn]|"And"-text-14-"and"-CC-0,"And"-text-0-"and"-CC-0,"And"-text-88-"and"-CC-0,"And"-text-20-"and"-CC-0,"And"-text-0-"and"-CC-0,"And"-text-4-"and"-CC-0,"And"-text-0-"and"-CC-0,"And"-text-2-"and"-CC-0,"And"-text-0-"and"-CC-0,"And"-text-4-"and"-CC-0,"And"-text-0-"and"-CC-0,"And"-text-20-"and"-CC-0,"And"-text-0-"and"-CC-0,"And"-text-0-"and"-CC-0|text|566/3;747/3;1082/3;3008/3;3354/3;3432/3;3785/3;3978/3;4073/3;4286/3;4350/3;4528/3;5003/3;5075/3||
0445.txt|MMI|7.33|And - dosing instruction fragment|C1706368|[inpr]|"And"-text-14-"and"-CC-0,"And"-text-0-"and"-CC-0,"And"-text-88-"and"-CC-0,"And"-text-20-"and"-CC-0,"And"-text-0-"and"-CC-0,"And"-text-4-"and"-CC-0,"And"-text-0-"and"-CC-0,"And"-text-2-"and"-CC-0,"And"-text-0-"and"-CC-0,"And"-text-4-"and"-CC-0,"And"-text-0-"and"-CC-0,"And"-text-20-"and"-CC-0,"And"-text-0-"and"-CC-0,"And"-text-0-"and"-CC-0|text|566/3;747/3;1082/3;3008/3;3354/3;3432/3;3785/3;3978/3;4073/3;4286/3;4350/3;4528/3;5003/3;5075/3||
0445.txt|MMI|7.33|RelationshipConjunction - and|C1550557|[inpr]|"and"-text-14-"and"-CC-0,"and"-text-0-"and"-CC-0,"and"-text-88-"and"-CC-0,"and"-text-20-"and"-CC-0,"and"-text-0-"and"-CC-0,"and"-text-4-"and"-CC-0,"and"-text-0-"and"-CC-0,"and"-text-2-"and"-CC-0,"and"-text-0-"and"-CC-0,"and"-text-4-"and"-CC-0,"and"-text-0-"and"-CC-0,"and"-text-20-"and"-CC-0,"and"-text-0-"and"-CC-0,"and"-text-0-"and"-CC-0|text|566/3;747/3;1082/3;3008/3;3354/3;3432/3;3785/3;3978/3;4073/3;4286/3;4350/3;4528/3;5003/3;5075/3||
0445.txt|MMI|6.97|Coronary Artery Disease|C1956346|[dsyn]|"CAD"-text-0-"cad"-NN-1|text|1136/3|C14.280.647.250.260;C14.907.137.126.339;C14.907.585.250.260|
0445.txt|MMI|6.97|pyrrolidonecarboxylic acid|C0034330|[bacs, irda, aapp]|"PCA"-text-12-"PCA"-NNP-0|text|3870/3|D12.125.067.625.850;D03.383.773.812.718;D12.125.072.401.761|
0445.txt|MMI|6.57|Physicians|C0031831|[prog]|"Doctor"-text-20-"doctor"-NN-0,"doctors"-text-0-"doctors"-NNS-0|text|9993/6;10486/7|M01.526.485.810;N02.360.810|
0445.txt|MMI|6.51|Adrenergic beta-Antagonists|C0001645|[phsu]|"beta blockers"-text-10-"beta blockers"-JJ-0|text|3994/13|D27.505.519.625.050.200.200;D27.505.696.577.050.200.200|
0445.txt|MMI|6.51|oxygen|C0030054|[bacs, elii, phsu]|"oxygen"-text-0-"oxygen"-NN-0|text|647/6|D01.362.670;D01.268.185.550;D01.362.670;D01.268.185.550|
0445.txt|MMI|6.05|Urine|C0042036|[bdsu]|"Urine"-text-30-"urine"-NN-0|text|4551/5|A12.207.927;Y01.040;Y08.040.070;Y01.040;Y08.040.070|
0445.txt|MMI|6.03|Oliguria|C0028961|[dsyn]|"low urine output"-text-0-"low urine output"-JJ-0|text|3568/16|C23.888.942.400;C12.777.934.600;C13.351.968.934.600|
0445.txt|MMI|5.71|HAC protocol|C0062074|[topp]|"HAD"-text-0-"had"-VBD-0,"HAD"-text-0-"had"-VBD-0,"HAD"-text-2-"had"-VBD-0|text|4171/3;5007/3;5079/3|x.x.x.x|
0445.txt|MMI|5.71|Lantus|C0876064|[aapp, phsu]|"Lantus"-text-0-"lantus"-NN-0,"Lantus"-text-0-"Lantus"-NNP-0,"Lantus"-text-0-"Lantus"-NNP-0|text|4886/6;7074/6;7090/6|x.x.x.x|
0445.txt|MMI|5.71|Negative Surgical Margin|C1709157|[fndg]|"Clear"-text-8-"clear"-JJ-0,"Clear"-text-0-"clear"-JJ-0,"Clear"-text-0-"clear"-JJ-0|text|1294/5;4775/5;9747/5|x.x.x.x|
0445.txt|MMI|5.59|Tachycardia|C0039231|[fndg]|"Tachycardia"-text-0-"tachycardia"-NN-0|text|3966/11|C14.280.123.875;C23.550.073.845;C14.280.067.845|
0445.txt|MMI|5.24|Facilitated oscillatory release technique|C1562169|[topp]|"FOR"-text-6-"for"-IN-0,"FOR"-text-4-"for"-IN-0,"FOR"-text-10-"for"-IN-0,"FOR"-text-20-"for"-IN-0,"FOR"-text-0-"for"-IN-0,"FOR"-text-0-"for"-IN-0,"FOR"-text-0-"for"-IN-0,"FOR"-text-0-"for"-IN-0,"FOR"-text-0-"for"-IN-0,"FOR"-text-0-"for"-IN-0|text|3229/3;3322/3;3448/3;3474/3;3521/3;3668/3;3772/3;3957/3;4905/3;5297/3||
0445.txt|MMI|5.24|Preposition For|C0521125|[qlco]|"For"-text-6-"for"-IN-0,"For"-text-4-"for"-IN-0,"For"-text-10-"for"-IN-0,"For"-text-20-"for"-IN-0,"For"-text-0-"for"-IN-0,"For"-text-0-"for"-IN-0,"For"-text-0-"for"-IN-0,"For"-text-0-"for"-IN-0,"For"-text-0-"for"-IN-0,"For"-text-0-"for"-IN-0|text|3229/3;3322/3;3448/3;3474/3;3521/3;3668/3;3772/3;3957/3;4905/3;5297/3||
0445.txt|MMI|5.24|WWOX gene|C1421525|[gngm]|"FOR"-text-6-"for"-IN-0,"FOR"-text-4-"for"-IN-0,"FOR"-text-10-"for"-IN-0,"FOR"-text-20-"for"-IN-0,"FOR"-text-0-"for"-IN-0,"FOR"-text-0-"for"-IN-0,"FOR"-text-0-"for"-IN-0,"FOR"-text-0-"for"-IN-0,"FOR"-text-0-"for"-IN-0,"FOR"-text-0-"for"-IN-0|text|3229/3;3322/3;3448/3;3474/3;3521/3;3668/3;3772/3;3957/3;4905/3;5297/3||
0445.txt|MMI|5.24|WWOX wt Allele|C4321252|[gngm]|"FOR"-text-6-"for"-IN-0,"FOR"-text-4-"for"-IN-0,"FOR"-text-10-"for"-IN-0,"FOR"-text-20-"for"-IN-0,"FOR"-text-0-"for"-IN-0,"FOR"-text-0-"for"-IN-0,"FOR"-text-0-"for"-IN-0,"FOR"-text-0-"for"-IN-0,"FOR"-text-0-"for"-IN-0,"FOR"-text-0-"for"-IN-0|text|3229/3;3322/3;3448/3;3474/3;3521/3;3668/3;3772/3;3957/3;4905/3;5297/3||
0445.txt|MMI|5.11|Analgesics|C0002771|[hops, orch, phsu]|"Pain medicine"-text-0-"pain medicine"-NN-0|text|10223/13|D27.505.696.663.850.014;D27.505.954.427.040|
0445.txt|MMI|4.67|Nicotiana|C0086707|[plnt]|"Tobacco"-text-50-"tobacco"-NN-0|text|966/7|B01.650.940.800.575.912.250.908.500.900|
0445.txt|MMI|4.67|Rectum|C0034896|[bpoc]|"Rectum"-text-4-"rectum"-NN-0|text|5029/6|A03.556.249.249.767;A03.556.124.526.767|
0445.txt|MMI|4.67|Telemetry|C0039451|[diap]|"Telemetry"-text-0-"telemetry"-NN-0|text|3947/9|E05.925;L01.178.847.675;E01.370.520.750|
0445.txt|MMI|4.67|Tobacco|C0040329|[hops, orch]|"Tobacco"-text-50-"tobacco"-NN-0|text|966/7|B01.650.940.800.575.912.250.908.500.900|
0445.txt|MMI|4.65|ERBB2 gene|C0242957|[gngm]|"2 her"-text-0-"2 her"-CD-0|text|3804/5|G05.360.340.024.340.375.500.791.295.305|
0445.txt|MMI|4.21|Laparoscopy|C0031150|[diap]|"Lap"-text-8-"lap"-NN-0|text|3233/3|E04.502.250.520;E01.370.388.250.520|
0445.txt|MMI|4.21|Urinary Retention|C0080274|[fndg]|"Urinary Retention"-text-7-"urinary retention"-JJ-0|text|4616/17|C12.777.934.880;C13.351.968.934.880|
0445.txt|MMI|4.19|In addition to|C0332287|[ftcn]|"With"-text-6-"with"-IN-0,"With"-text-0-"with"-IN-0,"With"-text-14-"with"-IN-0,"With"-text-0-"with"-IN-0,"With"-text-0-"with"-IN-0,"With"-text-0-"with"-IN-0,"With"-text-6-"with"-IN-0,"With"-text-16-"with"-IN-0|text|539/4;3400/4;3874/4;4024/4;4406/4;4584/4;9790/4;9983/4||
0445.txt|MMI|4.19|With - dosing instruction fragment|C1705690|[inpr]|"With"-text-6-"with"-IN-0,"With"-text-0-"with"-IN-0,"With"-text-14-"with"-IN-0,"With"-text-0-"with"-IN-0,"With"-text-0-"with"-IN-0,"With"-text-0-"with"-IN-0,"With"-text-6-"with"-IN-0,"With"-text-16-"with"-IN-0|text|539/4;3400/4;3874/4;4024/4;4406/4;4584/4;9790/4;9983/4||
0445.txt|MMI|3.81|Appointments|C0003629|[tmco]|"Appointments"-text-0-"appointments"-NNS-0,"Appointment"-text-14-"appointment"-NN-0|text|5212/12;9971/11|x.x.x.x|
0445.txt|MMI|3.81|Constipation|C0009806|[sosy]|"Constipation"-text-16-"constipation"-NN-1,"Constipation"-text-16-"constipation"-NN-0|text|5119/12;10122/12|C23.888.821.150|
0445.txt|MMI|3.81|Dilaudid|C0728755|[orch, phsu]|"Dilaudid"-text-6-"Dilaudid"-NNP-0,"Dilaudid"-text-10-"Dilaudid"-NNP-0|text|3436/8;3861/8|x.x.x.x|
0445.txt|MMI|3.81|Heterosexuals|C1527360|[popg]|"Straight"-text-6-"straight"-RB-0,"Straight"-text-0-"straight"-JJ-0|text|4480/8;4728/8|x.x.x.x|
0445.txt|MMI|3.81|Treatment Protocols|C0040808|[topp]|"Regimen"-text-0-"regimen"-NN-0,"Regimen"-text-0-"regimen"-NN-0|text|4875/7;5067/7|x.x.x.x|
0445.txt|MMI|3.75|Antibiotic Prophylaxis|C0282638|[topp]|"Antibiotic coverage"-text-24-"antibiotic coverage"-JJ-0|text|3478/19|E02.319.703.150;E02.319.162.150|
0445.txt|MMI|3.75|Coitus|C0009253|[orgf]|"Sex"-text-24-"Sex"-NN-0|text|83/3|G08.686.784.041;F01.145.802.188|
0445.txt|MMI|3.75|Computer Assisted Diagnosis|C0011905|[diap]|"CAD"-text-0-"cad"-NN-1|text|1136/3|L01.313.500.750.100.158;E01.158|
0445.txt|MMI|3.29|Leukocytosis|C0023518|[dsyn]|"Leukocytosis"-text-0-"leukocytosis"-NN-0|text|734/12|C23.550.526;C15.378.553.475|
0445.txt|MMI|3.29|Physical activity|C0026606|[dora]|"activity"-text-0-"Activity"-NNP-0|text|9901/8|G11.427.410.698.277;I03.350|
0445.txt|MMI|3.29|Range of Motion, Articular|C0080078|[clna]|"Mobility"-text-0-"mobility"-NN-0|text|3789/8|G11.427.760;E01.370.600.700|
0445.txt|MMI|2.89|Nonprofit Organizations|C0029247|[orgt]|"NPO"-text-0-"NPO"-NNP-0,"NPO"-text-0-"NPO"-NNP-0|text|3396/3;4223/3|N03.540.630|
0445.txt|MMI|2.85|Volition|C0042950|[menp]|"Will"-text-0-"will"-MD-0,"Will"-text-0-"will"-MD-0|text|10141/4;10444/4|F02.463.902|
0445.txt|MMI|2.83|Eye|C0015392|[bpoc]|"Eyes"-text-0-"eyes"-NNS-0|text|1252/4|A09.371;A01.456.505.420|
0445.txt|MMI|2.83|Gastroesophageal reflux disease|C0017168|[dsyn]|"GERD"-text-2-"gerd"-NN-0|text|810/4|C06.405.117.119.500.484|
0445.txt|MMI|2.83|Humeral Fractures|C0020162|[inpo]|"Humeral Fracture"-text-20-"humeral fracture"-JJ-0|text|875/16|C26.404.500;C26.088.390|
0445.txt|MMI|2.83|methamphetamine|C0025611|[hops, orch, phsu]|"Ice"-text-0-"ice"-NN-0|text|3729/3|D02.092.471.683.152.619|
0445.txt|MMI|2.83|p-Chloroamphetamine|C0030131|[orch, phsu]|"PCA"-text-12-"PCA"-NNP-0|text|3870/3|D02.092.471.683.152.200|
0445.txt|MMI|2.80|Pain management|C0002766|[topp]|"Pain Control"-text-14-"pain control"-NN-0|text|3452/12|E02.745;N04.590.607.500|
0445.txt|MMI|2.62|Good|C0205170|[qlco]|"Well"-text-0-"well"-RB-0,"Well"-text-0-"well"-RB-0,"Well"-text-0-"well"-RB-0,"Well"-text-0-"well"-RB-0,"Well"-text-0-"well"-RB-0|text|3301/4;3368/4;3610/4;4345/4;5244/4||
0445.txt|MMI|2.62|Have|C3539897|[qlco]|"Has"-text-80-"Has"-NNP-0,"Have"-text-0-"have"-VB-0,"Had"-text-0-"had"-VBD-0,"Had"-text-0-"had"-VBD-0,"Had"-text-2-"had"-VBD-0|text|1061/3;3563/4;4171/3;5007/3;5079/3||
0445.txt|MMI|2.62|Microplate Well|C4283957|[spco]|"Well"-text-0-"well"-RB-0,"Well"-text-0-"well"-RB-0,"Well"-text-0-"well"-RB-0,"Well"-text-0-"well"-RB-0,"Well"-text-0-"well"-RB-0|text|3301/4;3368/4;3610/4;4345/4;5244/4||
0445.txt|MMI|2.62|Well|C3146287|[mnob]|"Well"-text-0-"well"-RB-0,"Well"-text-0-"well"-RB-0,"Well"-text-0-"well"-RB-0,"Well"-text-0-"well"-RB-0,"Well"-text-0-"well"-RB-0|text|3301/4;3368/4;3610/4;4345/4;5244/4||
0445.txt|MMI|2.62|Well Marginated Nodule|C4761387|[fndg]|"Well"-text-0-"well"-RB-0,"Well"-text-0-"well"-RB-0,"Well"-text-0-"well"-RB-0,"Well"-text-0-"well"-RB-0,"Well"-text-0-"well"-RB-0|text|3301/4;3368/4;3610/4;4345/4;5244/4||
0445.txt|MMI|2.37|Papua New Guinea|C0030375|[geoa]|"Papua New Guinea"-text-78-"Papua New Guinea"-NNP-0|text|1044/16|Z01.639.760.590.715|
0445.txt|MMI|2.37|United Arab Emirates|C0041698|[geoa]|"ARE"-text-0-"are"-VBP-0|text|5225/3|Z01.252.245.500.900|
0445.txt|MMI|2.34|Diet therapy|C0012159|[hlca]|"Diet"-text-0-"diet"-NN-0|text|4946/4|E02.642.249;Y11.010|
0445.txt|MMI|2.09|Herero language|C0574443|[lang]|"HER"-text-2-"her"-PRP$-0,"HER"-text-0-"Her"-PRP$-0,"HER"-text-0-"Her"-PRP$-0,"HER"-text-0-"her"-PRP$-0|text|4158/3;4824/3;4866/3;4942/3||
0445.txt|MMI|2.09|Pharmaceutical Preparations|C0013227|[phsu]|"Drugs"-text-56-"Drugs"-NNP-0,"medications"-text-0-"Medications"-NNS-0,"medications"-text-0-"medications"-NNS-0,"Medication"-text-0-"medication"-NN-0|text|170/5;10002/11;10033/11;10160/10|D26|
0445.txt|MMI|2.01|Further|C1517331|[spco]|"Further"-text-0-"further"-JJ-0,"Further"-text-2-"further"-JJ-0,"Further"-text-0-"further"-JJ-0,"Further"-text-6-"further"-JJ-0|text|3525/7;3672/7;4720/7;5086/7||
0445.txt|MMI|1.97|Surgical incisions|C0184898|[topp]|"INCISIONS"-text-0-"incisions"-NNS-0,"INCISIONS"-text-0-"incisions"-NNS-0|text|9772/9;9842/9|C26.859|
0445.txt|MMI|1.93|Time|C0040223|[tmco]|"Time"-text-8-"time"-NN-0,"times"-text-4-"times"-NNS-0|text|673/4;3588/5|G01.910|
0445.txt|MMI|1.90|ARID1A protein, human|C0675390|[bacs, aapp]|"hELD"-text-0-"held"-VBN-0|text|4218/4|x.x.x.x|
0445.txt|MMI|1.90|Abdominal Cavity|C0230168|[blor]|"Abdomen"-text-2-"Abdomen"-NNP-0|text|1415/7|A01.923.047.025|
0445.txt|MMI|1.90|Ability|C0085732|[orga]|"Able"-text-0-"able"-JJ-0|text|4652/4|x.x.x.x|
0445.txt|MMI|1.90|Auscultation|C0004339|[diap]|"Auscultation"-text-12-"auscultation"-NN-0|text|1303/12|E01.370.600.060|
0445.txt|MMI|1.90|Brothers|C0337527|[famg]|"brother"-text-82-"brother"-NN-0|text|1065/7|x.x.x.x|
0445.txt|MMI|1.90|CHOANAL ATRESIA, POSTERIOR|C0220723|[fndg]|"PCA"-text-12-"PCA"-NNP-0|text|3870/3|x.x.x.x|
0445.txt|MMI|1.90|Calcarine sulcus|C0228224|[bsoj]|"ccs"-text-28-"ccs"-NNS-0|text|4547/3|x.x.x.x|
0445.txt|MMI|1.90|Catheterization|C0007430|[topp]|"Catheterization"-text-0-"catheterization"-NN-0|text|4737/15|E05.157;E02.148|
0445.txt|MMI|1.90|Colace|C0282139|[orch, phsu]|"Colace"-text-0-"Colace"-NNP-0|text|10082/6|x.x.x.x|
0445.txt|MMI|1.90|Consultation|C0009818|[hlca]|"consulted"-text-0-"consulted"-VBN-0|text|3762/9|x.x.x.x|
0445.txt|MMI|1.90|DFFB protein, human|C1504769|[enzy, aapp]|"CAD"-text-0-"cad"-NN-1|text|1136/3|x.x.x.x|
0445.txt|MMI|1.90|Daughter|C0011011|[famg]|"Daughter"-text-90-"daughter"-NN-0|text|1086/8|x.x.x.x|
0445.txt|MMI|1.90|Deidentification|C1707660|[mcha]|"DID"-text-0-"did"-VBD-0|text|4704/3|x.x.x.x|
0445.txt|MMI|1.90|Diarrhea|C0011991|[sosy]|"Diarrhea"-text-12-"diarrhea"-NN-1|text|5107/8|C23.888.821.214|
0445.txt|MMI|1.90|Falls|C0085639|[fndg]|"Fall"-text-10-"fall"-VB-0|text|9877/4|N06.850.135.122|
0445.txt|MMI|1.90|Gender|C0079399|[orga]|"sex"-text-24-"Sex"-NN-0|text|83/3|x.x.x.x|
0445.txt|MMI|1.90|Helping Behavior|C0018896|[socb]|"Assistance"-text-0-"assistance"-NN-0|text|4029/10|F01.145.813.225|
0445.txt|MMI|1.90|Hyperglycemia|C0020456|[dsyn]|"Elevated Blood Glucose"-text-6-"elevated blood glucose"-JJ-0|text|4909/22|C18.452.394.952|
0445.txt|MMI|1.90|Nicotiana tabacum|C0740009|[plnt]|"Tobacco"-text-50-"tobacco"-NN-0|text|966/7|x.x.x.x|
0445.txt|MMI|1.90|Principal Component Analysis|C0429865|[qnco]|"PCA"-text-12-"PCA"-NNP-0|text|3870/3|E05.318.740.562|
0445.txt|MMI|1.90|Rectal Diseases|C0034882|[dsyn]|"Rectum"-text-4-"rectum"-NN-0|text|5029/6|C06.405.469.860|
0445.txt|MMI|1.90|Tracheal Extubation|C0553891|[topp]|"Extubated"-text-0-"extubated"-VBN-0|text|3344/9|x.x.x.x|
0445.txt|MMI|1.90|Tylenol|C0699142|[orch, phsu]|"Tylenol"-text-0-"Tylenol"-NNP-0|text|4856/7|x.x.x.x|
0445.txt|MMI|1.90|Unasyn|C0147814|[antb, orch]|"Unasyn"-text-18-"Unasyn"-NNP-0|text|3467/6|x.x.x.x|
0445.txt|MMI|1.90|Uterine Myomectomy|C0195309|[topp]|"Uterine Myomectomy"-text-40-"uterine myomectomy"-NN-0|text|922/18|E04.950.300.941|
0445.txt|MMI|1.88|Caucasoid Race|C0007457|[popg]|"White"-text-0-"white"-JJ-0|text|9818/5|x.x.x.x|
0445.txt|MMI|1.88|Diet|C0012155|[food]|"Diet"-text-0-"diet"-NN-0|text|4946/4|G07.203.650.240|
0445.txt|MMI|1.57|Advanced phase|C0205179|[qlco]|"Advanced"-text-0-"advanced"-VBN-0,"Advanced"-text-0-"advanced"-VBN-0,"Advanced"-text-0-"advanced"-VBN-0|text|4056/8;4763/8;4955/8||
0445.txt|MMI|1.57|Body Fluid Discharge|C0012621|[bdsu]|"Drainage"-text-0-"drainage"-NN-0,"Drainage"-text-0-"drainage"-NN-0,"Drainage"-text-0-"drainage"-NN-0|text|4136/8;4427/8;9753/8||
0445.txt|MMI|1.57|Clear|C2963144|[qlco]|"Clear"-text-8-"clear"-JJ-0,"Clear"-text-0-"clear"-JJ-0,"Clear"-text-0-"clear"-JJ-0|text|1294/5;4775/5;9747/5||
0445.txt|MMI|1.57|Discharge, body substance|C2926602|[sosy]|"Drainage"-text-0-"drainage"-NN-0,"Drainage"-text-0-"drainage"-NN-0,"Drainage"-text-0-"drainage"-NN-0|text|4136/8;4427/8;9753/8||
0445.txt|MMI|1.57|Drainage procedure|C0013103|[topp]|"Drainage"-text-0-"drainage"-NN-0,"Drainage"-text-0-"drainage"-NN-0,"Drainage"-text-0-"drainage"-NN-0|text|4136/8;4427/8;9753/8||
0445.txt|MMI|1.57|Epidermal cGVHD Score 0|C4761489|[inpr]|"Clear"-text-8-"clear"-JJ-0,"Clear"-text-0-"clear"-JJ-0,"Clear"-text-0-"clear"-JJ-0|text|1294/5;4775/5;9747/5||
0445.txt|MMI|1.57|HADH gene|C1415458|[gngm]|"HAD"-text-0-"had"-VBD-0,"HAD"-text-0-"had"-VBD-0,"HAD"-text-2-"had"-VBD-0|text|4171/3;5007/3;5079/3||
0445.txt|MMI|1.57|Liquid substance|C0302908|[sbst]|"fluids"-text-0-"fluids"-NNS-0,"fluid"-text-0-"fluid"-NN-0,"liquids"-text-0-"liquids"-NNS-0|text|3408/6;3618/5;4781/7||
0445.txt|MMI|1.57|Medications|C4284232|[inpr]|"Medications"-text-0-"Medications"-NNS-0,"Medications"-text-0-"medications"-NNS-0,"Medication"-text-0-"medication"-NN-0|text|10002/11;10033/11;10160/10||
0445.txt|MMI|1.57|Placement action|C1533810|[hlca]|"Placed"-text-6-"placed"-VBN-0,"Placed"-text-12-"placed"-VBN-0,"Place"-text-0-"place"-NN-0|text|3851/6;4308/6;9855/5||
0445.txt|MMI|1.57|Regulatory Report|C3273238|[inpr]|"Report"-text-0-"report"-NN-0,"Report"-text-2-"report"-NN-0,"Report"-text-14-"Report"-NNP-0|text|2781/6;3315/6;10712/6||
0445.txt|MMI|1.57|Remote control command - Clear|C1550016|[idcn]|"Clear"-text-8-"clear"-JJ-0,"Clear"-text-0-"clear"-JJ-0,"Clear"-text-0-"clear"-JJ-0|text|1294/5;4775/5;9747/5||
0445.txt|MMI|1.57|Report (document)|C0684224|[inpr]|"Report"-text-0-"report"-NN-0,"Report"-text-2-"report"-NN-0,"Report"-text-14-"Report"-NNP-0|text|2781/6;3315/6;10712/6||
0445.txt|MMI|1.57|Report:Finding:Point in time:{Setting}:Document:{Role}|C4255046|[clna]|"Report"-text-0-"report"-NN-0,"Report"-text-2-"report"-NN-0,"Report"-text-14-"Report"-NNP-0|text|2781/6;3315/6;10712/6||
0445.txt|MMI|1.57|Reporting|C0700287|[hlca]|"report"-text-0-"report"-NN-0,"report"-text-2-"report"-NN-0,"report"-text-14-"Report"-NNP-0|text|2781/6;3315/6;10712/6||
0445.txt|MMI|1.57|Return to (contextual qualifier) (qualifier value)|C0332156|[qlco]|"Returned"-text-0-"returned"-VBD-0,"Returned"-text-0-"returned"-VBD-0,"Return"-text-0-"return"-VB-0|text|3504/8;4354/8;5279/6||
0445.txt|MMI|1.57|follow-up|C1522577|[hlca]|"Follow Up"-text-0-"follow up"-VBP-0,"Follow Up"-text-12-"follow up"-VBP-0,"Followup"-text-0-"Followup"-NN-0|text|5202/9;9961/9;10239/8||
0445.txt|MMI|1.51|Administration Method - Pain|C1549543|[ftcn]|"Pain"-text-0-"pain"-NN-0,"Pain"-text-0-"pain"-NN-0,"Pain"-text-0-"pain"-NN-0|text|3810/4;4828/4;10155/4||
0445.txt|MMI|1.51|Adverse Event Associated with Pain|C1557397|[fndg]|"PAIN"-text-0-"pain"-NN-0,"PAIN"-text-0-"pain"-NN-0,"PAIN"-text-0-"pain"-NN-0|text|3810/4;4828/4;10155/4||
0445.txt|MMI|1.51|Feel Pain|C4554132|[inpr]|"Pain"-text-0-"pain"-NN-0,"Pain"-text-0-"pain"-NN-0,"Pain"-text-0-"pain"-NN-0|text|3810/4;4828/4;10155/4||
0445.txt|MMI|1.51|Frequency of Pain Question|C0518090|[inpr]|"Pain"-text-0-"pain"-NN-0,"Pain"-text-0-"pain"-NN-0,"Pain"-text-0-"pain"-NN-0|text|3810/4;4828/4;10155/4||
0445.txt|MMI|1.51|Have Pain|C2984058|[inpr]|"Pain"-text-0-"pain"-NN-0,"Pain"-text-0-"pain"-NN-0,"Pain"-text-0-"pain"-NN-0|text|3810/4;4828/4;10155/4||
0445.txt|MMI|1.51|How Much Distress Pain|C4085212|[inpr]|"Pain"-text-0-"pain"-NN-0,"Pain"-text-0-"pain"-NN-0,"Pain"-text-0-"pain"-NN-0|text|3810/4;4828/4;10155/4||
0445.txt|MMI|1.51|Pain Distress Question|C4085211|[inpr]|"Pain"-text-0-"pain"-NN-0,"Pain"-text-0-"pain"-NN-0,"Pain"-text-0-"pain"-NN-0|text|3810/4;4828/4;10155/4||
0445.txt|MMI|1.51|Pain by Anatomic Descriptor, CTCAE|C1882272|[fndg]|"Pain"-text-0-"pain"-NN-0,"Pain"-text-0-"pain"-NN-0,"Pain"-text-0-"pain"-NN-0|text|3810/4;4828/4;10155/4||
0445.txt|MMI|1.51|Pain, CTCAE|C4553004|[fndg]|"Pain"-text-0-"pain"-NN-0,"Pain"-text-0-"pain"-NN-0,"Pain"-text-0-"pain"-NN-0|text|3810/4;4828/4;10155/4||
0445.txt|MMI|1.51|Pain:-:Point in time:^Patient:-|C2598155|[clna]|"Pain"-text-0-"pain"-NN-0,"Pain"-text-0-"pain"-NN-0,"Pain"-text-0-"pain"-NN-0|text|3810/4;4828/4;10155/4||
0445.txt|MMI|1.51|Usual Severity Pain|C4085210|[inpr]|"Pain"-text-0-"pain"-NN-0,"Pain"-text-0-"pain"-NN-0,"Pain"-text-0-"pain"-NN-0|text|3810/4;4828/4;10155/4||
0445.txt|MMI|1.44|Abdomen|C0000726|[blor]|"Abdomen"-text-2-"Abdomen"-NNP-0|text|1415/7|A01.923.047|
0445.txt|MMI|1.44|Anemia|C0002871|[dsyn]|"Anemia"-text-12-"anemia"-NN-0|text|848/6|C15.378.071|
0445.txt|MMI|1.44|Arthritis|C0003864|[dsyn]|"Arthritis"-text-8-"arthritis"-NN-0|text|825/9|C05.550.114|
0445.txt|MMI|1.44|Cataract|C0086543|[acab]|"Cataracts"-text-26-"cataracts"-NNS-0|text|896/9|C11.510.245|
0445.txt|MMI|1.44|Chest|C0817096|[blor]|"Chest"-text-0-"Chest"-NNP-0|text|1272/5|A01.923.761|
0445.txt|MMI|1.44|Cholelithiasis|C0008350|[dsyn]|"Cholelithiasis"-text-14-"cholelithiasis"-NN-0|text|855/14|C06.130.409|
0445.txt|MMI|1.44|Disease|C0012634|[dsyn]|"condition"-text-4-"condition"-NN-0|text|5178/9|C23.550.288|
0445.txt|MMI|1.44|Gallbladder|C0016976|[bpoc]|"Gallbladder"-text-0-"Gallbladder"-NNP-0|text|3056/11|A03.159.439|
0445.txt|MMI|1.44|Intestines|C0021853|[bpoc]|"Bowel"-text-0-"bowel"-NN-0|text|5061/5|A03.556.124|
0445.txt|MMI|1.44|Lifting|C0206244|[acty]|"Lifting"-text-0-"lifting"-NN-0|text|9921/7|G01.374.669|
0445.txt|MMI|1.44|Patient-Controlled Analgesia|C0078944|[topp]|"PCA"-text-12-"PCA"-NNP-0|text|3870/3|E03.091.120|
0445.txt|MMI|1.44|Peripheral Vascular Diseases|C0085096|[dsyn]|"pvd"-text-4-"pvd"-NN-0|text|815/3|C14.907.617|
0445.txt|MMI|1.44|Physical Examination|C0031809|[hlca]|"Physical Exam"-text-0-"Physical Exam"-JJ-0|text|1140/13|E01.370.600|
0445.txt|MMI|1.44|Sex Behavior|C0036864|[bhvr]|"Sex"-text-24-"Sex"-NN-0|text|83/3|F01.145.802|
0445.txt|MMI|1.44|Sphincterotomy|C0748895|[topp]|"Sphincterotomy"-text-0-"sphincterotomy"-NN-0|text|4257/14|E04.515.750|
0445.txt|MMI|1.44|Urination|C0042034|[orgf]|"void"-text-0-"void"-VB-0|text|4660/4|G08.852.880|
0445.txt|MMI|1.44|sex|C1522384|[orga]|"sex"-text-24-"Sex"-NN-0|text|83/3|G08.686.810|
0445.txt|MMI|1.05|Act Class - procedure|C1546467|[ocac]|"procedure"-text-0-"procedure"-NN-0,"procedure"-text-0-"procedure"-NN-0|text|3291/9;4335/9||
0445.txt|MMI|1.05|Address type - Home|C1549632|[idcn]|"Home"-text-0-"home"-NN-0,"Home"-text-0-"home"-NN-0|text|4870/4;10028/4||
0445.txt|MMI|1.05|Biliary Stent Devices|C0183512|[medd]|"Biliary stent"-text-8-"biliary stent"-JJ-0,"Biliary stent"-text-16-"biliary stent"-NN-0|text|4290/13;10525/13||
0445.txt|MMI|1.05|CATHETER, FOLEY|C0179804|[medd]|"Foley catheter"-text-2-"foley catheter"-NN-0,"Foley catheter"-text-8-"foley catheter"-IN-0|text|3417/14;4086/14||
0445.txt|MMI|1.05|CDISC SDTM Procedure Terminology|C3539779|[inpr]|"Procedure"-text-0-"procedure"-NN-0,"Procedure"-text-0-"procedure"-NN-0|text|3291/9;4335/9||
0445.txt|MMI|1.05|Consent Type - ERCP|C1548852|[hlca]|"ERCP"-text-0-"ERCP"-NNP-0,"ERCP"-text-0-"ERCP"-NNP-0|text|2776/4;4246/4||
0445.txt|MMI|1.05|Constipation, CTCAE|C1963087|[fndg]|"Constipation"-text-16-"constipation"-NN-1,"Constipation"-text-16-"constipation"-NN-0|text|5119/12;10122/12||
0445.txt|MMI|1.05|Entity Name Part Type - given|C1550718|[idcn]|"given"-text-0-"given"-VBN-0,"given"-text-0-"given"-VBN-0|text|3723/5;10149/5||
0445.txt|MMI|1.05|Follow-Up Information|C4745114|[inpr]|"Follow Up"-text-0-"follow up"-VBP-0,"Follow Up"-text-12-"follow up"-VBP-0|text|5202/9;9961/9||
0445.txt|MMI|1.05|Follow-up status|C0589120|[fndg]|"follow up"-text-0-"follow up"-VBP-0,"follow up"-text-12-"follow up"-VBP-0|text|5202/9;9961/9||
0445.txt|MMI|1.05|GIVEN|C1442162|[ftcn]|"GIVEN"-text-0-"given"-VBN-0,"GIVEN"-text-0-"given"-VBN-0|text|3723/5;10149/5||
0445.txt|MMI|1.05|Gender Status - Intact|C1554187|[fndg]|"Intact"-text-26-"intact"-JJ-1,"Intact"-text-0-"intact"-JJ-0|text|1593/6;4399/6||
0445.txt|MMI|1.05|General surgery specialty|C1274039|[bmod]|"Surgery"-text-34-"SURGERY"-NNP-0,"Surgery"-text-32-"surgery"-NN-0|text|101/7;910/7||
0445.txt|MMI|1.05|Give - dosing instruction imperative|C1947971|[ftcn]|"Given"-text-0-"given"-VBN-0,"Given"-text-0-"given"-VBN-0|text|3723/5;10149/5||
0445.txt|MMI|1.05|Given name|C3244317|[inpr]|"given"-text-0-"given"-VBN-0,"given"-text-0-"given"-VBN-0|text|3723/5;10149/5||
0445.txt|MMI|1.05|Have Constipation|C3641755|[inpr]|"Constipation"-text-16-"constipation"-NN-1,"Constipation"-text-16-"constipation"-NN-0|text|5119/12;10122/12||
0445.txt|MMI|1.05|Home environment|C0442519|[spco]|"Home"-text-0-"home"-NN-0,"Home"-text-0-"home"-NN-0|text|4870/4;10028/4||
0445.txt|MMI|1.05|How Much Distress Constipation|C4084723|[inpr]|"Constipation"-text-16-"constipation"-NN-1,"Constipation"-text-16-"constipation"-NN-0|text|5119/12;10122/12||
0445.txt|MMI|1.05|How Often Constipation|C4084722|[inpr]|"Constipation"-text-16-"constipation"-NN-1,"Constipation"-text-16-"constipation"-NN-0|text|5119/12;10122/12||
0445.txt|MMI|1.05|INS gene|C1337112|[gngm]|"INSULIN"-text-0-"insulin"-NN-0,"INSULIN"-text-0-"insulin"-NN-0|text|798/7;7097/7||
0445.txt|MMI|1.05|INS protein, human|C4721402|[horm, aapp]|"Insulin"-text-0-"insulin"-NN-0,"Insulin"-text-0-"insulin"-NN-0|text|798/7;7097/7||
0445.txt|MMI|1.05|Insulin Drug Class|C3714501|[horm, phsu]|"INSULIN"-text-0-"insulin"-NN-0,"INSULIN"-text-0-"insulin"-NN-0|text|798/7;7097/7||
0445.txt|MMI|1.05|Insulin [EPC]|C1579433|[phsu]|"Insulin"-text-0-"insulin"-NN-0,"Insulin"-text-0-"insulin"-NN-0|text|798/7;7097/7||
0445.txt|MMI|1.05|Insulin measurement|C0202098|[lbpr]|"Insulin"-text-0-"insulin"-NN-0,"Insulin"-text-0-"insulin"-NN-0|text|798/7;7097/7||
0445.txt|MMI|1.05|Intact|C0205266|[qlco]|"Intact"-text-26-"intact"-JJ-1,"Intact"-text-0-"intact"-JJ-0|text|1593/6;4399/6||
0445.txt|MMI|1.05|Interventional procedure|C0184661|[topp]|"Procedure"-text-0-"procedure"-NN-0,"Procedure"-text-0-"procedure"-NN-0|text|3291/9;4335/9||
0445.txt|MMI|1.05|Level of Care - Surgery|C1547138|[idcn]|"Surgery"-text-34-"SURGERY"-NNP-0,"Surgery"-text-32-"surgery"-NN-0|text|101/7;910/7||
0445.txt|MMI|1.05|Medications:-:Point in time:^Patient:-|C2598133|[clna]|"Medications"-text-0-"Medications"-NNS-0,"Medications"-text-0-"medications"-NNS-0|text|10002/11;10033/11||
0445.txt|MMI|1.05|Medications:Presence or Identity:Duration of the study:^Patient:Nominal|C0802604|[clna]|"Medications"-text-0-"Medications"-NNS-0,"Medications"-text-0-"medications"-NNS-0|text|10002/11;10033/11||
0445.txt|MMI|1.05|Month of May|C3812381|[tmco]|"May"-text-0-"may"-MD-0,"May"-text-0-"may"-MD-0|text|9722/3;10177/3||
0445.txt|MMI|1.05|NPO - Nothing by mouth|C0419179|[topp]|"NPO"-text-0-"NPO"-NNP-0,"NPO"-text-0-"NPO"-NNP-0|text|3396/3;4223/3||
0445.txt|MMI|1.05|Notable|C4288581|[qlco]|"Noted"-text-0-"noted"-VBN-0,"Noted"-text-0-"noted"-VBN-0|text|3554/5;4149/5||
0445.txt|MMI|1.05|Operative Surgical Procedures|C0543467|[topp]|"Surgery"-text-34-"SURGERY"-NNP-0,"Surgery"-text-32-"surgery"-NN-0|text|101/7;910/7|E04|
0445.txt|MMI|1.05|Organization unit type - Home|C1547197|[orgt]|"Home"-text-0-"home"-NN-0,"Home"-text-0-"home"-NN-0|text|4870/4;10028/4||
0445.txt|MMI|1.05|Person location type - Home|C1548530|[spco]|"Home"-text-0-"home"-NN-0,"Home"-text-0-"home"-NN-0|text|4870/4;10028/4||
0445.txt|MMI|1.05|Pharmaceutical Strength|C1705922|[qnco]|"Strength"-text-0-"strength"-NN-0,"Strength"-text-0-"strength"-NN-0|text|1534/8;3776/8||
0445.txt|MMI|1.05|Physical Medical Procedure|C3274430|[hlca]|"PROCEDURE"-text-0-"procedure"-NN-0,"PROCEDURE"-text-0-"procedure"-NN-0|text|3291/9;4335/9||
0445.txt|MMI|1.05|Physical Strength|C0237897|[qnco]|"Strength"-text-0-"strength"-NN-0,"Strength"-text-0-"strength"-NN-0|text|1534/8;3776/8||
0445.txt|MMI|1.05|Post|C0687676|[tmco]|"After"-text-0-"after"-IN-0,"After"-text-10-"after"-IN-0|text|625/5;4496/5||
0445.txt|MMI|1.05|Procedure (set of actions)|C2700391|[ftcn]|"Procedure"-text-0-"procedure"-NN-0,"Procedure"-text-0-"procedure"-NN-0|text|3291/9;4335/9||
0445.txt|MMI|1.05|Procedure:Type:Point in time:^Patient:Narrative|C0945766|[clna]|"Procedure"-text-0-"procedure"-NN-0,"Procedure"-text-0-"procedure"-NN-0|text|3291/9;4335/9||
0445.txt|MMI|1.05|Quantity Final Containers Returned|C3714905|[qnco]|"Returned"-text-0-"returned"-VBD-0,"Returned"-text-0-"returned"-VBD-0|text|3504/8;4354/8||
0445.txt|MMI|1.05|Regimen - CHV concept|C2945654|[inpr]|"regimen"-text-0-"regimen"-NN-0,"regimen"-text-0-"regimen"-NN-0|text|4875/7;5067/7||
0445.txt|MMI|1.05|Revealed|C0443289|[qlco]|"Revealed"-text-0-"revealed"-VBD-0,"Revealed"-text-22-"revealed"-VBN-0|text|3080/8;4532/8||
0445.txt|MMI|1.05|STRENGTH (attribute)|C0808080|[idcn]|"strength"-text-0-"strength"-NN-0,"strength"-text-0-"strength"-NN-0|text|1534/8;3776/8||
0445.txt|MMI|1.05|Status post|C0231290|[tmco]|"After"-text-0-"after"-IN-0,"After"-text-10-"after"-IN-0|text|625/5;4496/5||
0445.txt|MMI|1.05|Straight|C0445291|[spco]|"Straight"-text-6-"straight"-RB-0,"Straight"-text-0-"straight"-JJ-0|text|4480/8;4728/8||
0445.txt|MMI|1.05|Surgery specialty|C0038894|[bmod]|"Surgery"-text-34-"SURGERY"-NNP-0,"Surgery"-text-32-"surgery"-NN-0|text|101/7;910/7||
0445.txt|MMI|1.05|Surgical aspects|C0038895|[ftcn]|"surgery"-text-34-"SURGERY"-NNP-0,"surgery"-text-32-"surgery"-NN-0|text|101/7;910/7||
0445.txt|MMI|1.05|Tablet (unit of presentation)|C4319774|[qnco]|"Tablet"-text-0-"Tablet"-NN-0,"Tablet"-text-14-"Tablet"-NN-0|text|5370/6;5393/6||
0445.txt|MMI|1.05|Tablet Dosage Form|C0039225|[bodm]|"Tablet"-text-0-"Tablet"-NN-0,"Tablet"-text-14-"Tablet"-NN-0|text|5370/6;5393/6||
0445.txt|MMI|1.05|Tablet Dosage Form Category|C4722631|[bodm]|"Tablet"-text-0-"Tablet"-NN-0,"Tablet"-text-14-"Tablet"-NN-0|text|5370/6;5393/6||
0445.txt|MMI|1.05|Tablet Dosing Unit|C1705223|[qnco]|"Tablet"-text-0-"Tablet"-NN-0,"Tablet"-text-14-"Tablet"-NN-0|text|5370/6;5393/6||
0445.txt|MMI|1.05|Taken|C1883727|[cnce]|"Taken"-text-0-"taken"-VBN-0,"Taken"-text-0-"taken"-VBN-0|text|3213/5;4237/5||
0445.txt|MMI|1.05|Therapeutic Insulin|C1533581|[horm, aapp, phsu]|"Insulin"-text-0-"insulin"-NN-0,"Insulin"-text-0-"insulin"-NN-0|text|798/7;7097/7||
0445.txt|MMI|1.05|Usual Severity Constipation|C4084724|[inpr]|"Constipation"-text-16-"constipation"-NN-1,"Constipation"-text-16-"constipation"-NN-0|text|5119/12;10122/12||
0445.txt|MMI|1.05|Visit User Code - Home|C1548341|[inpr]|"Home"-text-0-"home"-NN-0,"Home"-text-0-"home"-NN-0|text|4870/4;10028/4||
0445.txt|MMI|1.05|Without|C0332288|[qlco]|"Without"-text-64-"without"-IN-0,"Without"-text-0-"without"-IN-0|text|1011/7;4795/7||
0445.txt|MMI|1.05|home health encounter|C1553498|[hlca]|"Home"-text-0-"home"-NN-0,"Home"-text-0-"home"-NN-0|text|4870/4;10028/4||
0445.txt|MMI|1.05|insulin activity|C1145751|[moft]|"insulin"-text-0-"insulin"-NN-0,"insulin"-text-0-"insulin"-NN-0|text|798/7;7097/7||
0445.txt|MMI|1.05|week|C0439230|[tmco]|"Weeks"-text-0-"weeks"-NNS-0,"Weeks"-text-22-"weeks"-NNS-0|text|5291/5;10544/5||
0445.txt|MMI|1.01|Abdominal Pain, CTCAE 5|C4554323|[fndg]|"Abdominal pain"-text-32-"abdominal pain"-JJ-0,"Abdominal pain"-text-0-"abdominal pain"-JJ-0|text|3039/14;4185/14||
0445.txt|MMI|1.01|Abnormal mental state|C0278061|[mobd]|"Altered mental status"-text-12-"altered mental status"-VBN-0,"Altered mental status"-text-18-"altered mental status"-VBN-0|text|544/21;2986/21||
0445.txt|MMI|1.01|RUQ - Right upper quadrant|C0439734|[spco]|"Right upper quadrant"-text-0-"right upper quadrant"-JJ-0,"Right upper quadrant"-text-28-"right upper quadrant"-JJ-0|text|1449/20;3018/20||
0445.txt|MMI|1.01|Regular|C0205272|[qlco]|"Regular"-text-20-"Regular"-JJ-0,"Regular"-text-2-"regular"-JJ-0|text|1345/7;4967/7||
0445.txt|MMI|1.01|Structure of right upper quadrant of abdomen|C0230177|[blor]|"Right Upper Quadrant"-text-0-"right upper quadrant"-JJ-0,"Right Upper Quadrant"-text-28-"right upper quadrant"-JJ-0|text|1449/20;3018/20||
0445.txt|MMI|0.98|Automobile Driving|C0004379|[dora]|"Driving"-text-0-"driving"-NN-0|text|10202/7|I03.125|
0445.txt|MMI|0.98|Body Fluids|C0005889|[bdsu]|"FLUID"-text-0-"fluid"-NN-0|text|3618/5|A12.207|
0445.txt|MMI|0.98|Engineering|C0014279|[ocdi]|"Engineer"-text-70-"engineer"-NN-0|text|1032/8|J01.293|
0445.txt|MMI|0.98|Head|C0018670|[blor]|"Head"-text-0-"Head"-JJ-0|text|1245/4|A01.456|
0445.txt|MMI|0.98|Hypersensitivity|C0020517|[patf]|"Allergies"-text-36-"Allergies"-NNP-0|text|109/9|C20.543|
0445.txt|MMI|0.98|Patients|C0030705|[podg]|"Patient"-text-40-"Patient"-NNP-0|text|121/7|M01.643|
0445.txt|MMI|0.72|Admission date:Time Stamp -- Date and Time:Point in time:^Patient:Quantitative|C2598112|[clna]|"Admission date"-text-0-"Admission Date"-NNP-0|text|0/14||
0445.txt|MMI|0.72|Date of admission|C1302393|[tmco]|"Admission date"-text-0-"Admission Date"-NNP-0|text|0/14||
0445.txt|MMI|0.52|ACOD1 gene|C2239547|[gngm]|"CAD"-text-0-"cad"-NN-1|text|1136/3||
0445.txt|MMI|0.52|ACP2 gene|C1412132|[gngm]|"LAP"-text-8-"lap"-NN-0|text|3233/3||
0445.txt|MMI|0.52|ARID1A wt Allele|C2985160|[gngm]|"hELD"-text-0-"held"-VBN-0|text|4218/4||
0445.txt|MMI|0.52|Abdominopelvic structure|C1508499|[blor]|"Abdomen"-text-2-"Abdomen"-NNP-0|text|1415/7||
0445.txt|MMI|0.52|Ability to Drive|C4050139|[inpr]|"Driving"-text-0-"driving"-NN-0|text|10202/7||
0445.txt|MMI|0.52|Able (finding)|C1299581|[fndg]|"Able"-text-0-"able"-JJ-0|text|4652/4||
0445.txt|MMI|0.52|ActInformationPrivacyReason <service>|C3245478|[idcn]|"service"-text-30-"Service"-NNP-0|text|91/7||
0445.txt|MMI|0.52|Active|C0205177|[qlco]|"Activity"-text-0-"Activity"-NNP-0|text|9901/8||
0445.txt|MMI|0.52|Activities|C0441655|[acty]|"Activity"-text-0-"Activity"-NNP-0|text|9901/8||
0445.txt|MMI|0.52|Activity (animal life circumstance)|C3668946|[fndg]|"Activity"-text-0-"Activity"-NNP-0|text|9901/8||
0445.txt|MMI|0.52|Acute - Triage Code|C1547229|[inpr]|"Acute"-text-22-"acute"-JJ-0|text|3012/5||
0445.txt|MMI|0.52|Admission Level of Care Code - Acute|C1547295|[inpr]|"Acute"-text-22-"acute"-JJ-0|text|3012/5||
0445.txt|MMI|0.52|Admission Level of Care Code - Improved|C1561611|[inpr]|"Improved"-text-0-"improved"-VBN-0|text|616/8||
0445.txt|MMI|0.52|Admission activity|C0809949|[hlca]|"Admitted"-text-0-"admitted"-VBN-0|text|2956/8||
0445.txt|MMI|0.52|Adverse Event Associated with the Gastrointestinal System|C1559265|[fndg]|"GASTROINTESTINAL"-text-0-"gastrointestinal"-JJ-0|text|10469/16||
0445.txt|MMI|0.52|All extremities|C0278454|[bpoc]|"All extremities"-text-2-"all extremities"-DT-0|text|1543/15||
0445.txt|MMI|0.52|Androgen Response Element|C1515984|[nusq]|"ARE"-text-0-"are"-VBP-0|text|5225/3||
0445.txt|MMI|0.52|Anemia, CTCAE|C4554633|[fndg]|"Anemia"-text-12-"anemia"-NN-0|text|848/6||
0445.txt|MMI|0.52|Anterior thoracic region|C1527391|[blor]|"Chest"-text-0-"Chest"-NNP-0|text|1272/5||
0445.txt|MMI|0.52|Appropriate|C1548787|[qlco]|"Appropriate"-text-0-"Appropriate"-NNP-0|text|5190/11||
0445.txt|MMI|0.52|Apyrexial|C0277797|[fndg]|"Afebrile"-text-0-"afebrile"-JJ-0|text|3704/8||
0445.txt|MMI|0.52|Arthritis, CTCAE|C4552845|[fndg]|"Arthritis"-text-8-"arthritis"-NN-0|text|825/9||
0445.txt|MMI|0.52|As needed for (qualifier value)|C1720688|[qlco]|"As needed for"-text-14-"as needed for"-IN-0|text|10108/13||
0445.txt|MMI|0.52|Assisted (qualifier value)|C1269765|[qlco]|"Assistance"-text-0-"assistance"-NN-0|text|4029/10||
0445.txt|MMI|0.52|At home|C4534363|[fndg]|"At home"-text-4-"at home"-IN-0|text|531/7||
0445.txt|MMI|0.52|Attending (action)|C1999232|[ftcn]|"attending"-text-58-"Attending"-NNP-0|text|176/9||
0445.txt|MMI|0.52|Attending (provider role)|C1547429|[prog]|"Attending"-text-58-"Attending"-NNP-0|text|176/9||
0445.txt|MMI|0.52|Autumn|C0238715|[tmco]|"Fall"-text-10-"fall"-VB-0|text|9877/4||
0445.txt|MMI|0.52|B4GALNT2 gene|C1428349|[gngm]|"Cad"-text-0-"cad"-NN-1|text|1136/3||
0445.txt|MMI|0.52|BRIEF Health Literacy Screening Tool|C4724718|[inpr]|"BRIEF"-text-0-"Brief"-NNP-0|text|2919/5||
0445.txt|MMI|0.52|Barrow Eskimos|C1551802|[popg]|"Barrow"-text-4-"Barrow"-NNP-0|text|10498/6||
0445.txt|MMI|0.52|Bathing|C0150141|[topp]|"Baths"-text-0-"baths"-NNS-0|text|9698/5||
0445.txt|MMI|0.52|Baths (medical device)|C0175640|[medd]|"baths"-text-0-"baths"-NNS-0|text|9698/5||
0445.txt|MMI|0.52|Behavior Rating Inventory of Executive Function|C4050216|[inpr]|"BRIEF"-text-0-"Brief"-NNP-0|text|2919/5||
0445.txt|MMI|0.52|Better|C0332272|[qlco]|"Improved"-text-0-"improved"-VBN-0|text|616/8||
0445.txt|MMI|0.52|Bilateral cataracts (disorder)|C0521707|[dsyn]|"Cataracts"-text-26-"cataracts"-NNS-0|text|896/9||
0445.txt|MMI|0.52|Blood glucose increased|C0595877|[fndg]|"elevated blood glucose"-text-6-"elevated blood glucose"-JJ-0|text|4909/22||
0445.txt|MMI|0.52|Body Fluids and Substances|C1521806|[tisu]|"Fluids"-text-0-"fluids"-NNS-0|text|3408/6||
0445.txt|MMI|0.52|Body Parts - Cannula|C1550232|[bpoc]|"Cannula"-text-0-"cannula"-NN-0|text|639/7||
0445.txt|MMI|0.52|Brief|C1879313|[tmco]|"Brief"-text-0-"Brief"-NNP-0|text|2919/5||
0445.txt|MMI|0.52|Brother - courtesy title|C1704648|[cnce]|"Brother"-text-82-"brother"-NN-0|text|1065/7||
0445.txt|MMI|0.52|CAD gene|C1413078|[gngm]|"CAD"-text-0-"cad"-NN-1|text|1136/3||
0445.txt|MMI|0.52|CALD1 wt Allele|C3813548|[gngm]|"CAD"-text-0-"cad"-NN-1|text|1136/3||
0445.txt|MMI|0.52|CANE, INCLUDES CANES OF ALL MATERIALS, ADJUSTABLE OR FIXED, WITH TIP|C0006856|[medd]|"Cane"-text-66-"cane"-NN-1|text|1019/4||
0445.txt|MMI|0.52|CASP1 gene|C1366479|[gngm]|"ICE"-text-0-"ice"-NN-0|text|3729/3||
0445.txt|MMI|0.52|CASP1 wt Allele|C1705786|[gngm]|"ICE"-text-0-"ice"-NN-0|text|3729/3||
0445.txt|MMI|0.52|CCS gene|C1413192|[gngm]|"CCS"-text-28-"ccs"-NNS-0|text|4547/3||
0445.txt|MMI|0.52|CDISC SDTM Sex of Individual Terminology|C1879943|[inpr]|"SEX"-text-24-"Sex"-NN-0|text|83/3||
0445.txt|MMI|0.52|CEBPB gene|C1413323|[gngm]|"LAP"-text-8-"lap"-NN-0|text|3233/3||
0445.txt|MMI|0.52|CEBPB wt Allele|C3540509|[gngm]|"LAP"-text-8-"lap"-NN-0|text|3233/3||
0445.txt|MMI|0.52|CENPJ gene|C1424863|[gngm]|"LAP"-text-8-"lap"-NN-0|text|3233/3||
0445.txt|MMI|0.52|CES2 gene|C1413348|[gngm]|"iCE"-text-0-"ice"-NN-0|text|3729/3||
0445.txt|MMI|0.52|CES2 wt Allele|C3889432|[gngm]|"ICE"-text-0-"ice"-NN-0|text|3729/3||
0445.txt|MMI|0.52|Caddo language|C0574547|[lang]|"CAD"-text-0-"cad"-NN-1|text|1136/3||
0445.txt|MMI|0.52|Cane - plant part|C2700631|[plnt]|"Cane"-text-66-"cane"-NN-1|text|1019/4||
0445.txt|MMI|0.52|Cane Usually Used|C4321238|[fndg]|"Cane"-text-66-"cane"-NN-1|text|1019/4||
0445.txt|MMI|0.52|Cannula <eukaryote>|C3463845|[euka]|"Cannula"-text-0-"cannula"-NN-0|text|639/7||
0445.txt|MMI|0.52|Cannula device|C0520453|[medd]|"Cannula"-text-0-"cannula"-NN-0|text|639/7||
0445.txt|MMI|0.52|Caspase-1, human|C4721557|[enzy, aapp]|"ICE"-text-0-"ice"-NN-0|text|3729/3||
0445.txt|MMI|0.52|Chief complaint (finding)|C0277786|[fndg]|"complaints"-text-1-"complaints"-NNS-0|text|4602/10||
0445.txt|MMI|0.52|Clinical Classifications Software|C1140228|[inpr]|"ccs"-text-28-"ccs"-NNS-0|text|4547/3||
0445.txt|MMI|0.52|Collision-Induced Dissociation|C1707433|[resa]|"CAD"-text-0-"cad"-NN-1|text|1136/3||
0445.txt|MMI|0.52|Condition|C0348080|[qlco]|"Condition"-text-4-"condition"-NN-0|text|5178/9||
0445.txt|MMI|0.52|Condition Domain|C4722256|[inpr]|"CONDITION"-text-4-"condition"-NN-0|text|5178/9||
0445.txt|MMI|0.52|Condition:Find:Pt:^Patient:Nom|C3864998|[clna]|"Condition"-text-4-"condition"-NN-0|text|5178/9||
0445.txt|MMI|0.52|Congenital laryngeal adductor palsy|C0396060|[dsyn]|"LAP"-text-8-"lap"-NN-0|text|3233/3||
0445.txt|MMI|0.52|Continuous|C0549178|[idcn]|"Continued"-text-0-"continued"-VBD-0|text|4574/9||
0445.txt|MMI|0.52|Controlled by|C0332298|[ftcn]|"Controlled by"-text-0-"controlled by"-VBN-0|text|4842/13||
0445.txt|MMI|0.52|Cover (physical object)|C3888055|[mnob]|"Cover"-text-4-"cover"-NN-0|text|9784/5||
0445.txt|MMI|0.52|Cover - action|C1999244|[ftcn]|"Cover"-text-4-"cover"-NN-0|text|9784/5||
0445.txt|MMI|0.52|Covers (device)|C0180153|[mnob]|"Cover"-text-4-"cover"-NN-0|text|9784/5||
0445.txt|MMI|0.52|Curriculum Vitae|C1880201|[inpr]|"Resume"-text-0-"Resume"-VB-0|text|10016/6||
0445.txt|MMI|0.52|DFFB gene|C1413983|[gngm]|"CAD"-text-0-"cad"-NN-1|text|1136/3||
0445.txt|MMI|0.52|DFFB wt Allele|C4284121|[gngm]|"CAD"-text-0-"cad"-NN-1|text|1136/3||
0445.txt|MMI|0.52|Daily|C0332173|[tmco]|"Day"-text-28-"day"-NN-0|text|5419/3||
0445.txt|MMI|0.52|Decreased|C0205216|[qnco]|"Decreased"-text-0-"decreased"-VBD-0|text|1623/9||
0445.txt|MMI|0.52|Decreasing|C0442797|[fndg]|"decreased"-text-0-"decreased"-VBD-0|text|1623/9||
0445.txt|MMI|0.52|Departure - action|C1706081|[acty]|"Leave"-text-0-"Leave"-VB-0|text|9812/5||
0445.txt|MMI|0.52|Details|C1522508|[qlco]|"Details"-text-6-"details"-NNS-0|text|3326/7||
0445.txt|MMI|0.52|Diagnostic Service Section ID - Physical Therapy|C1547999|[inpr]|"Physical Therapy"-text-0-"Physical therapy"-JJ-0|text|3741/16||
0445.txt|MMI|0.52|Diarrhea, CTCAE|C1963091|[fndg]|"Diarrhea"-text-12-"diarrhea"-NN-1|text|5107/8||
0445.txt|MMI|0.52|Dilated|C0700124|[fndg]|"Distended"-text-0-"distended"-JJ-0|text|3091/9||
0445.txt|MMI|0.52|Disabled Person Code - Patient|C1578486|[inpr]|"Patient"-text-40-"Patient"-NNP-0|text|121/7||
0445.txt|MMI|0.52|Discontinued|C1444662|[fndg]|"Discontinued"-text-12-"discontinued"-VBN-0|text|4105/12||
0445.txt|MMI|0.52|Disimpaction - action|C0184581|[ftcn]|"Disimpaction"-text-0-"disimpaction"-NN-0|text|4990/12||
0445.txt|MMI|0.52|Disimpaction -- treatment|C4520682|[topp]|"disimpaction"-text-0-"disimpaction"-NN-0|text|4990/12||
0445.txt|MMI|0.52|Distant|C0443203|[spco]|"Distant"-text-48-"distant"-JJ-0|text|958/7||
0445.txt|MMI|0.52|Distended|C4082695|[qlco]|"Distended"-text-0-"distended"-JJ-0|text|3091/9||
0445.txt|MMI|0.52|Do (activity)|C2828361|[acty]|"Did"-text-0-"did"-VBD-0|text|4704/3||
0445.txt|MMI|0.52|Doctor - Title|C2348314|[inpr]|"Doctor"-text-20-"doctor"-NN-0|text|9993/6||
0445.txt|MMI|0.52|Drink (dietary substance)|C0452428|[food]|"Drinks"-text-52-"drinks"-NNS-0|text|974/6||
0445.txt|MMI|0.52|Drowsiness|C0013144|[fndg]|"Drowsy"-text-6-"drowsy"-VB-0|text|10190/6||
0445.txt|MMI|0.52|Drugs - dental services|C3687832|[topp]|"Drugs"-text-56-"Drugs"-NNP-0|text|170/5||
0445.txt|MMI|0.52|Due to|C0678226|[ftcn]|"Due to"-text-12-"due to"-JJ-0|text|2979/6||
0445.txt|MMI|0.52|ENG gene|C1366583|[gngm]|"END"-text-10-"End"-NN-0|text|10705/3||
0445.txt|MMI|0.52|ENG wt Allele|C1704837|[gngm]|"END"-text-10-"End"-NN-0|text|10705/3||
0445.txt|MMI|0.52|Effect|C1280500|[qlco]|"Effect"-text-18-"effect"-NN-0|text|3884/6||
0445.txt|MMI|0.52|Effect, Appearance|C2348382|[qlco]|"Effect"-text-18-"effect"-NN-0|text|3884/6||
0445.txt|MMI|0.52|Emotional tenderness|C0684239|[menp]|"tenderness"-text-0-"tenderness"-NN-0|text|1470/10||
0445.txt|MMI|0.52|End|C0444930|[spco]|"End"-text-10-"End"-NN-0|text|10705/3||
0445.txt|MMI|0.52|Endoglin, human|C0082420|[imft, aapp]|"END"-text-10-"End"-NN-0|text|10705/3||
0445.txt|MMI|0.52|Engineer|C0878517|[prog]|"Engineer"-text-70-"engineer"-NN-0|text|1032/8||
0445.txt|MMI|0.52|Entire abdomen|C1281594|[bpoc]|"Abdomen"-text-2-"Abdomen"-NNP-0|text|1415/7||
0445.txt|MMI|0.52|Entire gallbladder|C1269001|[bpoc]|"Gallbladder"-text-0-"Gallbladder"-NNP-0|text|3056/11||
0445.txt|MMI|0.52|Entire head|C1281590|[bpoc]|"Head"-text-0-"Head"-JJ-0|text|1245/4||
0445.txt|MMI|0.52|Entire rectum|C1278926|[bpoc]|"Rectum"-text-4-"rectum"-NN-0|text|5029/6||
0445.txt|MMI|0.52|Epidermal cGVHD Score 2|C4761314|[inpr]|"Mild"-text-0-"mild"-JJ-0|text|3961/4||
0445.txt|MMI|0.52|Exam|C4284036|[ftcn]|"Exam"-text-0-"exam"-NN-0|text|4203/4||
0445.txt|MMI|0.52|Excision|C0728940|[topp]|"Removal"-text-8-"removal"-NN-0|text|10509/7||
0445.txt|MMI|0.52|Extraction|C0185115|[topp]|"REMOVAL"-text-8-"removal"-NN-0|text|10509/7||
0445.txt|MMI|0.52|FDA Establishment Activity Terminology|C4049939|[inpr]|"ACTIVITY"-text-0-"Activity"-NNP-0|text|9901/8||
0445.txt|MMI|0.52|FLVCR1 gene|C1836722|[gngm]|"PCA"-text-12-"PCA"-NNP-0|text|3870/3||
0445.txt|MMI|0.52|Fair (qualifier)|C2911689|[qlco]|"Fair"-text-16-"fair"-JJ-0|text|3879/4||
0445.txt|MMI|0.52|Fair Language Proficiency|C1547189|[qlco]|"Fair"-text-16-"fair"-JJ-0|text|3879/4||
0445.txt|MMI|0.52|Fair Specimen Quality|C1548785|[qlco]|"Fair"-text-16-"fair"-JJ-0|text|3879/4||
0445.txt|MMI|0.52|Fall, CTCAE|C4553726|[fndg]|"Fall"-text-10-"fall"-VB-0|text|9877/4||
0445.txt|MMI|0.52|Familial lichen amyloidosis|C0268398|[dsyn]|"PCA"-text-12-"PCA"-NNP-0|text|3870/3||
0445.txt|MMI|0.52|Family history|C0241889|[fndg]|"Family history"-text-0-"Family History"-NNP-0|text|1112/14||
0445.txt|MMI|0.52|Feel Drowsy|C3830162|[inpr]|"Drowsy"-text-6-"drowsy"-VB-0|text|10190/6||
0445.txt|MMI|0.52|Fenamole|C2825250|[orch, phsu]|"PAT"-text-2-"Pat"-NNP-0|text|10494/3||
0445.txt|MMI|0.52|Fluid Specimen Code|C1546638|[inpr]|"Fluid"-text-0-"fluid"-NN-0|text|3618/5||
0445.txt|MMI|0.52|Fluid behavior|C0444611|[qlco]|"Fluid"-text-0-"fluid"-NN-0|text|3618/5||
0445.txt|MMI|0.52|Fluid output.urine:Vol:Pt:Urinary tract:Qn|C0489132|[clna]|"Urine output"-text-0-"Urine output"-JJ-0|text|3893/12||
0445.txt|MMI|0.52|French fries|C1510451|[food]|"Chips"-text-2-"chips"-NNS-0|text|3733/5||
0445.txt|MMI|0.52|Frequently|C0332183|[tmco]|"Often"-text-54-"often"-RB-0|text|981/5||
0445.txt|MMI|0.52|From|C1517320|[qlco]|"From"-text-0-"from"-IN-0|text|9762/4||
0445.txt|MMI|0.52|Gallbladder (MMHCC)|C1524055|[tisu]|"Gallbladder"-text-0-"Gallbladder"-NNP-0|text|3056/11||
0445.txt|MMI|0.52|Gastrointestinal:-:Point in time:^Patient:-|C2707256|[clna]|"Gastrointestinal"-text-0-"gastrointestinal"-JJ-0|text|10469/16||
0445.txt|MMI|0.52|Gender:Type:Point in time:^Patient:Nominal|C0804628|[clna]|"Sex"-text-24-"Sex"-NN-0|text|83/3||
0445.txt|MMI|0.52|Genus Anemia|C1000483|[plnt]|"Anemia"-text-12-"anemia"-NN-0|text|848/6||
0445.txt|MMI|0.52|Geographic state|C1301808|[geoa]|"stated"-text-0-"stated"-VBD-0|text|505/6||
0445.txt|MMI|0.52|Have Diarrhea|C3641756|[inpr]|"Diarrhea"-text-12-"diarrhea"-NN-1|text|5107/8||
0445.txt|MMI|0.52|Head - Component of Device|C1706305|[mnob]|"Head"-text-0-"Head"-JJ-0|text|1245/4||
0445.txt|MMI|0.52|Heavy (qualitative concept)|C4723618|[qlco]|"Heavy"-text-0-"heavy"-JJ-0|text|9915/5||
0445.txt|MMI|0.52|Heavy (weight) (qualifier value)|C0439539|[qlco]|"Heavy"-text-0-"heavy"-JJ-0|text|9915/5||
0445.txt|MMI|0.52|Held - activity status|C1948036|[idcn]|"held"-text-0-"held"-VBN-0|text|4218/4||
0445.txt|MMI|0.52|Hospital admission|C0184666|[hlca]|"admitted"-text-0-"admitted"-VBN-0|text|2956/8||
0445.txt|MMI|0.52|Hospital course|C0489547|[fndg]|"Hospital course"-text-0-"Hospital Course"-NNP-0|text|2925/15||
0445.txt|MMI|0.52|Hospital course:Finding:Point in time:^Patient:Narrative|C0488549|[clna]|"Hospital course"-text-0-"Hospital Course"-NNP-0|text|2925/15||
0445.txt|MMI|0.52|How Much Distress Diarrhea|C4084784|[inpr]|"Diarrhea"-text-12-"diarrhea"-NN-1|text|5107/8||
0445.txt|MMI|0.52|How Often Diarrhea|C4085317|[inpr]|"Diarrhea"-text-12-"diarrhea"-NN-1|text|5107/8||
0445.txt|MMI|0.52|Hypertensive disease|C0020538|[dsyn]|"HTN"-text-0-"HTN"-NN-0|text|806/3||
0445.txt|MMI|0.52|Impression|C1998467|[qlco]|"Impression"-text-0-"IMPRESSION"-NNP-0|text|2799/10||
0445.txt|MMI|0.52|Improved|C0184511|[fndg]|"Improved"-text-0-"improved"-VBN-0|text|616/8||
0445.txt|MMI|0.52|Improved - answer to question|C4084203|[fndg]|"Improved"-text-0-"improved"-VBN-0|text|616/8||
0445.txt|MMI|0.52|In Urine|C0042037|[ftcn]|"urine"-text-30-"urine"-NN-0|text|4551/5||
0445.txt|MMI|0.52|Including (qualifier)|C0332257|[ftcn]|"Including"-text-58-"including"-VBG-0|text|989/9||
0445.txt|MMI|0.52|Increased sweating|C0700590|[fndg]|"Diaphoresis"-text-16-"diaphoresis"-NN-0|text|570/11||
0445.txt|MMI|0.52|Instruction [Publication Type]|C0302828|[inpr]|"instructions"-text-0-"Instructions"-NNS-0|text|10248/12||
0445.txt|MMI|0.52|Instructions|C1442085|[inpr]|"Instructions"-text-0-"Instructions"-NNS-0|text|10248/12||
0445.txt|MMI|0.52|Instructions:Text:Point in time:^Patient:Narrative|C3263700|[clna]|"Instructions"-text-0-"Instructions"-NNS-0|text|10248/12||
0445.txt|MMI|0.52|Intermittent|C0205267|[tmco]|"Intermittent"-text-0-"intermittent"-JJ-0|text|4589/12||
0445.txt|MMI|0.52|LAP3 gene|C1425522|[gngm]|"LAP"-text-8-"lap"-NN-0|text|3233/3||
0445.txt|MMI|0.52|Lap - unit|C4049927|[qnco]|"Lap"-text-8-"lap"-NN-0|text|3233/3||
0445.txt|MMI|0.52|Law (view)|C4554596|[spco]|"Law"-text-94-"law"-NN-0|text|1098/3||
0445.txt|MMI|0.52|Law - Document|C1947938|[inpr]|"Law"-text-94-"law"-NN-0|text|1098/3||
0445.txt|MMI|0.52|Law Profession|C1947939|[ocdi]|"Law"-text-94-"law"-NN-0|text|1098/3||
0445.txt|MMI|0.52|Left atrial pressure|C0456170|[lbtr]|"LAP"-text-8-"lap"-NN-0|text|3233/3||
0445.txt|MMI|0.52|Legal system|C0728724|[rnlw]|"law"-text-94-"law"-NN-0|text|1098/3||
0445.txt|MMI|0.52|Leucine aminopeptidase measurement|C0202118|[lbpr]|"LAP"-text-8-"lap"-NN-0|text|3233/3||
0445.txt|MMI|0.52|Leukocytosis, CTCAE|C4551513|[fndg]|"Leukocytosis"-text-0-"leukocytosis"-NN-0|text|734/12||
0445.txt|MMI|0.52|Localized|C0392752|[spco]|"Localized"-text-12-"localized"-VBD-0|text|682/9||
0445.txt|MMI|0.52|Logical Condition|C1705253|[cnce]|"Condition"-text-4-"condition"-NN-0|text|5178/9||
0445.txt|MMI|0.52|Mail Claim Party - Patient|C1578481|[idcn]|"Patient"-text-40-"Patient"-NNP-0|text|121/7||
0445.txt|MMI|0.52|Make - Instruction Imperative|C1881534|[ftcn]|"Make"-text-2-"make"-VB-0|text|10181/4||
0445.txt|MMI|0.52|Manufacturer Name|C0947322|[inpr]|"Make"-text-2-"make"-VB-0|text|10181/4||
0445.txt|MMI|0.52|Medical Examination|C0582103|[hlca]|"Exam"-text-0-"exam"-NN-0|text|4203/4||
0445.txt|MMI|0.52|Medical History|C0262926|[fndg]|"Past Medical History"-text-0-"Past Medical History"-NNP-0|text|769/20||
0445.txt|MMI|0.52|Medications on admission|C1627937|[fndg]|"Medications on admission"-text-0-"Medications on Admission"-NNS-0|text|5328/24||
0445.txt|MMI|0.52|Mental Status, CTCAE|C2004284|[fndg]|"Mental status"-text-0-"Mental status"-JJ-0|text|602/13||
0445.txt|MMI|0.52|Mental state|C0278060|[fndg]|"Mental status"-text-0-"Mental status"-JJ-0|text|602/13||
0445.txt|MMI|0.52|Mental status:Finding:Point in time:^Patient:Narrative:Observed|C0488568|[clna]|"Mental status"-text-0-"Mental status"-JJ-0|text|602/13||
0445.txt|MMI|0.52|Mental status:Finding:Point in time:^Patient:Nominal:Observed|C0488569|[clna]|"Mental status"-text-0-"Mental status"-JJ-0|text|602/13||
0445.txt|MMI|0.52|Mild (qualifier value)|C2945599|[qlco]|"Mild"-text-0-"mild"-JJ-0|text|3961/4||
0445.txt|MMI|0.52|Mild Adverse Event|C1513302|[fndg]|"MILD"-text-0-"mild"-JJ-0|text|3961/4||
0445.txt|MMI|0.52|Mild Allergy Severity|C1563320|[qlco]|"Mild"-text-0-"mild"-JJ-0|text|3961/4||
0445.txt|MMI|0.52|Mild Hallucination|C4722210|[fndg]|"Mild"-text-0-"mild"-JJ-0|text|3961/4||
0445.txt|MMI|0.52|Mild Severity of Illness Code|C1547225|[inpr]|"Mild"-text-0-"mild"-JJ-0|text|3961/4||
0445.txt|MMI|0.52|Mobility Ability|C4318935|[inpr]|"Mobility"-text-0-"mobility"-NN-0|text|3789/8||
0445.txt|MMI|0.52|Mobility as a finding|C0425245|[fndg]|"Mobility"-text-0-"mobility"-NN-0|text|3789/8||
0445.txt|MMI|0.52|Musculoskeletal|C0497254|[ftcn]|"Musculoskeletal"-text-0-"Musculoskeletal"-NNP-0|text|1512/15||
0445.txt|MMI|0.52|Musculoskeletal:-:Point in time:^Patient:-|C2707260|[clna]|"Musculoskeletal"-text-0-"Musculoskeletal"-NNP-0|text|1512/15||
0445.txt|MMI|0.52|NR4A2 gene|C1417836|[gngm]|"NOT"-text-0-"not"-RB-0|text|4708/3||
0445.txt|MMI|0.52|Negation|C1518422|[ftcn]|"Not"-text-0-"not"-RB-0|text|4708/3||
0445.txt|MMI|0.52|Nephew|C0337579|[famg]|"Nephew"-text-86-"nephew"-NN-0|text|1075/6||
0445.txt|MMI|0.52|Neurology speciality|C0027855|[bmod]|"NEURO"-text-16-"Neuro"-NNP-0|text|1575/5||
0445.txt|MMI|0.52|No known allergy|C0262580|[fndg]|"NO KNOWN ALLERGIES"-text-52-"No Known Allergies"-DT-1|text|148/18||
0445.txt|MMI|0.52|Obtain|C1301820|[ftcn]|"obtained"-text-18-"obtained"-VBN-0|text|4519/8||
0445.txt|MMI|0.52|Off|C1518543|[qlco]|"Off"-text-12-"off"-RP-0|text|9882/3||
0445.txt|MMI|0.52|Often - answer to question|C4050225|[inpr]|"Often"-text-54-"often"-RB-0|text|981/5||
0445.txt|MMI|0.52|Outcome of Therapy|C1518681|[fndg]|"effect"-text-18-"effect"-NN-0|text|3884/6||
0445.txt|MMI|0.52|Oxygen Equipment Location|C1547125|[spco]|"Oxygen"-text-0-"oxygen"-NN-0|text|647/6||
0445.txt|MMI|0.52|PCA Message Structure|C1549860|[inpr]|"PCA"-text-12-"PCA"-NNP-0|text|3870/3||
0445.txt|MMI|0.52|PICALM gene|C1423544|[gngm]|"LAP"-text-8-"lap"-NN-0|text|3233/3||
0445.txt|MMI|0.52|PICALM wt Allele|C2827449|[gngm]|"LAP"-text-8-"lap"-NN-0|text|3233/3||
0445.txt|MMI|0.52|PLXNA3 gene|C1418662|[gngm]|"SEX"-text-24-"Sex"-NN-0|text|83/3||
0445.txt|MMI|0.52|PMH - past medical history|C0455458|[fndg]|"Past medical history"-text-0-"Past Medical History"-NNP-0|text|769/20||
0445.txt|MMI|0.52|Paroxysmal atrial tachycardia|C0030587|[fndg]|"PAT"-text-2-"Pat"-NNP-0|text|10494/3||
0445.txt|MMI|0.52|Patient Condition Code - Stable|C1547311|[inpr]|"Stable"-text-2-"stable"-JJ-0|text|5171/6||
0445.txt|MMI|0.52|Patient Outcome - Worsening|C1546960|[idcn]|"Worsening"-text-0-"worsening"-VBG-0|text|4175/9||
0445.txt|MMI|0.52|Patient date of birth|C0421451|[tmco]|"Date of birth"-text-14-"Date of Birth"-NNP-0|text|56/13||
0445.txt|MMI|0.52|Pattern of Bowel Movements Question|C4083257|[inpr]|"Bowel"-text-0-"bowel"-NN-0|text|5061/5||
0445.txt|MMI|0.52|Performed|C0884358|[ftcn]|"Performed"-text-2-"performed"-VBN-0|text|4276/9||
0445.txt|MMI|0.52|Physical Activity Measurement|C4049938|[lbpr]|"Activity"-text-0-"Activity"-NNP-0|text|9901/8||
0445.txt|MMI|0.52|Physical therapy|C0949766|[topp]|"Physical therapy"-text-0-"Physical therapy"-JJ-0|text|3741/16||
0445.txt|MMI|0.52|Physical therapy (field)|C0699718|[bmod]|"Physical therapy"-text-0-"Physical therapy"-JJ-0|text|3741/16||
0445.txt|MMI|0.52|Place|C0442504|[spco]|"Place"-text-0-"place"-NN-0|text|9855/5||
0445.txt|MMI|0.52|Place - dosing instruction imperative|C1704765|[ftcn]|"Place"-text-0-"place"-NN-0|text|9855/5||
0445.txt|MMI|0.52|Pomalidomide/Bortezomib/Dexamethasone Regimen|C4521226|[topp]|"PVD"-text-4-"pvd"-NN-0|text|815/3||
0445.txt|MMI|0.52|Portion of urine|C2963137|[bdsu]|"Urine"-text-30-"urine"-NN-0|text|4551/5||
0445.txt|MMI|0.52|Possess|C3154893|[idcn]|"Have"-text-0-"have"-VB-0|text|3563/4||
0445.txt|MMI|0.52|Postoperative anesthesia care unit (PACU)|C0034871|[mnob, hcro]|"PACU"-text-0-"PACU"-NNP-0|text|3376/4||
0445.txt|MMI|0.52|Potato chips|C0349380|[food]|"chips"-text-2-"chips"-NNS-0|text|3733/5||
0445.txt|MMI|0.52|Pounds|C0439219|[qnco]|"Pounds"-text-4-"pounds"-NNS-0|text|9944/6||
0445.txt|MMI|0.52|Precision - day|C1561539|[idcn]|"day"-text-28-"day"-NN-0|text|5419/3||
0445.txt|MMI|0.52|Prescription procedure|C0033080|[hlca]|"Prescriptions"-text-4-"prescriptions"-NNS-0|text|5252/13||
0445.txt|MMI|0.52|Prescriptions:Finding:Point in time:^Patient:Narrative|C2741652|[clna]|"Prescriptions"-text-4-"prescriptions"-NNS-0|text|5252/13||
0445.txt|MMI|0.52|Present|C0150312|[fndg]|"Found"-text-0-"found"-VBN-0|text|525/5||
0445.txt|MMI|0.52|Provider|C1138603|[ftcn]|"Provider"-text-0-"Provider"-NNP-0|text|10263/8||
0445.txt|MMI|0.52|Provider Domain|C4723819|[inpr]|"PROVIDER"-text-0-"Provider"-NNP-0|text|10263/8||
0445.txt|MMI|0.52|Qualitative mobility|C0449580|[qlco]|"Mobility"-text-0-"mobility"-NN-0|text|3789/8||
0445.txt|MMI|0.52|Radiologic Impression|C4049863|[fndg]|"Impression"-text-0-"IMPRESSION"-NNP-0|text|2799/10||
0445.txt|MMI|0.52|Recommendation|C0034866|[idcn]|"Recommended"-text-0-"recommended"-VBN-0|text|5229/11||
0445.txt|MMI|0.52|Recovering from|C0521108|[qlco]|"recovered"-text-0-"recovered"-VBN-0|text|3358/9||
0445.txt|MMI|0.52|Recovery - action|C0237820|[acty]|"Recovery"-text-4-"recovery"-NN-0|text|3680/8||
0445.txt|MMI|0.52|Recovery - healing process|C2004454|[orgf]|"Recovery"-text-4-"recovery"-NN-0|text|3680/8||
0445.txt|MMI|0.52|Reduced|C0392756|[qlco]|"Decreased"-text-0-"decreased"-VBD-0|text|1623/9||
0445.txt|MMI|0.52|Rehabilitation therapy|C0034991|[topp]|"Rehab"-text-0-"rehab"-VB-0|text|5162/5||
0445.txt|MMI|0.52|Relationship - Brother|C1546493|[idcn]|"Brother"-text-82-"brother"-NN-0|text|1065/7||
0445.txt|MMI|0.52|Relationship modifier - Patient|C1578484|[idcn]|"Patient"-text-40-"Patient"-NNP-0|text|121/7||
0445.txt|MMI|0.52|Removal of prosthesis of bile duct|C0193496|[topp]|"Removal of biliary stent"-text-6-"removal of biliary stent"-NN-0|text|5301/24||
0445.txt|MMI|0.52|Removing (action)|C1883720|[acty]|"Removal"-text-8-"removal"-NN-0|text|10509/7||
0445.txt|MMI|0.52|Report source - Patient|C1578483|[idcn]|"Patient"-text-40-"Patient"-NNP-0|text|121/7||
0445.txt|MMI|0.52|Required - Escort Required|C1556066|[idcn]|"Required"-text-0-"required"-VBD-0|text|4981/8||
0445.txt|MMI|0.52|Requirement|C1514873|[ftcn]|"Required"-text-0-"required"-VBD-0|text|4981/8||
0445.txt|MMI|0.52|Resume - Remote control command|C1550028|[idcn]|"Resume"-text-0-"Resume"-VB-0|text|10016/6||
0445.txt|MMI|0.52|Rhythm|C0871269|[fndg]|"Rhythm"-text-26-"rhythm"-NN-0|text|1360/6||
0445.txt|MMI|0.52|Rules of conduct|C0023150|[rnlw]|"Law"-text-94-"law"-NN-0|text|1098/3||
0445.txt|MMI|0.52|SHORT STATURE, ONYCHODYSPLASIA, FACIAL DYSMORPHISM, AND HYPOTRICHOSIS SYNDROME|C3542022|[dsyn]|"SOFT"-text-6-"soft"-JJ-0|text|1425/4||
0445.txt|MMI|0.52|See|C1947903|[acty]|"See"-text-0-"see"-VB-0|text|3308/3||
0445.txt|MMI|0.52|Services|C0557854|[ocac]|"service"-text-30-"Service"-NNP-0|text|91/7||
0445.txt|MMI|0.52|Sexual intercourse - finding|C1314687|[fndg]|"Sex"-text-24-"Sex"-NN-0|text|83/3||
0445.txt|MMI|0.52|Short insular gyrus|C0262329|[bpoc]|"SIG"-text-2-"Sig"-NNP-0|text|5377/3||
0445.txt|MMI|0.52|Shortened|C1282927|[qlco]|"brief"-text-0-"Brief"-NNP-0|text|2919/5||
0445.txt|MMI|0.52|Shower (physical object)|C0541748|[mnob]|"Shower"-text-0-"shower"-VB-0|text|9726/6||
0445.txt|MMI|0.52|Signature|C1519316|[inpr]|"Signed"-text-22-"Signed"-VBN-0|text|10627/6||
0445.txt|MMI|0.52|Sips|C4255036|[fndg]|"Sips"-text-0-"sips"-NNS-0|text|4068/4||
0445.txt|MMI|0.52|Skin of part of limb|C1282135|[bpoc]|"extremities skin"-text-4-"extremities
Skin"-NNS-0|text|1547/16||
0445.txt|MMI|0.52|Social History|C3714536|[fndg]|"Social History"-text-44-"Social History"-NNP-0|text|941/14||
0445.txt|MMI|0.52|Social and personal history|C0424945|[fndg]|"Social history"-text-44-"Social History"-NNP-0|text|941/14||
0445.txt|MMI|0.52|Soft|C0205358|[qlco]|"Soft"-text-6-"soft"-JJ-0|text|1425/4||
0445.txt|MMI|0.52|Software Service|C2825316|[mnob]|"Service"-text-30-"Service"-NNP-0|text|91/7||
0445.txt|MMI|0.52|Somewhat|C2984079|[fndg]|"Somewhat"-text-0-"somewhat"-RB-0|text|3819/8||
0445.txt|MMI|0.52|Sore to touch|C0234233|[sosy]|"Tenderness"-text-0-"tenderness"-NN-0|text|1470/10||
0445.txt|MMI|0.52|Specimen Source Codes - Cannula|C1546577|[inpr]|"Cannula"-text-0-"cannula"-NN-0|text|639/7||
0445.txt|MMI|0.52|Specimen Source Codes - Patient|C1578485|[inpr]|"Patient"-text-40-"Patient"-NNP-0|text|121/7||
0445.txt|MMI|0.52|Specimen Source Codes - Respiratory|C1546767|[inpr]|"Respiratory"-text-4-"respiratory"-NN-0|text|1280/11||
0445.txt|MMI|0.52|Specimen Source Codes - Urine|C1547942|[inpr]|"Urine"-text-30-"urine"-NN-0|text|4551/5||
0445.txt|MMI|0.52|Specimen Type - Cannula|C1550622|[bdsu]|"Cannula"-text-0-"cannula"-NN-0|text|639/7||
0445.txt|MMI|0.52|Specimen Type - Patient|C1550655|[bdsu]|"Patient"-text-40-"Patient"-NNP-0|text|121/7||
0445.txt|MMI|0.52|Stable status|C0205360|[qlco]|"Stable"-text-2-"stable"-JJ-0|text|5171/6||
0445.txt|MMI|0.52|State|C1442792|[ftcn]|"Stated"-text-0-"stated"-VBD-0|text|505/6||
0445.txt|MMI|0.52|Stop (qualifier value)|C2746065|[tmco]|"End"-text-10-"End"-NN-0|text|10705/3||
0445.txt|MMI|0.52|Structure of inferior central nucleus of pons|C0228434|[bpoc]|"ICe"-text-0-"ice"-NN-0|text|3729/3||
0445.txt|MMI|0.52|Structure of posterior cerebral artery|C0149576|[bpoc]|"PCA"-text-12-"PCA"-NNP-0|text|3870/3||
0445.txt|MMI|0.52|Surveillance Implementation Group|C1515092|[hcro]|"SIG"-text-2-"Sig"-NNP-0|text|5377/3||
0445.txt|MMI|0.52|TUB gene|C1421225|[gngm]|"TUB"-text-0-"tub"-NN-0|text|9694/3||
0445.txt|MMI|0.52|Table Frame - above|C1552828|[idcn]|"above"-text-0-"above"-IN-0|text|9831/5||
0445.txt|MMI|0.52|Tachycardia by ECG Finding|C3827868|[fndg]|"Tachycardia"-text-0-"tachycardia"-NN-0|text|3966/11||
0445.txt|MMI|0.52|Take|C1515187|[hlca]|"Take"-text-0-"take"-VB-0|text|10058/4||
0445.txt|MMI|0.52|Thermoacoustic Computed Tomography|C3897364|[diap]|"PAT"-text-2-"Pat"-NNP-0|text|10494/3||
0445.txt|MMI|0.52|Three times daily|C0556984|[tmco]|"TID"-text-18-"TID"-NN-0|text|5403/3||
0445.txt|MMI|0.52|Tramadol measurement (procedure)|C1266765|[lbpr]|"Tramadol"-text-0-"Tramadol"-NNP-0|text|5355/8||
0445.txt|MMI|0.52|Transaction counts and value totals - day|C1561538|[inpr]|"day"-text-28-"day"-NN-0|text|5419/3||
0445.txt|MMI|0.52|Transaction counts and value totals - provider|C1555587|[inpr]|"provider"-text-0-"Provider"-NNP-0|text|10263/8||
0445.txt|MMI|0.52|Transferred to|C4049693|[fndg]|"Transferred to"-text-0-"transferred to"-VBN-0|text|3649/14||
0445.txt|MMI|0.52|Transferred to:Loc:Pt:^Patient:Nom|C4049692|[clna]|"Transferred to"-text-0-"transferred to"-VBN-0|text|3649/14||
0445.txt|MMI|0.52|Tub - container|C1553464|[mnob]|"Tub"-text-0-"tub"-NN-0|text|9694/3||
0445.txt|MMI|0.52|Tub Dosing Unit|C2700086|[qnco]|"Tub"-text-0-"tub"-NN-0|text|9694/3||
0445.txt|MMI|0.52|Two|C0205448|[qnco]|"Two"-text-6-"Two"-CD-0|text|5383/3||
0445.txt|MMI|0.52|Uncontrolled|C0205318|[qlco]|"Uncontrolled"-text-0-"uncontrolled"-JJ-0|text|3828/12||
0445.txt|MMI|0.52|Unit|C0439148|[qnco]|"Units"-text-0-"units"-NNS-0|text|7084/5||
0445.txt|MMI|0.52|Unit - NCI Thesaurus Property|C3853603|[qnco]|"Units"-text-0-"units"-NNS-0|text|7084/5||
0445.txt|MMI|0.52|Unit of Measure|C1519795|[qnco]|"Units"-text-0-"units"-NNS-0|text|7084/5||
0445.txt|MMI|0.52|Until|C1720302|[inpr]|"Until"-text-6-"until"-IN-0|text|9951/5||
0445.txt|MMI|0.52|Upper|C1282910|[spco]|"Above"-text-0-"above"-IN-0|text|9831/5||
0445.txt|MMI|0.52|Urinary Retention, CTCAE|C1558141|[fndg]|"Urinary retention"-text-7-"urinary retention"-JJ-0|text|4616/17||
0445.txt|MMI|0.52|Urine - SpecimenType|C1610733|[bdsu]|"Urine"-text-30-"urine"-NN-0|text|4551/5||
0445.txt|MMI|0.52|Urine volume finding|C1287298|[fndg]|"Urine output"-text-0-"Urine output"-JJ-0|text|3893/12||
0445.txt|MMI|0.52|Urine volume function|C0232856|[clna]|"urine output"-text-0-"Urine output"-JJ-0|text|3893/12||
0445.txt|MMI|0.52|Usual Severity Diarrhea|C4084802|[inpr]|"Diarrhea"-text-12-"diarrhea"-NN-1|text|5107/8||
0445.txt|MMI|0.52|Veterinary Patient|C1705908|[orgm]|"Patient"-text-40-"Patient"-NNP-0|text|121/7||
0445.txt|MMI|0.52|Vodka|C0452263|[food]|"Vodka"-text-60-"vodka"-NN-0|text|999/5||
0445.txt|MMI|0.52|Void - TableFrame|C1552835|[inpr]|"void"-text-0-"void"-VB-0|text|4660/4||
0445.txt|MMI|0.52|Well controlled|C3853142|[ftcn]|"Well controlled"-text-0-"well controlled"-RB-0|text|4837/15||
0445.txt|MMI|0.52|White blood cell count increased (lab result)|C0750426|[fndg]|"Leukocytosis"-text-0-"leukocytosis"-NN-0|text|734/12||
0445.txt|MMI|0.52|With breakfast|C4553621|[tmco]|"With breakfast"-text-0-"with breakfast"-IN-0|text|7105/14||
0445.txt|MMI|0.52|Worse|C1457868|[fndg]|"Worsening"-text-0-"worsening"-VBG-0|text|4175/9||
0445.txt|MMI|0.52|Worsening pattern|C0332271|[qlco]|"Worsening"-text-0-"worsening"-VBG-0|text|4175/9||
0445.txt|MMI|0.52|acute|C0205178|[tmco]|"acute"-text-22-"acute"-JJ-0|text|3012/5||
0445.txt|MMI|0.52|acute inpatient encounter|C1551345|[hlca]|"ACUTE"-text-22-"acute"-JJ-0|text|3012/5||
0445.txt|MMI|0.52|allowing|C0683607|[socb]|"allow"-text-4-"allow"-VB-0|text|9863/5||
0445.txt|MMI|0.52|altretamine/cisplatin/cyclophosphamide/misonidazole protocol|C0279336|[topp]|"CHIPS"-text-2-"chips"-NNS-0|text|3733/5||
0445.txt|MMI|0.52|are unit of measure|C1551058|[qnco]|"Are"-text-0-"are"-VBP-0|text|5225/3||
0445.txt|MMI|0.52|aspartate-prephenate aminotransferase activity|C2247344|[moft]|"PAT"-text-2-"Pat"-NNP-0|text|10494/3||
0445.txt|MMI|0.52|aspects of laws|C0220866|[rnlw]|"Law"-text-94-"law"-NN-0|text|1098/3||
0445.txt|MMI|0.52|blood albumin|C0853248|[lbpr]|"blood albumin"-text-13-"BLOOD Albumin"-NNP-0|text|1685/13||
0445.txt|MMI|0.52|capsanthin-capsorubin synthase|C3272108|[moft]|"CCS"-text-28-"ccs"-NNS-0|text|4547/3||
0445.txt|MMI|0.52|carboplatin/etoposide/ifosfamide|C0280697|[topp]|"ICE"-text-0-"ice"-NN-0|text|3729/3||
0445.txt|MMI|0.52|caspase-1 activity|C1150137|[moft]|"ICE"-text-0-"ice"-NN-0|text|3729/3||
0445.txt|MMI|0.52|cyclophosphamide/dacarbazine/doxorubicin protocol|C0170509|[topp]|"CAD"-text-0-"cad"-NN-1|text|1136/3||
0445.txt|MMI|0.52|cytarabine/daunorubicin protocol|C0280573|[topp]|"CAD"-text-0-"cad"-NN-1|text|1136/3||
0445.txt|MMI|0.52|cytarabine/etoposide/idarubicin|C0249492|[topp]|"ICE"-text-0-"ice"-NN-0|text|3729/3||
0445.txt|MMI|0.52|day|C0439228|[tmco]|"day"-text-28-"day"-NN-0|text|5419/3||
0445.txt|MMI|0.52|diabetic|C0241863|[fndg]|"diabetic"-text-0-"diabetic"-JJ-0|text|591/8||
0445.txt|MMI|0.52|end - ActRelationshipCheckpoint|C1561490|[ftcn]|"end"-text-10-"End"-NN-0|text|10705/3||
0445.txt|MMI|0.52|fluid - substance|C1704353|[sbst]|"Fluid"-text-0-"fluid"-NN-0|text|3618/5||
0445.txt|MMI|0.52|gastrointestinal|C0521362|[spco]|"gastrointestinal"-text-0-"gastrointestinal"-JJ-0|text|10469/16||
0445.txt|MMI|0.52|glutamate-prephenate aminotransferase activity|C2247346|[moft]|"PAT"-text-2-"Pat"-NNP-0|text|10494/3||
0445.txt|MMI|0.52|impression (attitude)|C0596764|[menp]|"Impression"-text-0-"IMPRESSION"-NNP-0|text|2799/10||
0445.txt|MMI|0.52|medication - HL7 publishing domain|C3244316|[inpr]|"medication"-text-0-"medication"-NN-0|text|10160/10||
0445.txt|MMI|0.52|protein acetyltransferase activity|C2248827|[moft]|"Pat"-text-2-"Pat"-NNP-0|text|10494/3||
0445.txt|MMI|0.52|put - instruction imperative|C1882509|[acty]|"Place"-text-0-"place"-NN-0|text|9855/5||
0445.txt|MMI|0.52|recovery - adjustment|C1555688|[qnco]|"recovery"-text-4-"recovery"-NN-0|text|3680/8||
0445.txt|MMI|0.52|removal technique|C0015252|[topp]|"Removal"-text-8-"removal"-NN-0|text|10509/7||
0445.txt|MMI|0.52|required - CodingRationale|C3245502|[inpr]|"required"-text-0-"required"-VBD-0|text|4981/8||
0445.txt|MMI|0.52|required - HL7ConformanceInclusion|C1619636|[inpr]|"Required"-text-0-"required"-VBD-0|text|4981/8||
0445.txt|MMI|0.52|required - HL7V3Conformance|C3245501|[inpr]|"required"-text-0-"required"-VBD-0|text|4981/8||
0445.txt|MMI|0.52|required - ParticipationSignature|C1546857|[ftcn]|"required"-text-0-"required"-VBD-0|text|4981/8||
0445.txt|MMI|0.52|respiratory|C0521346|[ftcn]|"respiratory"-text-4-"respiratory"-NN-0|text|1280/11||
0445.txt|MMI|0.52|resume - DataOperation|C3242342|[ftcn]|"resume"-text-0-"Resume"-VB-0|text|10016/6||
0445.txt|MMI|0.52|rhythmic process (biological)|C1523018|[phsf]|"rhythm"-text-26-"rhythm"-NN-0|text|1360/6||
0445.txt|MMI|0.52|signed - ParticipationSignature|C1561610|[inpr]|"signed"-text-22-"Signed"-VBN-0|text|10627/6||
0445.txt|MMI|0.52|stress-induced premature senescence|C3157027|[celf]|"SIPS"-text-0-"sips"-NNS-0|text|4068/4||
0445.txt|MMI|0.52|strip medical device|C1321564|[medd]|"strips"-text-0-"strips"-NNS-0|text|9824/6||
0445.txt|MMI|0.52|three times a day at institution-specified times|C1610169|[tmco]|"TID"-text-18-"TID"-NN-0|text|5403/3||
0445.txt|MMI|0.52|ultra|C0728475|[medd]|"ultra"-text-0-"ultra"-JJ-0|text|3068/5||
0445.txt|MMI|0.52|while|C0750519|[idcn]|"while"-text-0-"while"-IN-0|text|10210/5||
0445.txt|MMI|0.50|1/3 meter (distance vision finding)|C0475806|[fndg]|"Near"-text-96-"near"-IN-0|text|1102/4||
0445.txt|MMI|0.50|3 times|C4035626|[fndg]|"3 times"-text-24-"3 times"-CD-0|text|5409/7||
0445.txt|MMI|0.50|5/5|C0450380|[qnco]|"5/5"-text-0-"5/5"-CD-0|text|1530/3||
0445.txt|MMI|0.50|600|C3816748|[qnco]|"600"-text-26-"600"-CD-0|text|4543/3||
0445.txt|MMI|0.50|Adequate|C0205411|[qlco]|"Adequate"-text-0-"adequate"-JJ-0|text|3915/8||
0445.txt|MMI|0.50|Amount type - Rate|C1549480|[idcn]|"Rate"-text-22-"rate"-NN-0|text|1353/4||
0445.txt|MMI|0.50|Apply|C4048755|[ftcn]|"Applied"-text-0-"applied"-VBD-0|text|654/7||
0445.txt|MMI|0.50|Arabic numeral 100|C1704407|[qnco]|"100"-text-2-"100"-CD-0|text|10089/3||
0445.txt|MMI|0.50|Basal Diet|C2983588|[food]|"DIET"-text-0-"diet"-NN-0|text|4946/4||
0445.txt|MMI|0.50|Cardiovascular|C3887460|[blor]|"Cardiovascular"-text-16-"Cardiovascular"-NNP-0|text|1328/14||
0445.txt|MMI|0.50|Cardiovascular system|C0007226|[bdsy]|"Cardiovascular"-text-16-"Cardiovascular"-NNP-0|text|1328/14|A07|
0445.txt|MMI|0.50|Caucasians|C0043157|[popg]|"White"-text-0-"white"-JJ-0|text|9818/5||
0445.txt|MMI|0.50|Completed By (qualifier)|C2349181|[qlco]|"Completed By"-text-0-"Completed by"-VBN-0|text|10571/12||
0445.txt|MMI|0.50|Daily as required|C3873153|[tmco]|"Daily as needed"-text-12-"daily as needed"-RB-0|text|10102/15||
0445.txt|MMI|0.50|Data types - Time|C1547403|[idcn]|"Time"-text-8-"time"-NN-0|text|673/4||
0445.txt|MMI|0.50|Diet (animal life circumstance)|C3668949|[food]|"Diet"-text-0-"diet"-NN-0|text|4946/4||
0445.txt|MMI|0.50|Difficulty passing urine|C0241705|[sosy]|"difficulty voiding"-text-0-"difficulty voiding"-NN-0|text|4452/18||
0445.txt|MMI|0.50|Discharge date|C2361123|[tmco]|"Discharge date"-text-0-"Discharge Date"-JJ-0|text|28/14||
0445.txt|MMI|0.50|Discharge date:Time Stamp -- Date and Time:Point in time:^Patient:Quantitative|C2361122|[clna]|"Discharge date"-text-0-"Discharge Date"-JJ-0|text|28/14||
0445.txt|MMI|0.50|Does walk|C0600108|[fndg]|"Walks"-text-62-"walks"-VBZ-0|text|1005/5||
0445.txt|MMI|0.50|Dry dressing, device|C3494912|[medd]|"Dry dressing"-text-12-"dry dressing"-JJ-0|text|9797/12||
0445.txt|MMI|0.50|Hard stool|C0278016|[fndg]|"Hard stool"-text-0-"hard stool"-JJ-0|text|5011/10||
0445.txt|MMI|0.50|How Often Felt Normal question|C4553972|[inpr]|"Normal"-text-0-"normal"-JJ-0|text|4691/6||
0445.txt|MMI|0.50|Karnofsky Performance Status 100|C3829431|[fndg]|"100"-text-2-"100"-CD-0|text|10089/3||
0445.txt|MMI|0.50|Language Ability - Sign|C1547188|[idcn]|"Sign"-text-0-"sign"-NN-0|text|1442/4||
0445.txt|MMI|0.50|Left|C0205091|[spco]|"Left"-text-16-"left"-VBD-0|text|870/4||
0445.txt|MMI|0.50|Left sided|C0443246|[spco]|"Left"-text-16-"left"-VBD-0|text|870/4||
0445.txt|MMI|0.50|Medication.discharge|C0806915|[fndg]|"Discharge medications"-text-2-"Discharge Medications"-NNP-0|text|7120/21||
0445.txt|MMI|0.50|Monitoring - action|C1283169|[hlca]|"Monitoring"-text-0-"monitoring"-NN-0|text|3533/10||
0445.txt|MMI|0.50|Nausea or vomiting|C3843946|[fndg]|"Nausea or vomiting"-text-6-"nausea or vomiting"-NN-1|text|4803/18||
0445.txt|MMI|0.50|Near|C1706276|[qlco]|"Near"-text-96-"near"-IN-0|text|1102/4||
0445.txt|MMI|0.50|Normal|C0205307|[qlco]|"Normal"-text-0-"normal"-JJ-0|text|4691/6||
0445.txt|MMI|0.50|Normal Gait|C5200925|[fndg]|"Normal"-text-0-"normal"-JJ-0|text|4691/6||
0445.txt|MMI|0.50|Normal Immune Presence|C5202633|[fndg]|"Normal"-text-0-"normal"-JJ-0|text|4691/6||
0445.txt|MMI|0.50|Normal Observation Interpretation|C1550457|[fndg]|"Normal"-text-0-"normal"-JJ-0|text|4691/6||
0445.txt|MMI|0.50|Normal Reference Range|C2698497|[inpr]|"Normal"-text-0-"normal"-JJ-0|text|4691/6||
0445.txt|MMI|0.50|Normal assessment finding|C1873497|[fndg]|"Normal"-text-0-"normal"-JJ-0|text|4691/6||
0445.txt|MMI|0.50|Normal, Unit of Concentration|C1704701|[qnco]|"Normal"-text-0-"normal"-JJ-0|text|4691/6||
0445.txt|MMI|0.50|Pain control|C1304888|[topp]|"Pain control"-text-14-"pain control"-NN-0|text|3452/12||
0445.txt|MMI|0.50|Physical findings|C0311392|[fndg]|"Sign"-text-0-"sign"-NN-0|text|1442/4||
0445.txt|MMI|0.50|Post-Procedure|C3272301|[tmco]|"Post-Procedure"-text-6-"post-procedure"-NN-0|text|4370/14||
0445.txt|MMI|0.50|Preventive monitoring|C0150369|[hlca]|"Monitoring"-text-0-"monitoring"-NN-0|text|3533/10||
0445.txt|MMI|0.50|Pupil equal round and reacting to light|C1642390|[fndg]|"PERRL"-text-0-"PERRL"-NNP-0|text|1266/5||
0445.txt|MMI|0.50|Rate|C1521828|[qnco]|"Rate"-text-22-"rate"-NN-0|text|1353/4||
0445.txt|MMI|0.50|Rating (action)|C0871208|[acty]|"Rate"-text-22-"rate"-NN-0|text|1353/4||
0445.txt|MMI|0.50|Renal function|C0232804|[ortf]|"Renal function"-text-0-"Renal function"-NNP-0|text|4667/14||
0445.txt|MMI|0.50|Right upper quadrant pain|C0235299|[sosy]|"Right upper quadrant pain"-text-20-"right upper quadrant pain"-JJ-0|text|692/25||
0445.txt|MMI|0.50|Skin appearance normal (finding)|C0558145|[fndg]|"NORMAL"-text-0-"normal"-JJ-0|text|4691/6||
0445.txt|MMI|0.50|Sound - physical agent|C0037709|[npop]|"Sound"-text-0-"sound"-NN-0|text|3074/5||
0445.txt|MMI|0.50|Sounds device|C0175663|[medd]|"Sound"-text-0-"sound"-NN-0|text|3074/5||
0445.txt|MMI|0.50|Special Diet Therapy|C1519433|[topp]|"DIET"-text-0-"diet"-NN-0|text|4946/4||
0445.txt|MMI|0.50|Stool Softener|C0301470|[phsu]|"Stool Softener"-text-0-"stool softener"-NN-0|text|10065/14||
0445.txt|MMI|0.50|Stool Softener brand of docusate sodium|C1154263|[orch, phsu]|"stool softener"-text-0-"stool softener"-NN-0|text|10065/14||
0445.txt|MMI|0.50|Structure of upper abdominal quadrant|C0230181|[blor]|"upper quadrant abdominal"-text-30-"upper quadrant abdominal"-JJ-0|text|3024/24||
0445.txt|MMI|0.50|Sufficient|C0205410|[qlco]|"Adequate"-text-0-"adequate"-JJ-0|text|3915/8||
0445.txt|MMI|0.50|Table Cell Horizontal Align - left|C1552822|[ftcn]|"left"-text-16-"left"-VBD-0|text|870/4||
0445.txt|MMI|0.50|Time (foundation metadata concept)|C3541383|[tmco]|"Time"-text-8-"time"-NN-0|text|673/4||
0445.txt|MMI|0.50|Times|C1632851|[qnco]|"Times"-text-4-"times"-NNS-0|text|3588/5||
0445.txt|MMI|0.50|Twice a day|C0585361|[tmco]|"Twice daily"-text-8-"twice daily"-RB-0|text|10096/11||
0445.txt|MMI|0.50|Value type - Time|C1548318|[idcn]|"Time"-text-8-"time"-NN-0|text|673/4||
0445.txt|MMI|0.50|White color|C0220938|[qlco]|"White"-text-0-"white"-JJ-0|text|9818/5||
0445.txt|MMI|0.50|bladder scan|C1096192|[diap]|"bladder scan"-text-14-"bladder scan"-NN-0|text|4502/12||
0445.txt|MMI|0.50|diet - supply|C1549512|[ftcn]|"diet"-text-0-"diet"-NN-0|text|4946/4||
0445.txt|MMI|0.50|normal Act Status|C1553386|[inpr]|"normal"-text-0-"normal"-JJ-0|text|4691/6||
0445.txt|MMI|0.50|normal Confidentiality|C1550469|[idcn]|"normal"-text-0-"normal"-JJ-0|text|4691/6||
0445.txt|MMI|0.50|normal Device Alert Level|C1551394|[fndg]|"Normal"-text-0-"normal"-JJ-0|text|4691/6||
0445.txt|MMI|0.50|normal Entity Status|C1553406|[qlco]|"normal"-text-0-"normal"-JJ-0|text|4691/6||
0445.txt|MMI|0.50|normal Managed Participation Status|C1553399|[idcn]|"normal"-text-0-"normal"-JJ-0|text|4691/6||
0445.txt|MMI|0.50|normal Role Status|C1553402|[idcn]|"normal"-text-0-"normal"-JJ-0|text|4691/6||
0445.txt|MMI|0.50|open cholecystectomy|C0742390|[topp]|"open cholecystectomy"-text-16-"open cholecystectomy"-JJ-0|text|3250/20||
