record-68.txt|MMI|97.07|Wiskott-Aldrich Syndrome|C0043194|[dsyn]|"WAS"-text-0-"was"-VBD-0,"WAS"-text-0-"was"-VBD-0,"WAS"-text-0-"was"-VBD-0,"WAS"-text-0-"was"-VBD-0,"WAS"-text-26-"was"-VBD-0,"WAS"-text-0-"was"-VBD-0|text|1300/3;1370/3;1399/3;1480/3;1585/3;1822/3|C20.673.627.900;C15.378.553.546.605.900;C16.320.798.875;C20.673.795.875;C16.320.322.937;C15.378.463.960;C16.320.099.970;C15.378.100.100.970|
record-68.txt|MMI|13.02|Urinary Incontinence|C0042024|[patf]|"Urinary Incontinence"-text-185-"urinary incontinence"-JJ-0,"Urinary Incontinence"-text-55-"urinary incontinence"-JJ-0|text|498/20;3411/20|C23.888.942.343.800;C12.777.934.852;C13.351.968.934.814|
record-68.txt|MMI|11.55|Andorra|C0002838|[geoa]|"AND"-text-213-"and"-CC-0,"AND"-text-0-"and"-CC-0,"AND"-text-0-"and"-CC-0,"AND"-text-42-"and"-CC-0,"AND"-text-50-"and"-CC-0,"AND"-text-0-"and"-CC-0,"AND"-text-0-"and"-CC-0,"AND"-text-0-"and"-CC-0|text|583/3;1436/3;1499/3;1623/3;1641/3;1713/3;1739/3;1815/3|Z01.542.049|
record-68.txt|MMI|11.43|WAS protein, human|C1565156|[bacs, aapp]|"WAS"-text-0-"was"-VBD-0,"WAS"-text-0-"was"-VBD-0,"WAS"-text-0-"was"-VBD-0,"WAS"-text-0-"was"-VBD-0,"WAS"-text-26-"was"-VBD-0,"WAS"-text-0-"was"-VBD-0|text|1300/3;1370/3;1399/3;1480/3;1585/3;1822/3|x.x.x.x|
record-68.txt|MMI|11.24|histidine|C0019602|[bacs, aapp, phsu]|"HIS"-text-0-"his"-PRP$-0,"HIS"-text-56-"his"-PRP$-0,"HIS"-text-68-"his"-PRP$-0|text|1415/3;1655/3;1685/3|D12.125.072.329;D12.125.142.308|
record-68.txt|MMI|11.09|Patient Discharge|C0030685|[hlca]|"Discharge"-text-0-"Discharge"-NNP-0|text|3438/9|N04.590.233.727.210.125;E02.760.169.125;N02.421.585.169.125;E02.760.400.610;N02.421.585.400.610|
record-68.txt|MMI|6.97|Blood|C0005767|[bdsu]|"Blood"-text-85-"BLOOD"-NNPS-0|text|863/5|A12.207.152;A15.145;Y01.010;Y08.040.020;Y01.010;Y08.040.020|
record-68.txt|MMI|6.97|Coronary Artery Bypass Surgery|C0010055|[topp]|"CABG"-text-101-"CABG"-NNP-0|text|298/4|E04.100.814.868.750;E04.100.376.719.332;E04.928.220.520.220|
record-68.txt|MMI|6.97|Coronary Artery Disease|C1956346|[dsyn]|"CAD"-text-27-"CAD"-NNP-0|text|3348/3|C14.280.647.250.260;C14.907.137.126.339;C14.907.585.250.260|
record-68.txt|MMI|5.76|Tablet (unit of presentation)|C4319774|[qnco]|"Tablet"-text-0-"Tablet"-NN-0,"Tablet"-text-0-"Tablet"-NN-0,"Tablet"-text-0-"Tablet"-NN-0,"Tablet"-text-0-"Tablet"-NN-0,"Tablet"-text-0-"Tablet"-NN-0,"Tablet"-text-0-"Tablet"-NN-0,"Tablet"-text-0-"Tablet"-NN-0,"Tablet"-text-0-"Tablet"-NN-0,"Tablet"-text-0-"Tablet"-NN-0,"Tablet"-text-6-"Tablet"-NN-0,"Tablet"-text-0-"Tablet"-NN-0|text|2097/6;2295/6;2444/6;2704/6;2813/6;2923/6;3035/6;3143/6;3200/6;3223/6;3257/6||
record-68.txt|MMI|5.76|Tablet Dosage Form|C0039225|[bodm]|"Tablet"-text-0-"Tablet"-NN-0,"Tablet"-text-0-"Tablet"-NN-0,"Tablet"-text-0-"Tablet"-NN-0,"Tablet"-text-0-"Tablet"-NN-0,"Tablet"-text-0-"Tablet"-NN-0,"Tablet"-text-0-"Tablet"-NN-0,"Tablet"-text-0-"Tablet"-NN-0,"Tablet"-text-0-"Tablet"-NN-0,"Tablet"-text-0-"Tablet"-NN-0,"Tablet"-text-6-"Tablet"-NN-0,"Tablet"-text-0-"Tablet"-NN-0|text|2097/6;2295/6;2444/6;2704/6;2813/6;2923/6;3035/6;3143/6;3200/6;3223/6;3257/6||
record-68.txt|MMI|5.76|Tablet Dosage Form Category|C4722631|[bodm]|"Tablet"-text-0-"Tablet"-NN-0,"Tablet"-text-0-"Tablet"-NN-0,"Tablet"-text-0-"Tablet"-NN-0,"Tablet"-text-0-"Tablet"-NN-0,"Tablet"-text-0-"Tablet"-NN-0,"Tablet"-text-0-"Tablet"-NN-0,"Tablet"-text-0-"Tablet"-NN-0,"Tablet"-text-0-"Tablet"-NN-0,"Tablet"-text-0-"Tablet"-NN-0,"Tablet"-text-6-"Tablet"-NN-0,"Tablet"-text-0-"Tablet"-NN-0|text|2097/6;2295/6;2444/6;2704/6;2813/6;2923/6;3035/6;3143/6;3200/6;3223/6;3257/6||
record-68.txt|MMI|5.76|Tablet Dosing Unit|C1705223|[qnco]|"Tablet"-text-0-"Tablet"-NN-0,"Tablet"-text-0-"Tablet"-NN-0,"Tablet"-text-0-"Tablet"-NN-0,"Tablet"-text-0-"Tablet"-NN-0,"Tablet"-text-0-"Tablet"-NN-0,"Tablet"-text-0-"Tablet"-NN-0,"Tablet"-text-0-"Tablet"-NN-0,"Tablet"-text-0-"Tablet"-NN-0,"Tablet"-text-0-"Tablet"-NN-0,"Tablet"-text-6-"Tablet"-NN-0,"Tablet"-text-0-"Tablet"-NN-0|text|2097/6;2295/6;2444/6;2704/6;2813/6;2923/6;3035/6;3143/6;3200/6;3223/6;3257/6||
record-68.txt|MMI|5.59|Poverty|C0032854|[grpa]|"Poor"-text-14-"poor"-JJ-0|text|689/4|I01.880.853.996.535;I01.880.735.634;N01.824.600|
record-68.txt|MMI|5.59|Speech|C0037817|[orgf]|"Speech"-text-0-"speech"-NN-0|text|1492/6|G11.561.812;L01.559.423.676;F01.145.209.908.677|
record-68.txt|MMI|5.59|Weight Gain|C0043094|[fndg]|"Weight Gain"-text-14-"weight gain"-NN-0|text|3547/11|G07.345.249.314.120.200.926;C23.888.144.243.926|
record-68.txt|MMI|5.13|Transient Ischemic Attack|C0007787|[dsyn]|"TIA"-text-0-"TIA"-NNP-0|text|3434/3|C10.228.140.300.150.836;C14.907.253.092.836|
record-68.txt|MMI|5.03|PRSS30P gene|C2828567|[gngm]|"Disp"-text-0-"Disp"-NNP-0,"Disp"-text-0-"Disp"-NNP-0,"Disp"-text-0-"Disp"-NNP-0,"Disp"-text-0-"Disp"-NNP-0,"Disp"-text-0-"Disp"-NNP-0,"Disp"-text-0-"Disp"-NNP-0,"Disp"-text-0-"Disp"-NNP-0,"Disp"-text-0-"Disp"-NNP-0,"Disp"-text-0-"Disp"-NNP-0,"Disp"-text-0-"Disp"-NNP-0|text|2086/4;2284/4;2433/4;2554/4;2693/4;2802/4;2912/4;3024/4;3132/4;3246/4||
record-68.txt|MMI|4.67|Ants|C0003455|[euka]|"Ant"-text-22-"ant"-JJ-0|text|712/3|B01.050.500.131.617.720.500.500.875.205|
record-68.txt|MMI|4.67|Leukocytes|C0023516|[cell]|"WBC"-text-87-"WBC"-NNPS-0|text|869/3|A15.382.490;A15.145.229.637;A11.118.637|
record-68.txt|MMI|4.67|Weaning|C0043084|[fndg]|"weaned"-text-0-"weaned"-VBN-0|text|1403/6|G07.203.650.220.500.750;G07.203.650.915|
record-68.txt|MMI|4.21|aspirin|C0004057|[orch, phsu]|"ASA"-text-10-"asa"-NN-0|text|1937/3|D02.455.426.559.389.657.410.595.176|
record-68.txt|MMI|4.19|And|C1515981|[idcn]|"And"-text-213-"and"-CC-0,"And"-text-0-"and"-CC-0,"And"-text-0-"and"-CC-0,"And"-text-42-"and"-CC-0,"And"-text-50-"and"-CC-0,"And"-text-0-"and"-CC-0,"And"-text-0-"and"-CC-0,"And"-text-0-"and"-CC-0|text|583/3;1436/3;1499/3;1623/3;1641/3;1713/3;1739/3;1815/3||
record-68.txt|MMI|4.19|And - dosing instruction fragment|C1706368|[inpr]|"And"-text-213-"and"-CC-0,"And"-text-0-"and"-CC-0,"And"-text-0-"and"-CC-0,"And"-text-42-"and"-CC-0,"And"-text-50-"and"-CC-0,"And"-text-0-"and"-CC-0,"And"-text-0-"and"-CC-0,"And"-text-0-"and"-CC-0|text|583/3;1436/3;1499/3;1623/3;1641/3;1713/3;1739/3;1815/3||
record-68.txt|MMI|4.19|RelationshipConjunction - and|C1550557|[inpr]|"and"-text-213-"and"-CC-0,"and"-text-0-"and"-CC-0,"and"-text-0-"and"-CC-0,"and"-text-42-"and"-CC-0,"and"-text-50-"and"-CC-0,"and"-text-0-"and"-CC-0,"and"-text-0-"and"-CC-0,"and"-text-0-"and"-CC-0|text|583/3;1436/3;1499/3;1623/3;1641/3;1713/3;1739/3;1815/3||
record-68.txt|MMI|4.19|refill|C0807726|[idcn]|"refills"-text-0-"Refills"-NNP-0,"refills"-text-0-"Refills"-NNS-0,"refills"-text-0-"Refills"-NNP-0,"refills"-text-0-"Refills"-NNP-0,"refills"-text-0-"Refills"-NNP-0,"refills"-text-0-"Refills"-NNP-0,"refills"-text-0-"Refills"-NNP-0,"refills"-text-0-"Refills"-NNP-0|text|2456/7;2575/7;2716/7;2825/7;2935/7;3047/7;3155/7;3269/7||
record-68.txt|MMI|3.81|Mayotte|C0024974|[geoa]|"Mayotte"-text-171-"Mayotte"-NNP-0,"Mayotte"-text-197-"Mayotte"-NNP-0|text|465/7;546/7|x.x.x.x|
record-68.txt|MMI|3.75|Coitus|C0009253|[orgf]|"Sex"-text-24-"Sex"-NN-0|text|83/3|G08.686.784.041;F01.145.802.188|
record-68.txt|MMI|3.75|Computer Assisted Diagnosis|C0011905|[diap]|"CAD"-text-27-"CAD"-NNP-0|text|3348/3|L01.313.500.750.100.158;E01.158|
record-68.txt|MMI|3.29|Erythema|C0041834|[dsyn]|"Redness"-text-0-"redness"-NN-0|text|3510/7|C23.888.885.328;C17.800.229|
record-68.txt|MMI|3.14|In addition to|C0332287|[ftcn]|"With"-text-123-"with"-IN-0,"With"-text-141-"with"-IN-0,"With"-text-227-"with"-IN-0,"With"-text-17-"with"-IN-0,"With"-text-0-"with"-IN-0,"With"-text-8-"with"-IN-0|text|344/4;391/4;622/4;3313/4;3497/4;3735/4||
record-68.txt|MMI|3.14|WAS gene|C1421478|[gngm]|"WAS"-text-0-"was"-VBD-0,"WAS"-text-0-"was"-VBD-0,"WAS"-text-0-"was"-VBD-0,"WAS"-text-0-"was"-VBD-0,"WAS"-text-26-"was"-VBD-0,"WAS"-text-0-"was"-VBD-0|text|1300/3;1370/3;1399/3;1480/3;1585/3;1822/3||
record-68.txt|MMI|3.14|Washoe language|C1555640|[lang]|"WAS"-text-0-"was"-VBD-0,"WAS"-text-0-"was"-VBD-0,"WAS"-text-0-"was"-VBD-0,"WAS"-text-0-"was"-VBD-0,"WAS"-text-26-"was"-VBD-0,"WAS"-text-0-"was"-VBD-0|text|1300/3;1370/3;1399/3;1480/3;1585/3;1822/3||
record-68.txt|MMI|3.14|With - dosing instruction fragment|C1705690|[inpr]|"With"-text-123-"with"-IN-0,"With"-text-141-"with"-IN-0,"With"-text-227-"with"-IN-0,"With"-text-17-"with"-IN-0,"With"-text-0-"with"-IN-0,"With"-text-8-"with"-IN-0|text|344/4;391/4;622/4;3313/4;3497/4;3735/4||
record-68.txt|MMI|2.89|Cataract|C0086543|[acab]|"Cataracts"-text-159-"cataracts"-NNS-0,"Cataracts"-text-33-"cataracts"-NNS-0|text|437/9;3359/9|C11.510.245|
record-68.txt|MMI|2.89|Disease|C0012634|[dsyn]|"condition"-text-8-"condition"-NN-0,"condition"-text-0-"Condition"-NNP-0|text|1355/9;3448/9|C23.550.288|
record-68.txt|MMI|2.83|ethanol|C0001962|[orch, phsu]|"ETOH"-text-205-"etoh"-JJ-0|text|562/4|D02.033.375;D02.033.375|
record-68.txt|MMI|2.37|World Health Organization|C0043237|[hcro]|"WHO"-text-0-"who"-WP-0|text|1514/3|N03.540.514.718.800|
record-68.txt|MMI|2.37|glipizide|C0017642|[orch, phsu]|"glipizide"-text-2-"glipizide"-NN-0|text|1913/9|D02.886.590.795.500|
record-68.txt|MMI|2.37|lisinopril|C0065374|[aapp, phsu]|"lisinopril"-text-0-"lisinopril"-NN-0|text|1889/10|D12.644.456.345.600|
record-68.txt|MMI|2.37|metformin|C0025598|[orch, phsu]|"metformin"-text-6-"metformin"-NN-0|text|1925/9|D02.078.370.141.450|
record-68.txt|MMI|2.34|Diet therapy|C0012159|[hlca]|"Diet"-text-34-"diet"-NN-0|text|1602/4|E02.642.249;Y11.010|
record-68.txt|MMI|1.97|Surgical incisions|C0184898|[topp]|"Incision"-text-8-"incision"-NN-0,"INCISIONS"-text-10-"incisions"-NNS-0|text|3535/8;3665/9|C26.859|
record-68.txt|MMI|1.90|Abdominal Cavity|C0230168|[blor]|"Abdomen"-text-38-"Abdomen"-NNP-0|text|749/7|A01.923.047.025|
record-68.txt|MMI|1.90|Adenine Nucleotide Translocase|C1141015|[bacs, aapp]|"ANT"-text-22-"ant"-JJ-0|text|712/3|x.x.x.x|
record-68.txt|MMI|1.90|Catheterization|C0007430|[topp]|"CATH"-text-139-"cath"-NN-0|text|386/4|E05.157;E02.148|
record-68.txt|MMI|1.90|Consultation|C0009818|[hlca]|"consulted"-text-0-"consulted"-VBN-0|text|1727/9|x.x.x.x|
record-68.txt|MMI|1.90|DFFB protein, human|C1504769|[enzy, aapp]|"CAD"-text-27-"CAD"-NNP-0|text|3348/3|x.x.x.x|
record-68.txt|MMI|1.90|Deidentification|C1707660|[mcha]|"DID"-text-0-"did"-VBD-0|text|1789/3|x.x.x.x|
record-68.txt|MMI|1.90|Dysplastic Nevus|C0205748|[neop]|"NAD"-text-0-"NAD"-NNP-0|text|663/3|x.x.x.x|
record-68.txt|MMI|1.90|Gender|C0079399|[orga]|"sex"-text-24-"Sex"-NN-0|text|83/3|x.x.x.x|
record-68.txt|MMI|1.90|HAC protocol|C0062074|[topp]|"HAD"-text-2-"had"-VBD-0|text|1746/3|x.x.x.x|
record-68.txt|MMI|1.90|NEUTROPHIL ACTIN DYSFUNCTION|C1850380|[dsyn]|"NAD"-text-0-"NAD"-NNP-0|text|663/3|x.x.x.x|
record-68.txt|MMI|1.90|Neuroaxonal Dystrophies|C0338473|[dsyn]|"NAD"-text-0-"NAD"-NNP-0|text|663/3|C10.228.140.744|
record-68.txt|MMI|1.90|ORC3 protein, human|C1366678|[bacs, aapp]|"LAT"-text-26-"lat"-JJ-0|text|718/3|x.x.x.x|
record-68.txt|MMI|1.90|Protonix|C0876139|[orch, phsu]|"Protonix"-text-0-"protonix"-NN-0|text|1902/8|x.x.x.x|
record-68.txt|MMI|1.90|SLC25A4 protein, human|C1442881|[bacs, aapp]|"ANT"-text-22-"ant"-JJ-0|text|712/3|x.x.x.x|
record-68.txt|MMI|1.90|Tracheal Extubation|C0553891|[topp]|"Extubated"-text-0-"extubated"-VBN-0|text|1374/9|x.x.x.x|
record-68.txt|MMI|1.90|Transient Cerebral Ischemia|C0917805|[dsyn]|"TIA"-text-0-"TIA"-NNP-0|text|3434/3|x.x.x.x|
record-68.txt|MMI|1.90|cetrimonium bromide|C0951233|[orch]|"CTAB"-text-20-"ctab"-VBD-0|text|707/4|x.x.x.x|
record-68.txt|MMI|1.88|Diet|C0012155|[food]|"Diet"-text-34-"diet"-NN-0|text|1602/4|G07.203.650.240|
record-68.txt|MMI|1.88|Fever|C0015967|[sosy]|"Fever"-text-0-"fever"-NN-0|text|3502/5|C23.888.119.344|
record-68.txt|MMI|1.88|Heart Sounds|C0018820|[ortf]|"Heart Sounds"-text-32-"heart sounds"-NN-0|text|730/12|G09.330.380.510|
record-68.txt|MMI|1.57|AKR1B10 gene|C1412323|[gngm]|"HIS"-text-0-"his"-PRP$-0,"HIS"-text-56-"his"-PRP$-0,"HIS"-text-68-"his"-PRP$-0|text|1415/3;1655/3;1685/3||
record-68.txt|MMI|1.57|Histidine measurement|C0523697|[lbpr]|"HIS"-text-0-"his"-PRP$-0,"HIS"-text-56-"his"-PRP$-0,"HIS"-text-68-"his"-PRP$-0|text|1415/3;1655/3;1685/3||
record-68.txt|MMI|1.57|Structure of hippocampal fissure|C0228251|[bsoj]|"his"-text-0-"his"-PRP$-0,"his"-text-56-"his"-PRP$-0,"his"-text-68-"his"-PRP$-0|text|1415/3;1655/3;1685/3||
record-68.txt|MMI|1.57|Tooth structure|C0040426|[bpoc]|"Teeth"-text-10-"Teeth"-NNP-0,"Teeth"-text-72-"teeth"-NNS-0,"Teeth"-text-8-"teeth"-NNS-0|text|680/5;1695/5;1761/5||
record-68.txt|MMI|1.44|Abdomen|C0000726|[blor]|"Abdomen"-text-38-"Abdomen"-NNP-0|text|749/7|A01.923.047|
record-68.txt|MMI|1.44|Deglutition|C0011167|[orgf]|"Swallowing"-text-0-"swallowing"-NN-0|text|1503/10|G10.261.178|
record-68.txt|MMI|1.44|Dentistry|C0011438|[bmod]|"Dentistry"-text-0-"Dentistry"-NNP-0|text|1703/9|H02.163;E06|
record-68.txt|MMI|1.44|Edema|C0013604|[patf]|"Edema"-text-50-"edema"-NN-1|text|781/5|C23.888.277|
record-68.txt|MMI|1.44|Farmers|C0221460|[prog]|"FARMER"-text-193-"farmer"-NN-0|text|536/6|M01.526.390|
record-68.txt|MMI|1.44|Lifting|C0206244|[acty]|"Lifting"-text-0-"lifting"-NN-0|text|3680/7|G01.374.669|
record-68.txt|MMI|1.44|Nonprofit Organizations|C0029247|[orgt]|"NPO"-text-4-"NPO"-NNP-0|text|1530/3|N03.540.630|
record-68.txt|MMI|1.44|Physical Examination|C0031809|[hlca]|"Physical Exam"-text-0-"Physical Exam"-NNP-0|text|647/13|E01.370.600|
record-68.txt|MMI|1.44|Sex Behavior|C0036864|[bhvr]|"Sex"-text-24-"Sex"-NN-0|text|83/3|F01.145.802|
record-68.txt|MMI|1.44|sex|C1522384|[orga]|"sex"-text-24-"Sex"-NN-0|text|83/3|G08.686.810|
record-68.txt|MMI|1.42|Wound Healing|C0043240|[orgf]|"Repair"-text-16-"repair"-NN-0|text|694/6|G16.762.891|
record-68.txt|MMI|1.05|ActInformationPrivacyReason <service>|C3245478|[idcn]|"service"-text-30-"Service"-NNP-0,"service"-text-19-"Service"-NNP-0|text|91/7;3318/7||
record-68.txt|MMI|1.05|Bilateral cataracts (disorder)|C0521707|[dsyn]|"Cataracts"-text-159-"cataracts"-NNS-0,"Cataracts"-text-33-"cataracts"-NNS-0|text|437/9;3359/9||
record-68.txt|MMI|1.05|Condition|C0348080|[qlco]|"Condition"-text-8-"condition"-NN-0,"Condition"-text-0-"Condition"-NNP-0|text|1355/9;3448/9||
record-68.txt|MMI|1.05|Condition Domain|C4722256|[inpr]|"CONDITION"-text-8-"condition"-NN-0,"CONDITION"-text-0-"Condition"-NNP-0|text|1355/9;3448/9||
record-68.txt|MMI|1.05|Condition:Find:Pt:^Patient:Nom|C3864998|[clna]|"Condition"-text-8-"condition"-NN-0,"Condition"-text-0-"Condition"-NNP-0|text|1355/9;3448/9||
record-68.txt|MMI|1.05|Delayed Release Dosage Form|C1707664|[bodm]|"Delayed Release"-text-0-"Delayed Release"-NNP-0,"Delayed Release"-text-0-"Delayed Release"-NNP-0|text|2106/15;2304/15||
record-68.txt|MMI|1.05|Excision|C0728940|[topp]|"Removal"-text-165-"removal"-NN-0,"Removal"-text-39-"removal"-NN-0|text|451/7;3373/7||
record-68.txt|MMI|1.05|Exercise-induced angina|C0577698|[sosy]|"Exertional angina"-text-83-"exertional angina"-JJ-0,"Exertional angina"-text-127-"exertional angina"-JJ-0|text|235/17;349/17||
record-68.txt|MMI|1.05|Extraction|C0185115|[topp]|"REMOVAL"-text-165-"removal"-NN-0,"REMOVAL"-text-39-"removal"-NN-0|text|451/7;3373/7||
record-68.txt|MMI|1.05|From|C1517320|[qlco]|"From"-text-0-"from"-IN-0,"From"-text-6-"from"-IN-0|text|1410/4;3530/4||
record-68.txt|MMI|1.05|Good|C0205170|[qlco]|"Well"-text-0-"well"-RB-0,"Good"-text-0-"Good"-JJ-0|text|1793/4;3460/4||
record-68.txt|MMI|1.05|Greater Than|C0439093|[qnco]|"More Than"-text-18-"more than"-JJR-0,"More Than"-text-0-"more than"-JJR-0|text|3559/9;3688/9||
record-68.txt|MMI|1.05|Hypertensive disease|C0020538|[dsyn]|"HTN"-text-155-"HTN"-NNP-0,"HTN"-text-29-"HTN"-NNP-0|text|430/3;3352/3||
record-68.txt|MMI|1.05|Logical Condition|C1705253|[cnce]|"Condition"-text-8-"condition"-NN-0,"Condition"-text-0-"Condition"-NNP-0|text|1355/9;3448/9||
record-68.txt|MMI|1.05|Post|C0687676|[tmco]|"After"-text-20-"after"-IN-0,"Post"-text-0-"post"-VB-0|text|1570/5;1798/4||
record-68.txt|MMI|1.05|Removing (action)|C1883720|[acty]|"Removal"-text-165-"removal"-NN-0,"Removal"-text-39-"removal"-NN-0|text|451/7;3373/7||
record-68.txt|MMI|1.05|Services|C0557854|[ocac]|"service"-text-30-"Service"-NNP-0,"service"-text-19-"Service"-NNP-0|text|91/7;3318/7||
record-68.txt|MMI|1.05|Severe (severity modifier)|C0205082|[fndg]|"Major"-text-85-"Major"-NNP-0,"Severe"-text-143-"severe"-JJ-0|text|253/5;396/6||
record-68.txt|MMI|1.05|Software Service|C2825316|[mnob]|"Service"-text-30-"Service"-NNP-0,"Service"-text-19-"Service"-NNP-0|text|91/7;3318/7||
record-68.txt|MMI|1.05|Swallow (administration method)|C4521686|[ftcn]|"Swallowing"-text-0-"swallowing"-NN-0,"Swallow"-text-18-"swallow"-NN-0|text|1503/10;1562/7||
record-68.txt|MMI|1.05|Transferred to|C4049693|[fndg]|"Transferred to"-text-0-"transferred to"-VBN-0,"Transferred to"-text-4-"transferred to"-VBN-0|text|1304/14;1440/14||
record-68.txt|MMI|1.05|Transferred to:Loc:Pt:^Patient:Nom|C4049692|[clna]|"Transferred to"-text-0-"transferred to"-VBN-0,"Transferred to"-text-4-"transferred to"-VBN-0|text|1304/14;1440/14||
record-68.txt|MMI|1.05|Urinary Incontinence, CTCAE 5.0|C4553924|[fndg]|"Urinary incontinence"-text-185-"urinary incontinence"-JJ-0,"Urinary incontinence"-text-55-"urinary incontinence"-JJ-0|text|498/20;3411/20||
record-68.txt|MMI|1.05|follow-up|C1522577|[hlca]|"Follow Up"-text-6-"follow up"-VB-0,"Followup"-text-0-"Followup"-NN-0|text|3725/9;3750/8||
record-68.txt|MMI|1.05|removal technique|C0015252|[topp]|"Removal"-text-165-"removal"-NN-0,"Removal"-text-39-"removal"-NN-0|text|451/7;3373/7||
record-68.txt|MMI|1.01|Body Fluid Discharge|C0012621|[bdsu]|"Discharge"-text-0-"Discharge"-NNP-0,"Drainage"-text-4-"drainage"-NN-0|text|3438/9;3521/8||
record-68.txt|MMI|1.01|Discharge, body substance|C2926602|[sosy]|"Discharge"-text-0-"Discharge"-NNP-0,"Drainage"-text-4-"drainage"-NN-0|text|3438/9;3521/8||
record-68.txt|MMI|0.98|Automobile Driving|C0004379|[dora]|"Driving"-text-0-"driving"-VBG-0|text|3711/7|I03.125|
record-68.txt|MMI|0.98|Hypersensitivity|C0020517|[patf]|"Allergies"-text-36-"Allergies"-NNP-0|text|116/9|C20.543|
record-68.txt|MMI|0.98|Lung|C0024109|[bpoc]|"Lungs"-text-18-"lungs"-NNS-0|text|701/5|A04.411|
record-68.txt|MMI|0.98|Patients|C0030705|[podg]|"Patient"-text-40-"Patient"-NNP-0|text|128/7|M01.643|
record-68.txt|MMI|0.98|Surgical wound|C0332803|[inpo]|"Incision"-text-8-"incision"-NN-0|text|3535/8|C26.859|
record-68.txt|MMI|0.72|Admission date:Time Stamp -- Date and Time:Point in time:^Patient:Quantitative|C2598112|[clna]|"Admission date"-text-0-"Admission Date"-NNP-0|text|0/14||
record-68.txt|MMI|0.72|Date of admission|C1302393|[tmco]|"Admission date"-text-0-"Admission Date"-NNP-0|text|0/14||
record-68.txt|MMI|0.52|ACOD1 gene|C2239547|[gngm]|"CAD"-text-27-"CAD"-NNP-0|text|3348/3||
record-68.txt|MMI|0.52|Abdominopelvic structure|C1508499|[blor]|"Abdomen"-text-38-"Abdomen"-NNP-0|text|749/7||
record-68.txt|MMI|0.52|Ability to Drive|C4050139|[inpr]|"Driving"-text-0-"driving"-VBG-0|text|3711/7||
record-68.txt|MMI|0.52|Address type - Home|C1549632|[idcn]|"Home"-text-15-"Home"-NNP-0|text|3308/4||
record-68.txt|MMI|0.52|Admission Level of Care Code - Critical|C1547298|[inpr]|"Critical"-text-2-"critical"-JJ-0|text|1335/8||
record-68.txt|MMI|0.52|Alert level - Critical|C1579038|[idcn]|"Critical"-text-2-"critical"-JJ-0|text|1335/8||
record-68.txt|MMI|0.52|Allergy Severity - Severe|C1561581|[fndg]|"Severe"-text-143-"severe"-JJ-0|text|396/6||
record-68.txt|MMI|0.52|Arylsulfatase A, human|C3853627|[enzy, aapp]|"ASA"-text-10-"asa"-NN-0|text|1937/3||
record-68.txt|MMI|0.52|Attending (action)|C1999232|[ftcn]|"attending"-text-58-"Attending"-NNP-0|text|183/9||
record-68.txt|MMI|0.52|Attending (provider role)|C1547429|[prog]|"Attending"-text-58-"Attending"-NNP-0|text|183/9||
record-68.txt|MMI|0.52|B4GALNT2 gene|C1428349|[gngm]|"Cad"-text-27-"CAD"-NNP-0|text|3348/3||
record-68.txt|MMI|0.52|Bathing|C0150141|[topp]|"Baths"-text-0-"baths"-NNS-0|text|3623/5||
record-68.txt|MMI|0.52|Baths (medical device)|C0175640|[medd]|"baths"-text-0-"baths"-NNS-0|text|3623/5||
record-68.txt|MMI|0.52|Benign|C0205183|[qlco]|"Benign"-text-40-"benign"-JJ-0|text|757/6||
record-68.txt|MMI|0.52|Borg Category-Ratio 10 Perceived Exertion Score 5|C4050466|[fndg]|"Severe"-text-143-"severe"-JJ-0|text|396/6||
record-68.txt|MMI|0.52|Bothered by Weight Gain|C4084773|[inpr]|"Weight gain"-text-14-"weight gain"-NN-0|text|3547/11||
record-68.txt|MMI|0.52|Butting|C0233535|[mobd]|"but"-text-4-"but"-CC-0|text|1344/3||
record-68.txt|MMI|0.52|CAD gene|C1413078|[gngm]|"CAD"-text-27-"CAD"-NNP-0|text|3348/3||
record-68.txt|MMI|0.52|CALD1 wt Allele|C3813548|[gngm]|"CAD"-text-27-"CAD"-NNP-0|text|3348/3||
record-68.txt|MMI|0.52|CDISC SDTM Laterality Terminology|C3274523|[ftcn]|"LAT"-text-26-"lat"-JJ-0|text|718/3||
record-68.txt|MMI|0.52|CDISC SDTM Sex of Individual Terminology|C1879943|[inpr]|"SEX"-text-24-"Sex"-NN-0|text|83/3||
record-68.txt|MMI|0.52|CHL1 gene|C1413393|[gngm]|"CALL"-text-0-"Call"-VB-0|text|3492/4||
record-68.txt|MMI|0.52|Caddo language|C0574547|[lang]|"CAD"-text-27-"CAD"-NNP-0|text|3348/3||
record-68.txt|MMI|0.52|Call (Instruction)|C1947967|[ftcn]|"Call"-text-0-"Call"-VB-0|text|3492/4||
record-68.txt|MMI|0.52|Call - dosing instruction fragment|C1720420|[inpr]|"Call"-text-0-"Call"-VB-0|text|3492/4||
record-68.txt|MMI|0.52|Cardiothoracic|C4055270|[spco]|"Cardiothoracic"-text-34-"CARDIOTHORACIC"-NNP-0|text|101/14||
record-68.txt|MMI|0.52|Changed status|C0443172|[qnco]|"Changed"-text-28-"changed"-VBN-0|text|1589/7||
record-68.txt|MMI|0.52|Changing|C0392747|[ftcn]|"Changed"-text-28-"changed"-VBN-0|text|1589/7||
record-68.txt|MMI|0.52|Chief complaint (finding)|C0277786|[fndg]|"Chief complaint"-text-77-"Chief Complaint"-NNP-0|text|217/15||
record-68.txt|MMI|0.52|Collision-Induced Dissociation|C1707433|[resa]|"CAD"-text-27-"CAD"-NNP-0|text|3348/3||
record-68.txt|MMI|0.52|Cranial incision point|C2338258|[blor]|"Incision"-text-8-"incision"-NN-0|text|3535/8||
record-68.txt|MMI|0.52|Critical|C1511545|[qlco]|"Critical"-text-2-"critical"-JJ-0|text|1335/8||
record-68.txt|MMI|0.52|DFFB gene|C1413983|[gngm]|"CAD"-text-27-"CAD"-NNP-0|text|3348/3||
record-68.txt|MMI|0.52|DFFB wt Allele|C4284121|[gngm]|"CAD"-text-27-"CAD"-NNP-0|text|3348/3||
record-68.txt|MMI|0.52|Dairy Cream|C0700385|[food]|"creams"-text-2-"creams"-NNS-0|text|3644/6||
record-68.txt|MMI|0.52|Decision|C0679006|[menp]|"Call"-text-0-"Call"-VB-0|text|3492/4||
record-68.txt|MMI|0.52|DeviceAlertLevel - Critical|C1551396|[fndg]|"Critical"-text-2-"critical"-JJ-0|text|1335/8||
record-68.txt|MMI|0.52|Disabled Person Code - Patient|C1578486|[inpr]|"Patient"-text-40-"Patient"-NNP-0|text|128/7||
record-68.txt|MMI|0.52|Distant|C0443203|[spco]|"Distant"-text-28-"distant"-JJ-0|text|722/7||
record-68.txt|MMI|0.52|Do (activity)|C2828361|[acty]|"Did"-text-0-"did"-VBD-0|text|1789/3||
record-68.txt|MMI|0.52|Does swallow|C0740170|[fndg]|"swallowing"-text-0-"swallowing"-NN-0|text|1503/10||
record-68.txt|MMI|0.52|Drainage procedure|C0013103|[topp]|"Drainage"-text-4-"drainage"-NN-0|text|3521/8||
record-68.txt|MMI|0.52|Drugs - dental services|C3687832|[topp]|"Drugs"-text-56-"Drugs"-NNP-0|text|177/5||
record-68.txt|MMI|0.52|ENG gene|C1366583|[gngm]|"END"-text-10-"End"-NN-0|text|3971/3||
record-68.txt|MMI|0.52|ENG wt Allele|C1704837|[gngm]|"END"-text-10-"End"-NN-0|text|3971/3||
record-68.txt|MMI|0.52|Edema:Finding:Point in time:^Patient:Ordinal|C1717255|[clna]|"Edema"-text-50-"edema"-NN-1|text|781/5||
record-68.txt|MMI|0.52|End|C0444930|[spco]|"End"-text-10-"End"-NN-0|text|3971/3||
record-68.txt|MMI|0.52|Endoglin, human|C0082420|[imft, aapp]|"END"-text-10-"End"-NN-0|text|3971/3||
record-68.txt|MMI|0.52|Entire abdomen|C1281594|[bpoc]|"Abdomen"-text-38-"Abdomen"-NNP-0|text|749/7||
record-68.txt|MMI|0.52|Epidermal cGVHD Score 4|C4761449|[fndg]|"Severe"-text-143-"severe"-JJ-0|text|396/6||
record-68.txt|MMI|0.52|EquipmentAlertLevel - Critical|C1552746|[idcn]|"Critical"-text-2-"critical"-JJ-0|text|1335/8||
record-68.txt|MMI|0.52|Family Hirundinidae|C0326374|[bird]|"Swallow"-text-18-"swallow"-NN-0|text|1562/7||
record-68.txt|MMI|0.52|Family history|C0241889|[fndg]|"Family history"-text-221-"Family History"-NNP-0|text|598/14||
record-68.txt|MMI|0.52|Father (person)|C0015671|[famg]|"Father"-text-225-"father"-NN-0|text|615/6||
record-68.txt|MMI|0.52|Father - courtesy title|C2348513|[cnce]|"Father"-text-225-"father"-NN-0|text|615/6||
record-68.txt|MMI|0.52|Feels warm|C0582051|[fndg]|"Warm"-text-44-"warm"-JJ-0|text|771/4||
record-68.txt|MMI|0.52|Floor (anatomic)|C3714591|[anst]|"Floor"-text-8-"floor"-NN-0|text|1459/5||
record-68.txt|MMI|0.52|Floor - story of building|C1547707|[geoa]|"Floor"-text-8-"floor"-NN-0|text|1459/5||
record-68.txt|MMI|0.52|Follow-Up Information|C4745114|[inpr]|"Follow Up"-text-6-"follow up"-VB-0|text|3725/9||
record-68.txt|MMI|0.52|Follow-up status|C0589120|[fndg]|"follow up"-text-6-"follow up"-VB-0|text|3725/9||
record-68.txt|MMI|0.52|Gender:Type:Point in time:^Patient:Nominal|C0804628|[clna]|"Sex"-text-24-"Sex"-NN-0|text|83/3||
record-68.txt|MMI|0.52|Grade 3 Severe Adverse Event|C1519275|[fndg]|"SEVERE"-text-143-"severe"-JJ-0|text|396/6||
record-68.txt|MMI|0.52|HADH gene|C1415458|[gngm]|"HAD"-text-2-"had"-VBD-0|text|1746/3||
record-68.txt|MMI|0.52|Have|C3539897|[qlco]|"Had"-text-2-"had"-VBD-0|text|1746/3||
record-68.txt|MMI|0.52|Have Gained Weight|C3889988|[inpr]|"Weight Gain"-text-14-"weight gain"-NN-0|text|3547/11||
record-68.txt|MMI|0.52|History of present illness|C0262512|[fndg]|"History of present illness"-text-113-"History of Present Illness"-NN-0|text|307/26||
record-68.txt|MMI|0.52|History of present illness:Finding:Point in time:^Patient:Nominal:Reported|C0488508|[clna]|"History of Present illness"-text-113-"History of Present Illness"-NN-0|text|307/26||
record-68.txt|MMI|0.52|Home environment|C0442519|[spco]|"Home"-text-15-"Home"-NNP-0|text|3308/4||
record-68.txt|MMI|0.52|In Blood|C0005768|[bdsu]|"blood"-text-85-"BLOOD"-NNPS-0|text|863/5||
record-68.txt|MMI|0.52|Indirect exposure mechanism - Father|C1547005|[idcn]|"Father"-text-225-"father"-NN-0|text|615/6||
record-68.txt|MMI|0.52|Instruction [Publication Type]|C0302828|[inpr]|"instructions"-text-0-"Instructions"-NNS-0|text|3759/12||
record-68.txt|MMI|0.52|Instructions|C1442085|[inpr]|"Instructions"-text-0-"Instructions"-NNS-0|text|3759/12||
record-68.txt|MMI|0.52|Instructions:Text:Point in time:^Patient:Narrative|C3263700|[clna]|"Instructions"-text-0-"Instructions"-NNS-0|text|3759/12||
record-68.txt|MMI|0.52|Intensity and Distress 5|C5203119|[fndg]|"Severe"-text-143-"severe"-JJ-0|text|396/6||
record-68.txt|MMI|0.52|International Metastatic Renal Cell Carcinoma Database Consortium (IMDC) Criteria - Poor-Risk Group|C4723750|[inpr]|"Poor"-text-14-"poor"-JJ-0|text|689/4||
record-68.txt|MMI|0.52|L-Type Amino Acid Transporter|C4049852|[bacs, aapp]|"LAT"-text-26-"lat"-JJ-0|text|718/3||
record-68.txt|MMI|0.52|LAT gene|C1425844|[gngm]|"LAT"-text-26-"lat"-JJ-0|text|718/3||
record-68.txt|MMI|0.52|Language Proficiency - Poor|C1561558|[qlco]|"Poor"-text-14-"poor"-JJ-0|text|689/4||
record-68.txt|MMI|0.52|Liquid substance|C0302908|[sbst]|"liquids"-text-40-"liquids"-NNS-0|text|1615/7||
record-68.txt|MMI|0.52|Lives with wife|C2960190|[fndg]|"Lives with wife"-text-211-"lives with wife"-NNS-0|text|567/15||
record-68.txt|MMI|0.52|Lotion|C0544341|[bodm]|"lotions"-text-0-"lotions"-NNS-0|text|3634/7||
record-68.txt|MMI|0.52|Luis|C0445527|[inpr]|"Luis"-text-62-"Luis"-NNP-0|text|195/4||
record-68.txt|MMI|0.52|Mail Claim Party - Patient|C1578481|[idcn]|"Patient"-text-40-"Patient"-NNP-0|text|128/7||
record-68.txt|MMI|0.52|Major|C0205164|[qlco]|"Major"-text-85-"Major"-NNP-0|text|253/5||
record-68.txt|MMI|0.52|Major <insect>|C4318856|[euka]|"Major"-text-85-"Major"-NNP-0|text|253/5||
record-68.txt|MMI|0.52|Medical History|C0262926|[fndg]|"Past Medical History"-text-151-"Past Medical History"-NNP-0|text|407/20||
record-68.txt|MMI|0.52|Medications on admission|C1627937|[fndg]|"Medications on admission"-text-0-"Medications on Admission"-NNS-0|text|1862/24||
record-68.txt|MMI|0.52|Microplate Well|C4283957|[spco]|"Well"-text-0-"well"-RB-0|text|1793/4||
record-68.txt|MMI|0.52|Mongolian language|C0026409|[lang]|"MON"-text-0-"MON"-NNP-0|text|3945/3||
record-68.txt|MMI|0.52|Month of May|C3812381|[tmco]|"May"-text-60-"may"-MD-0|text|1667/3||
record-68.txt|MMI|0.52|NPO - Nothing by mouth|C0419179|[topp]|"NPO"-text-4-"NPO"-NNP-0|text|1530/3||
record-68.txt|MMI|0.52|No known allergy|C0262580|[fndg]|"NO KNOWN ALLERGIES"-text-52-"No Known Allergies"-DT-1|text|155/18||
record-68.txt|MMI|0.52|ORC3 gene|C1335085|[gngm]|"LAT"-text-26-"lat"-JJ-0|text|718/3||
record-68.txt|MMI|0.52|ORC3 wt Allele|C1705279|[gngm]|"LAT"-text-26-"lat"-JJ-0|text|718/3||
record-68.txt|MMI|0.52|Oldest son|C0337571|[famg]|"Oldest son"-text-217-"oldest son"-JJS-0|text|587/10||
record-68.txt|MMI|0.52|Once A Day|C3537736|[phsu]|"Once A Day"-text-14-"once a day"-RB-0|text|3233/10||
record-68.txt|MMI|0.52|Once daily|C0556983|[tmco]|"Once a day"-text-14-"once a day"-RB-0|text|3233/10||
record-68.txt|MMI|0.52|Operative Surgical Procedures|C0543467|[topp]|"Surgical"-text-87-"Surgical"-NNP-0|text|259/8|E04|
record-68.txt|MMI|0.52|Organization unit type - Home|C1547197|[orgt]|"Home"-text-15-"Home"-NNP-0|text|3308/4||
record-68.txt|MMI|0.52|PLXNA3 gene|C1418662|[gngm]|"SEX"-text-24-"Sex"-NN-0|text|83/3||
record-68.txt|MMI|0.52|PMH - past medical history|C0455458|[fndg]|"Past medical history"-text-151-"Past Medical History"-NNP-0|text|407/20||
record-68.txt|MMI|0.52|Patient Condition Code - Critical|C1547308|[inpr]|"Critical"-text-2-"critical"-JJ-0|text|1335/8||
record-68.txt|MMI|0.52|Patient Condition Code - Poor|C1547310|[inpr]|"Poor"-text-14-"poor"-JJ-0|text|689/4||
record-68.txt|MMI|0.52|Patient Condition Code - Stable|C1547311|[inpr]|"Stable"-text-6-"stable"-JJ-0|text|1348/6||
record-68.txt|MMI|0.52|Patient date of birth|C0421451|[tmco]|"Date of birth"-text-14-"Date of Birth"-NNP-0|text|56/13||
record-68.txt|MMI|0.52|Pedal pulse|C0232157|[ortf]|"pedal pulses"-text-65-"pedal pulses"-NN-0|text|810/12||
record-68.txt|MMI|0.52|Person location type - Home|C1548530|[spco]|"Home"-text-15-"Home"-NNP-0|text|3308/4||
record-68.txt|MMI|0.52|Pharmaceutical Preparations|C0013227|[phsu]|"Drugs"-text-56-"Drugs"-NNP-0|text|177/5|D26|
record-68.txt|MMI|0.52|Poor - grade value|C0542537|[qlco]|"Poor"-text-14-"poor"-JJ-0|text|689/4||
record-68.txt|MMI|0.52|Poor - qualifier|C2700379|[qlco]|"Poor"-text-14-"poor"-JJ-0|text|689/4||
record-68.txt|MMI|0.52|Post Device|C1704687|[mnob]|"Post"-text-0-"post"-VB-0|text|1798/4||
record-68.txt|MMI|0.52|Pounds|C0439219|[qnco]|"Pounds"-text-22-"pounds"-NNS-0|text|3571/6||
record-68.txt|MMI|0.52|Powder dose form|C0032861|[bodm]|"Powders"-text-6-"powders"-NNS-0|text|3654/7||
record-68.txt|MMI|0.52|Recommendation|C0034866|[idcn]|"Recommended"-text-2-"recommended"-VBD-0|text|1518/11||
record-68.txt|MMI|0.52|Red color|C1260956|[qlco]|"redness"-text-0-"redness"-NN-0|text|3510/7||
record-68.txt|MMI|0.52|Redness|C0332575|[fndg]|"Redness"-text-0-"redness"-NN-0|text|3510/7||
record-68.txt|MMI|0.52|Regulatory Report|C3273238|[inpr]|"Report"-text-14-"Report"-NNP-0|text|3978/6||
record-68.txt|MMI|0.52|Relationship - Father|C1546503|[idcn]|"Father"-text-225-"father"-NN-0|text|615/6||
record-68.txt|MMI|0.52|Relationship modifier - Patient|C1578484|[idcn]|"Patient"-text-40-"Patient"-NNP-0|text|128/7||
record-68.txt|MMI|0.52|Removed|C0849355|[qlco]|"Removed"-text-10-"removed"-VBD-0|text|1767/7||
record-68.txt|MMI|0.52|Report (document)|C0684224|[inpr]|"Report"-text-14-"Report"-NNP-0|text|3978/6||
record-68.txt|MMI|0.52|Report source - Patient|C1578483|[idcn]|"Patient"-text-40-"Patient"-NNP-0|text|128/7||
record-68.txt|MMI|0.52|Report:Finding:Point in time:{Setting}:Document:{Role}|C4255046|[clna]|"Report"-text-14-"Report"-NNP-0|text|3978/6||
record-68.txt|MMI|0.52|Reporting|C0700287|[hlca]|"report"-text-14-"Report"-NNP-0|text|3978/6||
record-68.txt|MMI|0.52|SHORT STATURE, ONYCHODYSPLASIA, FACIAL DYSMORPHISM, AND HYPOTRICHOSIS SYNDROME|C3542022|[dsyn]|"SOFT"-text-44-"soft"-JJ-0|text|1627/4||
record-68.txt|MMI|0.52|SLC25A4 gene|C1335833|[gngm]|"ANT"-text-22-"ant"-JJ-0|text|712/3||
record-68.txt|MMI|0.52|SLC25A4 wt Allele|C1705600|[gngm]|"ANT"-text-22-"ant"-JJ-0|text|712/3||
record-68.txt|MMI|0.52|SLC35G1 gene|C3469826|[gngm]|"POST"-text-0-"post"-VB-0|text|1798/4||
record-68.txt|MMI|0.52|SPNS1 gene|C2240043|[gngm]|"LAT"-text-26-"lat"-JJ-0|text|718/3||
record-68.txt|MMI|0.52|Severe - Severity of Illness Code|C1547227|[inpr]|"Severe"-text-143-"severe"-JJ-0|text|396/6||
record-68.txt|MMI|0.52|Severe - Triage Code|C1547231|[inpr]|"Severe"-text-143-"severe"-JJ-0|text|396/6||
record-68.txt|MMI|0.52|Severe Extremity Pain|C4050465|[fndg]|"Severe"-text-143-"severe"-JJ-0|text|396/6||
record-68.txt|MMI|0.52|Severe Hallucination|C4722466|[fndg]|"Severe"-text-143-"severe"-JJ-0|text|396/6||
record-68.txt|MMI|0.52|Sexual intercourse - finding|C1314687|[fndg]|"Sex"-text-24-"Sex"-NN-0|text|83/3||
record-68.txt|MMI|0.52|Short insular gyrus|C0262329|[bpoc]|"SIG"-text-0-"Sig"-NNP-0|text|3207/3||
record-68.txt|MMI|0.52|Shower (physical object)|C0541748|[mnob]|"Shower"-text-0-"Shower"-NNP-0|text|3611/6||
record-68.txt|MMI|0.52|Social History|C3714536|[fndg]|"Social History"-text-189-"Social History"-NNP-0|text|519/14||
record-68.txt|MMI|0.52|Social and personal history|C0424945|[fndg]|"Social history"-text-189-"Social History"-NNP-0|text|519/14||
record-68.txt|MMI|0.52|Soft|C0205358|[qlco]|"Soft"-text-44-"soft"-JJ-0|text|1627/4||
record-68.txt|MMI|0.52|Solid|C0205208|[qlco]|"solids"-text-46-"solids"-NNS-0|text|1632/6||
record-68.txt|MMI|0.52|Specimen Quality - Poor|C1561559|[qlco]|"Poor"-text-14-"poor"-JJ-0|text|689/4||
record-68.txt|MMI|0.52|Specimen Source Codes - Patient|C1578485|[inpr]|"Patient"-text-40-"Patient"-NNP-0|text|128/7||
record-68.txt|MMI|0.52|Specimen Type - Patient|C1550655|[bdsu]|"Patient"-text-40-"Patient"-NNP-0|text|128/7||
record-68.txt|MMI|0.52|Stable status|C0205360|[qlco]|"Stable"-text-6-"stable"-JJ-0|text|1348/6||
record-68.txt|MMI|0.52|Status post|C0231290|[tmco]|"After"-text-20-"after"-IN-0|text|1570/5||
record-68.txt|MMI|0.52|Stop (qualifier value)|C2746065|[tmco]|"End"-text-10-"End"-NN-0|text|3971/3||
record-68.txt|MMI|0.52|Surgeon|C0582175|[prog]|"Surgeon"-text-10-"surgeon"-NN-0|text|3740/7||
record-68.txt|MMI|0.52|Surgical service|C0587668|[hlca]|"Surgical"-text-87-"Surgical"-NNP-0|text|259/8||
record-68.txt|MMI|0.52|Surveillance Implementation Group|C1515092|[hcro]|"SIG"-text-0-"Sig"-NNP-0|text|3207/3||
record-68.txt|MMI|0.52|Swallow - dosing instruction imperative|C1706486|[ftcn]|"Swallow"-text-18-"swallow"-NN-0|text|1562/7||
record-68.txt|MMI|0.52|Swallowing G-code|C4281783|[inpr]|"Swallowing"-text-0-"swallowing"-NN-0|text|1503/10||
record-68.txt|MMI|0.52|Swallowing:-:Point in time:^Patient:-|C2598159|[clna]|"Swallowing"-text-0-"swallowing"-NN-0|text|1503/10||
record-68.txt|MMI|0.52|TOB1 gene|C1420851|[gngm]|"TOB"-text-201-"tob"-SYM-0|text|556/3||
record-68.txt|MMI|0.52|Tacca leontopetaloides|C1054154|[plnt]|"tia"-text-0-"TIA"-NNP-0|text|3434/3||
record-68.txt|MMI|0.52|Then|C1883708|[tmco]|"Then"-text-10-"then"-RB-0|text|1539/4||
record-68.txt|MMI|0.52|Then - dosing instruction fragment|C1720594|[inpr]|"Then"-text-10-"then"-RB-0|text|1539/4||
record-68.txt|MMI|0.52|United States Military Commissioned Officer O4|C4521762|[clas]|"Major"-text-85-"Major"-NNP-0|text|253/5||
record-68.txt|MMI|0.52|Until|C1720302|[inpr]|"Until"-text-2-"until"-IN-0|text|3719/5||
record-68.txt|MMI|0.52|Varicosity|C0042345|[dsyn]|"Varicosities"-text-56-"varicosities"-NNS-1|text|792/12||
record-68.txt|MMI|0.52|Vasoactive|C1980011|[qlco]|"Vasoactive"-text-0-"vasoactive"-JJ-0|text|1419/10||
record-68.txt|MMI|0.52|Veterinary Patient|C1705908|[orgm]|"Patient"-text-40-"Patient"-NNP-0|text|128/7||
record-68.txt|MMI|0.52|Video Media|C3463807|[inpr]|"Video"-text-16-"video"-NN-0|text|1556/5||
record-68.txt|MMI|0.52|Visit User Code - Home|C1548341|[inpr]|"Home"-text-15-"Home"-NNP-0|text|3308/4||
record-68.txt|MMI|0.52|WHO Temperature/Humidity Storage Condition|C3272598|[qlco]|"WHO"-text-0-"who"-WP-0|text|1514/3||
record-68.txt|MMI|0.52|Weight Gain, CTCAE|C2911647|[fndg]|"Weight gain"-text-14-"weight gain"-NN-0|text|3547/11||
record-68.txt|MMI|0.52|Well|C3146287|[mnob]|"Well"-text-0-"well"-RB-0|text|1793/4||
record-68.txt|MMI|0.52|Well Marginated Nodule|C4761387|[fndg]|"Well"-text-0-"well"-RB-0|text|1793/4||
record-68.txt|MMI|0.52|White Blood Cell Count procedure|C0023508|[lbpr]|"WBC"-text-87-"WBC"-NNPS-0|text|869/3||
record-68.txt|MMI|0.52|With laterality|C0332304|[spco]|"LAT"-text-26-"lat"-JJ-0|text|718/3||
record-68.txt|MMI|0.52|cyclophosphamide/dacarbazine/doxorubicin protocol|C0170509|[topp]|"CAD"-text-27-"CAD"-NNP-0|text|3348/3||
record-68.txt|MMI|0.52|cytarabine/daunorubicin protocol|C0280573|[topp]|"CAD"-text-27-"CAD"-NNP-0|text|3348/3||
record-68.txt|MMI|0.52|end - ActRelationshipCheckpoint|C1561490|[ftcn]|"end"-text-10-"End"-NN-0|text|3971/3||
record-68.txt|MMI|0.52|floor (object)|C0016249|[mnob]|"Floor"-text-8-"floor"-NN-0|text|1459/5||
record-68.txt|MMI|0.52|home health encounter|C1553498|[hlca]|"Home"-text-15-"Home"-NNP-0|text|3308/4||
record-68.txt|MMI|0.52|nicotinamide adenine dinucleotide (NAD)|C0027270|[bacs, nnon, phsu]|"NAD"-text-0-"NAD"-NNP-0|text|663/3||
record-68.txt|MMI|0.52|peripheral blood|C0229664|[bdsu]|"Blood"-text-85-"BLOOD"-NNPS-0|text|863/5||
record-68.txt|MMI|0.52|seen|C0205397|[qlco]|"seen"-text-0-"seen"-VBN-0|text|1484/4||
record-68.txt|MMI|0.52|solid substance|C0302909|[sbst]|"solids"-text-46-"solids"-NNS-0|text|1632/6||
record-68.txt|MMI|0.52|videocassette|C0042655|[mnob]|"Video"-text-16-"video"-NN-0|text|1556/5||
record-68.txt|MMI|0.52|warming process|C0687712|[npop]|"warm"-text-44-"warm"-JJ-0|text|771/4||
record-68.txt|MMI|0.50|1 (finding)|C5201140|[fndg]|"One"-text-0-"One"-CD-0|text|3213/3||
record-68.txt|MMI|0.50|1 Month|C1442451|[tmco]|"1 Month"-text-0-"1 month"-CD-0|text|2565/7||
record-68.txt|MMI|0.50|1 Week|C1442452|[tmco]|"One week"-text-38-"one week"-CD-0|text|3600/8||
record-68.txt|MMI|0.50|10 pounds|C3845310|[fndg]|"10 pounds"-text-0-"10 pounds"-CD-1|text|3698/9||
record-68.txt|MMI|0.50|184|C4517616|[qnco]|"184"-text-4-"184"-CD-0|text|670/3||
record-68.txt|MMI|0.50|Anterior|C0205094|[spco]|"front"-text-6-"front"-JJ-0|text|1755/5||
record-68.txt|MMI|0.50|BRAF Gene Rearrangement|C4727483|[comd]|"Positive"-text-132-"positive"-JJ-0|text|370/8||
record-68.txt|MMI|0.50|Basal Diet|C2983588|[food]|"DIET"-text-34-"diet"-NN-0|text|1602/4||
record-68.txt|MMI|0.50|CDISC SDTM Discharge Disposition Terminology|C3541348|[inpr]|"Discharge Disposition"-text-11-"Discharge Disposition"-NNP-0|text|3284/21||
record-68.txt|MMI|0.50|Diet (animal life circumstance)|C3668949|[food]|"Diet"-text-34-"diet"-NN-0|text|1602/4||
record-68.txt|MMI|0.50|Discharge date|C2361123|[tmco]|"Discharge date"-text-0-"Discharge Date"-NNP-0|text|28/14||
record-68.txt|MMI|0.50|Discharge date:Time Stamp -- Date and Time:Point in time:^Patient:Quantitative|C2361122|[clna]|"Discharge date"-text-0-"Discharge Date"-NNP-0|text|28/14||
record-68.txt|MMI|0.50|Discharge disposition:Type:Point in time:^Patient:Nominal|C2708314|[clna]|"Discharge disposition"-text-11-"Discharge Disposition"-NNP-0|text|3284/21||
record-68.txt|MMI|0.50|Discharge instructions|C4282220|[inpr]|"Discharge instructions"-text-0-"Discharge Instructions"-NNP-0|text|3467/22||
record-68.txt|MMI|0.50|Discharge instructions:Find:Pt:{Setting}:Doc:{Provider}|C3669312|[clna]|"Discharge instructions"-text-0-"Discharge Instructions"-NNP-0|text|3467/22||
record-68.txt|MMI|0.50|Discharge, Body Substance, Sample|C0600083|[bdsu]|"Discharge"-text-0-"Discharge"-NNP-0|text|3438/9||
record-68.txt|MMI|0.50|Disposition of patient discharged|C4759848|[fndg]|"Discharge disposition"-text-11-"Discharge Disposition"-NNP-0|text|3284/21||
record-68.txt|MMI|0.50|Fever symptoms (finding)|C0424755|[fndg]|"Fever"-text-0-"fever"-NN-0|text|3502/5||
record-68.txt|MMI|0.50|Fever, CTCAE|C4552740|[fndg]|"Fever"-text-0-"fever"-NN-0|text|3502/5||
record-68.txt|MMI|0.50|Five|C0205451|[qnco]|"Five"-text-32-"five"-CD-0|text|3592/4||
record-68.txt|MMI|0.50|Four|C0205450|[qnco]|"Four"-text-4-"four"-CD-0|text|1750/4||
record-68.txt|MMI|0.50|Heart sounds:Find:Pt:Heart:Nom|C4050434|[clna]|"Heart sounds"-text-32-"heart sounds"-NN-0|text|730/12||
record-68.txt|MMI|0.50|Hydrochlorothiazide 25 MG|C0986526|[clnd]|"Hydrochlorothiazide 25 MG"-text-0-"Hydrochlorothiazide 25 mg"-NNP-0|text|3174/25||
record-68.txt|MMI|0.50|Invasive procedure|C4048276|[topp]|"Invasive procedure"-text-93-"Invasive Procedure"-NNP-0|text|271/18||
record-68.txt|MMI|0.50|Language Ability Proficiency - Good|C1551023|[idcn]|"Good"-text-0-"Good"-JJ-0|text|3460/4||
record-68.txt|MMI|0.50|Language Proficiency - Good|C1610541|[idcn]|"Good"-text-0-"Good"-JJ-0|text|3460/4||
record-68.txt|MMI|0.50|Left|C0205091|[spco]|"Left"-text-47-"left"-VBN-0|text|3396/4||
record-68.txt|MMI|0.50|Left sided|C0443246|[spco]|"Left"-text-47-"left"-VBN-0|text|3396/4||
record-68.txt|MMI|0.50|Loose|C0205407|[qlco]|"Loose"-text-70-"loose"-JJ-0|text|1689/5||
record-68.txt|MMI|0.50|Medication.discharge|C0806915|[fndg]|"Discharge medications"-text-14-"Discharge Medications"-NNP-0|text|1941/21||
record-68.txt|MMI|0.50|One|C0205447|[qnco]|"One"-text-0-"One"-CD-0|text|3213/3||
record-68.txt|MMI|0.50|One day|C3844320|[tmco]|"One day"-text-28-"one day"-CD-0|text|3581/7||
record-68.txt|MMI|0.50|Open approach|C0348025|[spco]|"Invasive procedure"-text-93-"Invasive Procedure"-NNP-0|text|271/18||
record-68.txt|MMI|0.50|Positive|C1446409|[fndg]|"Positive"-text-132-"positive"-JJ-0|text|370/8||
record-68.txt|MMI|0.50|Positive Charge|C2825490|[qlco]|"Positive"-text-132-"positive"-JJ-0|text|370/8||
record-68.txt|MMI|0.50|Positive Finding|C1514241|[fndg]|"Positive"-text-132-"positive"-JJ-0|text|370/8||
record-68.txt|MMI|0.50|Positive Number|C3812269|[qnco]|"Positive"-text-132-"positive"-JJ-0|text|370/8||
record-68.txt|MMI|0.50|Ready for discharge|C2314972|[fndg]|"Ready for discharge"-text-6-"ready for discharge"-JJ-0|text|1826/19||
record-68.txt|MMI|0.50|Repair|C4319951|[ftcn]|"Repair"-text-16-"repair"-NN-0|text|694/6||
record-68.txt|MMI|0.50|Repair - Remedial Action|C1705181|[hlca]|"Repair"-text-16-"repair"-NN-0|text|694/6||
record-68.txt|MMI|0.50|Special Diet Therapy|C1519433|[topp]|"DIET"-text-34-"diet"-NN-0|text|1602/4||
record-68.txt|MMI|0.50|Specimen Quality - Good|C1561563|[qlco]|"Good"-text-0-"Good"-JJ-0|text|3460/4||
record-68.txt|MMI|0.50|Specimen Source Codes - Discharge|C1546601|[inpr]|"Discharge"-text-0-"Discharge"-NNP-0|text|3438/9||
record-68.txt|MMI|0.50|Surgical repair|C0374711|[topp]|"Repair"-text-16-"repair"-NN-0|text|694/6||
record-68.txt|MMI|0.50|Table Cell Horizontal Align - left|C1552822|[ftcn]|"left"-text-47-"left"-VBN-0|text|3396/4||
record-68.txt|MMI|0.50|Thin (qualifier value)|C0205168|[qlco]|"Thin"-text-38-"thin"-JJ-0|text|1610/4||
record-68.txt|MMI|0.50|Unknown age|C3846629|[fndg]|"Unknown age"-text-0-"unknown age"-JJ-0|text|635/11||
record-68.txt|MMI|0.50|diet - supply|C1549512|[ftcn]|"diet"-text-34-"diet"-NN-0|text|1602/4||
record-68.txt|MMI|0.50|discharge diagnosis|C1555319|[fndg]|"discharge diagnosis"-text-23-"Discharge Diagnosis"-NNP-0|text|3326/19||
record-68.txt|MMI|0.50|limited by - ActRelationshipType|C1549479|[idcn]|"limited by"-text-66-"limited by"-VBN-0|text|1674/10||
