record-73.txt|MMI|64.71|Wiskott-Aldrich Syndrome|C0043194|[dsyn]|"WAS"-text-16-"was"-VBD-0,"WAS"-text-0-"was"-VBD-0,"WAS"-text-36-"was"-VBD-0,"WAS"-text-0-"was"-VBD-0|text|2427/3;2474/3;2572/3;2597/3|C20.673.627.900;C15.378.553.546.605.900;C16.320.798.875;C20.673.795.875;C16.320.322.937;C15.378.463.960;C16.320.099.970;C15.378.100.100.970|
record-73.txt|MMI|27.71|X-Ray Computed Tomography|C0040405|[diap]|"CT SCAN"-text-0-"Ct scan"-NNP-0,"CT SCAN"-text-0-"CT scan"-NNP-0|text|2362/7;3556/7|E01.370.350.700.700.810;E01.370.350.350.810;E01.370.350.700.810.810;E01.370.350.600.350.700.810;E01.370.350.825.810.810|
record-73.txt|MMI|17.56|Kidney Calculi|C0022650|[dsyn]|"Nephrolithiasis"-text-27-"Nephrolithiasis"-NNP-0|text|1073/15|C23.300.175.850.550;C13.351.968.967.249.500;C12.777.967.500.503;C12.777.967.249.500;C13.351.968.967.500.503;C13.351.968.419.600.500;C12.777.419.600.500|
record-73.txt|MMI|16.83|Primary Care Physicians|C0033131|[prog]|"PCP"-text-18-"PCP"-NNP-0,"PCP"-text-0-"PCP"-NN-0,"PCP"-text-2-"PCP"-NN-0,"PCP"-text-2-"PCP"-NNP-0|text|3267/3;3776/3;3844/3;3990/3|N02.360.810.795;M01.526.485.810.800|
record-73.txt|MMI|14.99|Pentachlorophenol|C0030855|[hops, orch]|"PCP"-text-18-"PCP"-NNP-0,"PCP"-text-0-"PCP"-NN-0,"PCP"-text-2-"PCP"-NN-0,"PCP"-text-2-"PCP"-NNP-0|text|3267/3;3776/3;3844/3;3990/3|D02.455.426.559.389.657.190.633|
record-73.txt|MMI|14.80|Computed Tomographic Colonography|C0935912|[diap]|"Virtual Colonoscopy"-text-4-"virtual colonoscopy"-JJ-0|text|2258/19|E01.370.350.600.350.700.810.180;E01.370.350.700.810.810.180;E01.370.350.700.700.810.180;E01.370.350.350.810.180;E01.370.372.230|
record-73.txt|MMI|13.00|Andorra|C0002838|[geoa]|"AND"-text-0-"and"-CC-0,"AND"-text-6-"and"-CC-0,"AND"-text-20-"and"-CC-0,"AND"-text-30-"and"-CC-0,"AND"-text-0-"and"-CC-0,"AND"-text-16-"and"-CC-0,"AND"-text-2-"and"-CC-0,"AND"-text-0-"and"-CC-0,"AND"-text-6-"and"-CC-0|text|655/3;703/3;881/3;914/3;2251/3;2315/3;2485/3;3399/3;3444/3|Z01.542.049|
record-73.txt|MMI|11.11|Patient Discharge|C0030685|[hlca]|"Discharged"-text-38-"discharged"-VBN-0|text|2576/10|N04.590.233.727.210.125;E02.760.169.125;N02.421.585.169.125;E02.760.400.610;N02.421.585.400.610|
record-73.txt|MMI|11.11|colonoscopy|C0009378|[diap]|"colonoscopy"-text-0-"colonoscopy"-NN-0|text|2679/11|E04.502.250.250.250.160;E01.370.388.250.250.250.160;E01.370.372.250.250.200;E04.210.240.250.160|
record-73.txt|MMI|9.71|Records|C0034869|[inpr]|"Records"-text-6-"records"-NNS-0|text|2497/7|N06.850.520.308.940;L01.399.250.900;N04.452.859;N05.715.360.300.715;E05.318.308.940|
record-73.txt|MMI|9.27|Risk|C0035647|[idcn]|"Risk of"-text-28-"risk of"-NN-0|text|3491/7|G17.680.750;N06.850.520.830.600.800;N05.715.360.750.625.700;E05.318.740.600.800|
record-73.txt|MMI|8.35|Nephrolithiasis|C0392525|[dsyn]|"Nephrolithiasis"-text-27-"Nephrolithiasis"-NNP-0|text|1073/15|C12.777.419.600;C13.351.968.967.249;C12.777.967.249;C13.351.968.419.600|
record-73.txt|MMI|7.62|Papillary craniopharyngioma|C0431128|[neop]|"PCP"-text-18-"PCP"-NNP-0,"PCP"-text-0-"PCP"-NN-0,"PCP"-text-2-"PCP"-NN-0,"PCP"-text-2-"PCP"-NNP-0|text|3267/3;3776/3;3844/3;3990/3|x.x.x.x|
record-73.txt|MMI|7.62|Phencyclidine|C0031381|[orch, phsu]|"PCP"-text-18-"PCP"-NNP-0,"PCP"-text-0-"PCP"-NN-0,"PCP"-text-2-"PCP"-NN-0,"PCP"-text-2-"PCP"-NNP-0|text|3267/3;3776/3;3844/3;3990/3|D03.383.621.699|
record-73.txt|MMI|7.62|WAS protein, human|C1565156|[bacs, aapp]|"WAS"-text-16-"was"-VBD-0,"WAS"-text-0-"was"-VBD-0,"WAS"-text-36-"was"-VBD-0,"WAS"-text-0-"was"-VBD-0|text|2427/3;2474/3;2572/3;2597/3|x.x.x.x|
record-73.txt|MMI|7.12|Hemorrhage|C0019080|[patf]|"Bleeding"-text-0-"bleeding"-VBG-1,"bleed"-text-0-"bleed"-NN-0,"Bleeding"-text-0-"bleeding"-VBG-0,"Bleeding"-text-0-"bleeding"-NN-0,"Bleeding"-text-30-"bleeding"-VBG-0|text|1240/8;2176/5;3304/8;3378/8;3499/8|C23.550.414|
record-73.txt|MMI|6.97|Blood|C0005767|[bdsu]|"Blood"-text-0-"blood"-NN-0|text|516/5|A12.207.152;A15.145;Y01.010;Y08.040.020;Y01.010;Y08.040.020|
record-73.txt|MMI|5.71|Lovenox|C0728963|[orch, phsu]|"Lovenox"-text-0-"Lovenox"-NNP-0,"Lovenox"-text-0-"Lovenox"-NNP-0,"Lovenox"-text-8-"lovenox"-NN-0|text|2589/7;2765/7;3237/7|x.x.x.x|
record-73.txt|MMI|5.59|Speech|C0037817|[orgf]|"Talking"-text-12-"talking"-VBG-0|text|3251/7|G11.561.812;L01.559.423.676;F01.145.209.908.677|
record-73.txt|MMI|5.57|Pain|C0030193|[sosy]|"Pain"-text-0-"pain"-NN-1|text|761/4|G11.561.790.444;F02.830.816.444;C23.888.592.612|
record-73.txt|MMI|5.57|Sigmoid colon|C0227391|[bpoc]|"Sigmoid"-text-12-"sigmoid"-JJ-0|text|2296/7|A03.556.249.249.356.668;A03.556.124.526.356.668|
record-73.txt|MMI|4.71|And|C1515981|[idcn]|"And"-text-0-"and"-CC-0,"And"-text-6-"and"-CC-0,"And"-text-20-"and"-CC-0,"And"-text-30-"and"-CC-0,"And"-text-0-"and"-CC-0,"And"-text-16-"and"-CC-0,"And"-text-2-"and"-CC-0,"And"-text-0-"and"-CC-0,"And"-text-6-"and"-CC-0|text|655/3;703/3;881/3;914/3;2251/3;2315/3;2485/3;3399/3;3444/3||
record-73.txt|MMI|4.71|And - dosing instruction fragment|C1706368|[inpr]|"And"-text-0-"and"-CC-0,"And"-text-6-"and"-CC-0,"And"-text-20-"and"-CC-0,"And"-text-30-"and"-CC-0,"And"-text-0-"and"-CC-0,"And"-text-16-"and"-CC-0,"And"-text-2-"and"-CC-0,"And"-text-0-"and"-CC-0,"And"-text-6-"and"-CC-0|text|655/3;703/3;881/3;914/3;2251/3;2315/3;2485/3;3399/3;3444/3||
record-73.txt|MMI|4.71|RelationshipConjunction - and|C1550557|[inpr]|"and"-text-0-"and"-CC-0,"and"-text-6-"and"-CC-0,"and"-text-20-"and"-CC-0,"and"-text-30-"and"-CC-0,"and"-text-0-"and"-CC-0,"and"-text-16-"and"-CC-0,"and"-text-2-"and"-CC-0,"and"-text-0-"and"-CC-0,"and"-text-6-"and"-CC-0|text|655/3;703/3;881/3;914/3;2251/3;2315/3;2485/3;3399/3;3444/3||
record-73.txt|MMI|4.67|Erythrocytes|C0014792|[cell]|"RBC"-text-0-"RBC"-NNP-0|text|545/3|A11.443.240;A15.145.229.334;A11.118.290|
record-73.txt|MMI|3.81|Colonic Diseases|C0009373|[dsyn]|"Colon"-text-0-"colon"-NN-0,"Colon"-text-2-"colon"-NN-0|text|2229/5;3328/5|C06.405.469.158|
record-73.txt|MMI|3.81|Hematoma|C0018944|[patf]|"Hematoma"-text-12-"hematoma"-NN-0,"Hematoma"-text-16-"hematoma"-NN-0|text|2416/8;3623/8|C23.550.414.838|
record-73.txt|MMI|3.75|Coitus|C0009253|[orgf]|"Sex"-text-24-"Sex"-NN-0|text|83/3|G08.686.784.041;F01.145.802.188|
record-73.txt|MMI|3.29|Dyspnea|C0013404|[sosy]|"SOB"-text-12-"SOB"-NNP-0|text|779/3|C08.618.326;C23.888.852.371|
record-73.txt|MMI|3.29|Physical activity|C0026606|[dora]|"activity"-text-0-"activity"-NN-0|text|551/8|G11.427.410.698.277;I03.350|
record-73.txt|MMI|3.29|Tic disorder|C0040188|[mobd]|"TICS"-text-2-"tics"-NNS-0|text|526/4|F03.625.992;C10.228.662.825|
record-73.txt|MMI|3.14|Have|C3539897|[qlco]|"Has"-text-2-"has"-VBZ-0,"Have"-text-0-"have"-VBP-0,"Have"-text-8-"have"-VBP-0,"Has"-text-0-"has"-VBZ-0,"Have"-text-0-"have"-VBP-0,"Had"-text-22-"had"-VBD-0|text|622/3;3297/4;3342/4;3387/3;3407/4;3640/3||
record-73.txt|MMI|3.14|In addition to|C0332287|[ftcn]|"With"-text-38-"with"-IN-0,"With"-text-0-"with"-IN-0,"With"-text-0-"with"-IN-0,"With"-text-40-"with"-IN-0,"With"-text-0-"with"-IN-0,"With"-text-0-"with"-IN-0|text|944/4;2622/4;2691/4;3531/4;3766/4;3980/4||
record-73.txt|MMI|3.14|With - dosing instruction fragment|C1705690|[inpr]|"With"-text-38-"with"-IN-0,"With"-text-0-"with"-IN-0,"With"-text-0-"with"-IN-0,"With"-text-40-"with"-IN-0,"With"-text-0-"with"-IN-0,"With"-text-0-"with"-IN-0|text|944/4;2622/4;2691/4;3531/4;3766/4;3980/4||
record-73.txt|MMI|2.95|Patients|C0030705|[podg]|"Patient"-text-40-"Patient"-NNP-0,"Patient"-text-0-"patient"-NN-0,"Patient"-text-34-"patient"-NN-0|text|122/7;2466/7;2564/7|M01.643|
record-73.txt|MMI|2.89|Abdomen|C0000726|[blor]|"abd"-text-0-"abd"-NN-1,"Abdomen"-text-0-"abdomen"-NN-0|text|757/3;3572/7|A01.923.047|
record-73.txt|MMI|2.89|Outpatients|C0029921|[podg]|"Outpatient"-text-0-"outpatient"-NN-0,"Outpatient"-text-0-"outpatient"-NN-0|text|2665/10;3813/10|M01.643.630|
record-73.txt|MMI|2.62|Hematocrit procedure|C0018935|[lbpr]|"HCT"-text-0-"Hct"-NNP-0,"HCT"-text-0-"Hct"-NNP-0,"Hematocrit"-text-0-"hematocrit"-NN-0,"HCT"-text-0-"Hct"-NNP-0,"Hematocrit"-text-10-"hematocrit"-NN-0|text|447/3;618/3;2448/10;3159/3;3453/10||
record-73.txt|MMI|2.37|United Arab Emirates|C0041698|[geoa]|"ARE"-text-22-"are"-VBP-0|text|3484/3|Z01.252.245.500.900|
record-73.txt|MMI|2.09|PCP - Hallucinogen-Related Disorder|C2919094|[mobd]|"PCP"-text-18-"PCP"-NNP-0,"PCP"-text-0-"PCP"-NN-0,"PCP"-text-2-"PCP"-NN-0,"PCP"-text-2-"PCP"-NNP-0|text|3267/3;3776/3;3844/3;3990/3||
record-73.txt|MMI|2.09|PGPEP1 gene|C1422070|[gngm]|"PCP"-text-18-"PCP"-NNP-0,"PCP"-text-0-"PCP"-NN-0,"PCP"-text-2-"PCP"-NN-0,"PCP"-text-2-"PCP"-NNP-0|text|3267/3;3776/3;3844/3;3990/3||
record-73.txt|MMI|2.09|PRCP gene|C1418873|[gngm]|"PCP"-text-18-"PCP"-NNP-0,"PCP"-text-0-"PCP"-NN-0,"PCP"-text-2-"PCP"-NN-0,"PCP"-text-2-"PCP"-NNP-0|text|3267/3;3776/3;3844/3;3990/3||
record-73.txt|MMI|2.09|Patient Condition Code - Stable|C1547311|[inpr]|"Stable"-text-6-"stable"-JJ-0,"Stable"-text-0-"stable"-JJ-0,"Stable"-text-0-"Stable"-JJ-0,"Stable"-text-14-"stable"-JJ-0|text|635/6;2478/6;3152/6;3467/6||
record-73.txt|MMI|2.09|Phencyclidine measurement|C0202445|[lbpr]|"PCP"-text-18-"PCP"-NNP-0,"PCP"-text-0-"PCP"-NN-0,"PCP"-text-2-"PCP"-NN-0,"PCP"-text-2-"PCP"-NNP-0|text|3267/3;3776/3;3844/3;3990/3||
record-73.txt|MMI|2.09|Pneumocystis jiroveci pneumonia|C1535939|[dsyn]|"PCP"-text-18-"PCP"-NNP-0,"PCP"-text-0-"PCP"-NN-0,"PCP"-text-2-"PCP"-NN-0,"PCP"-text-2-"PCP"-NNP-0|text|3267/3;3776/3;3844/3;3990/3||
record-73.txt|MMI|2.09|Stable status|C0205360|[qlco]|"Stable"-text-6-"stable"-JJ-0,"Stable"-text-0-"stable"-JJ-0,"Stable"-text-0-"Stable"-JJ-0,"Stable"-text-14-"stable"-JJ-0|text|635/6;2478/6;3152/6;3467/6||
record-73.txt|MMI|2.09|WAS gene|C1421478|[gngm]|"WAS"-text-16-"was"-VBD-0,"WAS"-text-0-"was"-VBD-0,"WAS"-text-36-"was"-VBD-0,"WAS"-text-0-"was"-VBD-0|text|2427/3;2474/3;2572/3;2597/3||
record-73.txt|MMI|2.09|Washoe language|C1555640|[lang]|"WAS"-text-16-"was"-VBD-0,"WAS"-text-0-"was"-VBD-0,"WAS"-text-36-"was"-VBD-0,"WAS"-text-0-"was"-VBD-0|text|2427/3;2474/3;2572/3;2597/3||
record-73.txt|MMI|2.09|seen|C0205397|[qlco]|"seen"-text-4-"seen"-VBN-0,"seen"-text-0-"Seen"-NNP-0,"seen"-text-0-"seen"-VBN-0,"seen"-text-18-"seen"-VBN-0|text|531/4;644/4;1013/4;2431/4||
record-73.txt|MMI|2.09|serine-type Pro-X carboxypeptidase activity|C1744653|[moft]|"PCP"-text-18-"PCP"-NNP-0,"PCP"-text-0-"PCP"-NN-0,"PCP"-text-2-"PCP"-NN-0,"PCP"-text-2-"PCP"-NNP-0|text|3267/3;3776/3;3844/3;3990/3||
record-73.txt|MMI|2.01|follow-up|C1522577|[hlca]|"follow-up"-text-0-"follow-up"-VB-0,"Follow Up"-text-0-"follow up"-VB-0,"Followup"-text-0-"Followup"-NN-0,"Follow Up"-text-0-"follow up"-VB-0|text|2612/9;3756/9;3939/8;3970/9||
record-73.txt|MMI|1.90|ARID1A protein, human|C0675390|[bacs, aapp]|"hELD"-text-0-"held"-VBN-0|text|2601/4|x.x.x.x|
record-73.txt|MMI|1.90|Abdominal Cavity|C0230168|[blor]|"Abdomen"-text-0-"abdomen"-NN-0|text|3572/7|A01.923.047.025|
record-73.txt|MMI|1.90|BaseLine dental cement|C0168634|[bodm]|"baseline"-text-0-"baseline"-NN-0|text|1100/8|x.x.x.x|
record-73.txt|MMI|1.90|Chemotherapy|C3665472|[topp]|"Chemo"-text-10-"chemo"-NN-0|text|856/5|E02.319;Y11.020|
record-73.txt|MMI|1.90|Cystectomy|C0010651|[topp]|"Cystectomy"-text-18-"cystectomy"-NN-0|text|870/10|E04.950.774.150|
record-73.txt|MMI|1.90|Deep Vein Thrombosis|C0149871|[dsyn]|"DVT"-text-0-"DVT"-NNP-0|text|994/3|x.x.x.x|
record-73.txt|MMI|1.90|Esophagogastroduodenoscopy|C0079304|[diap]|"EGD"-text-0-"EGD"-NNP-0|text|470/3|x.x.x.x|
record-73.txt|MMI|1.90|Gender|C0079399|[orga]|"sex"-text-24-"Sex"-NN-0|text|83/3|x.x.x.x|
record-73.txt|MMI|1.90|HAC protocol|C0062074|[topp]|"HAD"-text-22-"had"-VBD-0|text|3640/3|x.x.x.x|
record-73.txt|MMI|1.90|Infantile Neuroaxonal Dystrophy|C0270724|[dsyn]|"PLAN"-text-0-"plan"-NN-0|text|659/4|x.x.x.x|
record-73.txt|MMI|1.90|PDC protein, human|C1739685|[bacs, aapp]|"PHD"-text-0-"PHD"-NNP-0|text|4183/3|x.x.x.x|
record-73.txt|MMI|1.90|PROGRESSIVE ENCEPHALOMYELITIS WITH RIGIDITY|C1861457|[dsyn]|"PER"-text-0-"per"-IN-0|text|1289/3|x.x.x.x|
record-73.txt|MMI|1.90|Peru|C0031238|[geoa]|"PER"-text-0-"per"-IN-0|text|1289/3|Z01.107.757.702|
record-73.txt|MMI|1.90|Urinary Diversion|C0042020|[topp]|"Urinary Diversion"-text-28-"urinary diversion"-JJ-0|text|896/17|E04.950.774.852|
record-73.txt|MMI|1.90|intensive care unit|C0021708|[mnob, hcro]|"ICU"-text-0-"ICU"-NNP-0|text|608/3|N02.278.388.493|
record-73.txt|MMI|1.88|Feelings|C1527305|[menp]|"Feeling"-text-0-"feeling"-NN-0|text|735/7|x.x.x.x|
record-73.txt|MMI|1.57|Disabled Person Code - Patient|C1578486|[inpr]|"Patient"-text-40-"Patient"-NNP-0,"Patient"-text-0-"patient"-NN-0,"Patient"-text-34-"patient"-NN-0|text|122/7;2466/7;2564/7||
record-73.txt|MMI|1.57|Hemopoietic stem cell transplant|C0472699|[topp]|"HCT"-text-0-"Hct"-NNP-0,"HCT"-text-0-"Hct"-NNP-0,"HCT"-text-0-"Hct"-NNP-0|text|447/3;618/3;3159/3||
record-73.txt|MMI|1.57|Mail Claim Party - Patient|C1578481|[idcn]|"Patient"-text-40-"Patient"-NNP-0,"Patient"-text-0-"patient"-NN-0,"Patient"-text-34-"patient"-NN-0|text|122/7;2466/7;2564/7||
record-73.txt|MMI|1.57|Pharmaceutical Preparations|C0013227|[phsu]|"Medicine"-text-34-"MEDICINE"-NNP-0,"Drugs"-text-56-"Drugs"-NNP-0,"medications"-text-0-"medications"-NNS-0|text|101/8;171/5;3721/11|D26|
record-73.txt|MMI|1.57|Possess|C3154893|[idcn]|"Have"-text-0-"have"-VBP-0,"Have"-text-8-"have"-VBP-0,"Have"-text-0-"have"-VBP-0|text|3297/4;3342/4;3407/4||
record-73.txt|MMI|1.57|Relationship modifier - Patient|C1578484|[idcn]|"Patient"-text-40-"Patient"-NNP-0,"Patient"-text-0-"patient"-NN-0,"Patient"-text-34-"patient"-NN-0|text|122/7;2466/7;2564/7||
record-73.txt|MMI|1.57|Report source - Patient|C1578483|[idcn]|"Patient"-text-40-"Patient"-NNP-0,"Patient"-text-0-"patient"-NN-0,"Patient"-text-34-"patient"-NN-0|text|122/7;2466/7;2564/7||
record-73.txt|MMI|1.57|Source|C0449416|[fndg]|"Source"-text-0-"source"-NN-0,"Source"-text-0-"source"-NN-0,"Source"-text-36-"source"-NN-0|text|2166/6;3313/6;3518/6||
record-73.txt|MMI|1.57|Source (property) (qualifier value)|C4521696|[ftcn]|"Source"-text-0-"source"-NN-0,"Source"-text-0-"source"-NN-0,"Source"-text-36-"source"-NN-0|text|2166/6;3313/6;3518/6||
record-73.txt|MMI|1.57|Specimen Source Codes - Patient|C1578485|[inpr]|"Patient"-text-40-"Patient"-NNP-0,"Patient"-text-0-"patient"-NN-0,"Patient"-text-34-"patient"-NN-0|text|122/7;2466/7;2564/7||
record-73.txt|MMI|1.57|Specimen Type - Patient|C1550655|[bdsu]|"Patient"-text-40-"Patient"-NNP-0,"Patient"-text-0-"patient"-NN-0,"Patient"-text-34-"patient"-NN-0|text|122/7;2466/7;2564/7||
record-73.txt|MMI|1.57|Term Source|C1705919|[inpr]|"Source"-text-0-"source"-NN-0,"Source"-text-0-"source"-NN-0,"Source"-text-36-"source"-NN-0|text|2166/6;3313/6;3518/6||
record-73.txt|MMI|1.57|Veterinary Patient|C1705908|[orgm]|"Patient"-text-40-"Patient"-NNP-0,"Patient"-text-0-"patient"-NN-0,"Patient"-text-34-"patient"-NN-0|text|122/7;2466/7;2564/7||
record-73.txt|MMI|1.51|Follow-Up Information|C4745114|[inpr]|"Follow-Up"-text-0-"follow-up"-VB-0,"Follow Up"-text-0-"follow up"-VB-0,"Follow Up"-text-0-"follow up"-VB-0|text|2612/9;3756/9;3970/9||
record-73.txt|MMI|1.51|Follow-up status|C0589120|[fndg]|"Follow-up"-text-0-"follow-up"-VB-0,"follow up"-text-0-"follow up"-VB-0,"follow up"-text-0-"follow up"-VB-0|text|2612/9;3756/9;3970/9||
record-73.txt|MMI|1.51|Right|C0205090|[spco]|"Right"-text-0-"right"-JJ-0,"Right"-text-26-"right"-JJ-0,"Right"-text-2-"right"-JJ-0|text|2374/5;2545/5;3589/5||
record-73.txt|MMI|1.51|Right sided|C0444532|[spco]|"Right"-text-0-"right"-JJ-0,"Right"-text-26-"right"-JJ-0,"Right"-text-2-"right"-JJ-0|text|2374/5;2545/5;3589/5||
record-73.txt|MMI|1.51|Table Cell Horizontal Align - right|C1552823|[ftcn]|"right"-text-0-"right"-JJ-0,"right"-text-26-"right"-JJ-0,"right"-text-2-"right"-JJ-0|text|2374/5;2545/5;3589/5||
record-73.txt|MMI|1.44|Anemia|C0002871|[dsyn]|"Anemia"-text-0-"Anemia"-NNP-0|text|1091/6|C15.378.071|
record-73.txt|MMI|1.44|Blood Coagulation Disorders|C0005779|[dsyn]|"Clotting disorders"-text-4-"clotting disorders"-VBG-1|text|1252/18|C15.378.100|
record-73.txt|MMI|1.44|Hospitals|C0019994|[mnob, hcro]|"Hospital"-text-0-"Hospital"-NNP-0|text|599/8|N02.278.421|
record-73.txt|MMI|1.44|Pelvis|C0030797|[bpoc]|"Pelvis"-text-28-"pelvis"-NN-0|text|2551/6|A01.923.600|
record-73.txt|MMI|1.44|Physical Examination|C0031809|[hlca]|"Physical Exam"-text-0-"Physical Exam"-JJ-0|text|1273/13|E01.370.600|
record-73.txt|MMI|1.44|Sex Behavior|C0036864|[bhvr]|"Sex"-text-24-"Sex"-NN-0|text|83/3|F01.145.802|
record-73.txt|MMI|1.44|sex|C1522384|[orga]|"sex"-text-24-"Sex"-NN-0|text|83/3|G08.686.810|
record-73.txt|MMI|1.42|Smoking|C0037369|[inbe]|"Smoking"-text-0-"smoking"-VBG-1|text|1170/7|F01.145.805|
record-73.txt|MMI|1.05|ANTICOAGULATION (finding)|C2919015|[fndg]|"ANTICOAGULATION"-text-4-"anticoagulation"-NN-0,"ANTICOAGULATION"-text-42-"anticoagulation"-NN-0|text|687/15;3536/15||
record-73.txt|MMI|1.05|Anticoagulation Therapy|C0003281|[topp]|"anticoagulation"-text-4-"anticoagulation"-NN-0,"anticoagulation"-text-42-"anticoagulation"-NN-0|text|687/15;3536/15||
record-73.txt|MMI|1.05|Butting|C0233535|[mobd]|"but"-text-0-"but"-CC-0,"but"-text-18-"but"-CC-0|text|522/3;3476/3||
record-73.txt|MMI|1.05|Colon <insect>|C3888384|[euka]|"Colon"-text-0-"colon"-NN-0,"Colon"-text-2-"colon"-NN-0|text|2229/5;3328/5||
record-73.txt|MMI|1.05|Colon structure (body structure)|C0009368|[bpoc]|"Colon"-text-0-"colon"-NN-0,"Colon"-text-2-"colon"-NN-0|text|2229/5;3328/5||
record-73.txt|MMI|1.05|Continuous|C0549178|[idcn]|"Continue"-text-0-"continue"-VB-0,"Continue"-text-0-"continue"-VB-0|text|670/8;3693/8||
record-73.txt|MMI|1.05|Decreased Coagulation Activity [PE]|C3537050|[phsf]|"Anticoagulation"-text-4-"anticoagulation"-NN-0,"Anticoagulation"-text-42-"anticoagulation"-NN-0|text|687/15;3536/15||
record-73.txt|MMI|1.05|Entire colon|C1281569|[bpoc]|"Colon"-text-0-"colon"-NN-0,"Colon"-text-2-"colon"-NN-0|text|2229/5;3328/5||
record-73.txt|MMI|1.05|From|C1517320|[qlco]|"From"-text-8-"from"-IN-0,"From"-text-32-"from"-IN-0|text|2505/4;3508/4||
record-73.txt|MMI|1.05|Hematocrit level|C0518014|[fndg]|"Hematocrit"-text-0-"hematocrit"-NN-0,"Hematocrit"-text-10-"hematocrit"-NN-0|text|2448/10;3453/10||
record-73.txt|MMI|1.05|Hematoma, CTCAE|C1962958|[fndg]|"Hematoma"-text-12-"hematoma"-NN-0,"Hematoma"-text-16-"hematoma"-NN-0|text|2416/8;3623/8||
record-73.txt|MMI|1.05|Inspiratory Vital Capacity Test|C4085887|[diap]|"IVC"-text-3-"IVC"-NNP-0,"IVC"-text-17-"IVC"-NNP-0|text|1021/3;1051/3||
record-73.txt|MMI|1.05|Mass of body structure|C0577559|[fndg]|"Mass"-text-0-"mass"-NN-0,"a mass"-text-20-"a mass"-DT-0|text|2386/4;2531/6||
record-73.txt|MMI|1.05|Negative Regulation of Coagulation|C2917212|[phsf]|"Anticoagulation"-text-4-"anticoagulation"-NN-0,"Anticoagulation"-text-42-"anticoagulation"-NN-0|text|687/15;3536/15||
record-73.txt|MMI|1.05|Patient Class - Outpatient|C1549405|[clas]|"Outpatient"-text-0-"outpatient"-NN-0,"Outpatient"-text-0-"outpatient"-NN-0|text|2665/10;3813/10||
record-73.txt|MMI|1.05|Preparation|C1521827|[acty]|"Preparation"-text-20-"preparation"-NN-0,"Preparation"-text-4-"preparation"-NN-0|text|2330/11;2703/11||
record-73.txt|MMI|1.05|Prepared Material|C3812761|[qnco]|"Preparation"-text-20-"preparation"-NN-0,"Preparation"-text-4-"preparation"-NN-0|text|2330/11;2703/11||
record-73.txt|MMI|1.05|Referral category - Outpatient|C1548439|[idcn]|"Outpatient"-text-0-"outpatient"-NN-0,"Outpatient"-text-0-"outpatient"-NN-0|text|2665/10;3813/10||
record-73.txt|MMI|1.05|Right lower quadrant|C0439736|[spco]|"RLQ"-text-0-"RLQ"-NN-0,"Right lower quadrant"-text-0-"Right lower quadrant"-RB-0|text|563/3;2145/20||
record-73.txt|MMI|1.05|Structure of right lower quadrant of abdomen|C0230178|[blor]|"RLQ"-text-0-"RLQ"-NN-0,"Right Lower Quadrant"-text-0-"Right lower quadrant"-RB-0|text|563/3;2145/20||
record-73.txt|MMI|1.05|TUBE,COLON,22FR,RADIOPAQUE RUBBER B#7370|C2684091|[medd]|"COLON"-text-0-"colon"-NN-0,"COLON"-text-2-"colon"-NN-0|text|2229/5;3328/5||
record-73.txt|MMI|1.05|Until|C1720302|[inpr]|"Until"-text-0-"until"-IN-0,"Until"-text-10-"until"-IN-0|text|2606/5;3245/5||
record-73.txt|MMI|1.01|Repeat|C0205341|[ftcn]|"Repeat"-text-8-"repeat"-NN-0,"Repeat"-text-0-"repeat"-NN-0|text|707/6;2658/6||
record-73.txt|MMI|1.01|Repeat Object|C1705914|[ftcn]|"Repeat"-text-8-"repeat"-NN-0,"Repeat"-text-0-"repeat"-NN-0|text|707/6;2658/6||
record-73.txt|MMI|1.01|Repeat Pattern|C1547730|[tmco]|"Repeat"-text-8-"repeat"-NN-0,"Repeat"-text-0-"repeat"-NN-0|text|707/6;2658/6||
record-73.txt|MMI|0.98|Hypersensitivity|C0020517|[patf]|"Allergies"-text-36-"Allergies"-NNP-0|text|110/9|C20.543|
record-73.txt|MMI|0.98|Medicine|C0025118|[bmod]|"Medicine"-text-34-"MEDICINE"-NNP-0|text|101/8|H02.403|
record-73.txt|MMI|0.96|Work|C0043227|[ocac]|"works"-text-0-"works"-NNS-0|text|1178/5|I03.946|
record-73.txt|MMI|0.72|Admission date:Time Stamp -- Date and Time:Point in time:^Patient:Quantitative|C2598112|[clna]|"Admission date"-text-0-"Admission Date"-NNP-0|text|0/14||
record-73.txt|MMI|0.72|Date of admission|C1302393|[tmco]|"Admission date"-text-0-"Admission Date"-NNP-0|text|0/14||
record-73.txt|MMI|0.52|ABD tumor staging notation|C0449202|[inpr]|"ABD"-text-0-"abd"-NN-1|text|757/3||
record-73.txt|MMI|0.52|ARID1A wt Allele|C2985160|[gngm]|"hELD"-text-0-"held"-VBN-0|text|2601/4||
record-73.txt|MMI|0.52|Abdominopelvic structure|C1508499|[blor]|"Abdomen"-text-0-"abdomen"-NN-0|text|3572/7||
record-73.txt|MMI|0.52|Absence of Biallelic TCRgamma Deletion|C3811055|[comd]|"ABD"-text-0-"abd"-NN-1|text|757/3||
record-73.txt|MMI|0.52|ActInformationPrivacyReason <service>|C3245478|[idcn]|"service"-text-30-"Service"-NNP-0|text|91/7||
record-73.txt|MMI|0.52|Active|C0205177|[qlco]|"Activity"-text-0-"activity"-NN-0|text|551/8||
record-73.txt|MMI|0.52|Activities|C0441655|[acty]|"Activity"-text-0-"activity"-NN-0|text|551/8||
record-73.txt|MMI|0.52|Activity (animal life circumstance)|C3668946|[fndg]|"Activity"-text-0-"activity"-NN-0|text|551/8||
record-73.txt|MMI|0.52|Admitting - Diagnosis Type|C1546484|[idcn]|"Admitting"-text-0-"admitting"-VBG-0|text|1293/9||
record-73.txt|MMI|0.52|Admitting - Provider role|C1547428|[idcn]|"Admitting"-text-0-"admitting"-VBG-0|text|1293/9||
record-73.txt|MMI|0.52|Androgen Response Element|C1515984|[nusq]|"ARE"-text-22-"are"-VBP-0|text|3484/3||
record-73.txt|MMI|0.52|Anemia, CTCAE|C4554633|[fndg]|"Anemia"-text-0-"Anemia"-NNP-0|text|1091/6||
record-73.txt|MMI|0.52|Angulated|C0333179|[spco]|"angulation"-text-14-"angulation"-NN-0|text|2304/10||
record-73.txt|MMI|0.52|At risk|C1444641|[qlco]|"At risk"-text-26-"at risk"-IN-0|text|3488/7||
record-73.txt|MMI|0.52|Attending (action)|C1999232|[ftcn]|"attending"-text-58-"Attending"-NNP-0|text|177/9||
record-73.txt|MMI|0.52|Attending (provider role)|C1547429|[prog]|"Attending"-text-58-"Attending"-NNP-0|text|177/9||
record-73.txt|MMI|0.52|Baseline|C1442488|[qnco]|"Baseline"-text-0-"baseline"-NN-0|text|1100/8||
record-73.txt|MMI|0.52|Behavioral tic|C0278076|[mobd]|"Tics"-text-2-"tics"-NNS-0|text|526/4||
record-73.txt|MMI|0.52|Bilateral|C0238767|[spco]|"Bilateral"-text-40-"bilateral"-JJ-0|text|949/9||
record-73.txt|MMI|0.52|CDISC SDTM Sex of Individual Terminology|C1879943|[inpr]|"SEX"-text-24-"Sex"-NN-0|text|83/3||
record-73.txt|MMI|0.52|Chemotherapy Regimen|C0392920|[topp]|"chemo"-text-10-"chemo"-NN-0|text|856/5||
record-73.txt|MMI|0.52|Compatible|C1524057|[qlco]|"Consistent with"-text-8-"consistent with"-JJ-0|text|2398/15||
record-73.txt|MMI|0.52|Consent Type - Colonoscopy|C1548837|[hlca]|"Colonoscopy"-text-0-"colonoscopy"-NN-0|text|2679/11||
record-73.txt|MMI|0.52|Consistent with|C0332290|[idcn]|"Consistent with"-text-8-"consistent with"-JJ-0|text|2398/15||
record-73.txt|MMI|0.52|Conventional|C0439858|[qlco]|"Conventional"-text-0-"conventional"-JJ-0|text|2238/12||
record-73.txt|MMI|0.52|Conventional Release Mechanism of Action|C4724243|[ftcn]|"Conventional"-text-0-"conventional"-JJ-0|text|2238/12||
record-73.txt|MMI|0.52|Count of entities|C0449788|[qnco]|"number"-text-0-"number"-NN-0|text|4037/6||
record-73.txt|MMI|0.52|Curriculum Vitae|C1880201|[inpr]|"Resume"-text-4-"resume"-VB-0|text|3225/6||
record-73.txt|MMI|0.52|Data Validation Test Document|C3899446|[inpr]|"DVT"-text-0-"DVT"-NNP-0|text|994/3||
record-73.txt|MMI|0.52|Deep thrombophlebitis|C0151950|[dsyn]|"DVT"-text-0-"DVT"-NNP-0|text|994/3||
record-73.txt|MMI|0.52|Disease remission|C0544452|[fndg]|"In remission"-text-4-"in remission"-IN-0|text|839/12||
record-73.txt|MMI|0.52|Do not|C3840725|[fndg]|"Do not"-text-2-"do NOT"-VBP-0|text|3218/6||
record-73.txt|MMI|0.52|Doctor of Philosophy|C1512022|[inpr]|"PhD"-text-0-"PHD"-NNP-0|text|4183/3||
record-73.txt|MMI|0.52|Dropping|C1705648|[acty]|"Dropped"-text-0-"dropped"-VBD-0|text|451/7||
record-73.txt|MMI|0.52|Drugs - dental services|C3687832|[topp]|"Drugs"-text-56-"Drugs"-NNP-0|text|171/5||
record-73.txt|MMI|0.52|Due to|C0678226|[ftcn]|"Due to"-text-0-"due to"-JJ-0|text|509/6||
record-73.txt|MMI|0.52|ENG gene|C1366583|[gngm]|"END"-text-12-"End"-NN-0|text|4333/3||
record-73.txt|MMI|0.52|ENG wt Allele|C1704837|[gngm]|"END"-text-12-"End"-NN-0|text|4333/3||
record-73.txt|MMI|0.52|End|C0444930|[spco]|"End"-text-12-"End"-NN-0|text|4333/3||
record-73.txt|MMI|0.52|Endoglin, human|C0082420|[imft, aapp]|"END"-text-12-"End"-NN-0|text|4333/3||
record-73.txt|MMI|0.52|Entire abdomen|C1281594|[bpoc]|"Abdomen"-text-0-"abdomen"-NN-0|text|3572/7||
record-73.txt|MMI|0.52|Entire pelvis|C1279864|[bpoc]|"Pelvis"-text-28-"pelvis"-NN-0|text|2551/6||
record-73.txt|MMI|0.52|Ever told by doctor that you had deep venous thrombosis:Finding:Point in time:^Patient:Ordinal|C2926618|[clna]|"DVT"-text-0-"DVT"-NNP-0|text|994/3||
record-73.txt|MMI|0.52|FBN1 gene|C1414542|[gngm]|"MASS"-text-0-"mass"-NN-0|text|2386/4||
record-73.txt|MMI|0.52|FBN1 wt Allele|C2700045|[gngm]|"MASS"-text-0-"mass"-NN-0|text|2386/4||
record-73.txt|MMI|0.52|FDA Establishment Activity Terminology|C4049939|[inpr]|"ACTIVITY"-text-0-"activity"-NN-0|text|551/8||
record-73.txt|MMI|0.52|Failed|C0231175|[ftcn]|"Failed"-text-6-"failed"-VBD-0|text|2278/6||
record-73.txt|MMI|0.52|Family history|C0241889|[fndg]|"Family history"-text-0-"Family History"-NNP-0|text|1210/14||
record-73.txt|MMI|0.52|Follow|C4281991|[ftcn]|"Per"-text-0-"per"-IN-0|text|1289/3||
record-73.txt|MMI|0.52|Gender:Type:Point in time:^Patient:Nominal|C0804628|[clna]|"Sex"-text-24-"Sex"-NN-0|text|83/3||
record-73.txt|MMI|0.52|Genus Anemia|C1000483|[plnt]|"Anemia"-text-0-"Anemia"-NNP-0|text|1091/6||
record-73.txt|MMI|0.52|Good|C0205170|[qlco]|"Well"-text-0-"well"-RB-0|text|743/4||
record-73.txt|MMI|0.52|HADH gene|C1415458|[gngm]|"HAD"-text-22-"had"-VBD-0|text|3640/3||
record-73.txt|MMI|0.52|Held - activity status|C1948036|[idcn]|"held"-text-0-"held"-VBN-0|text|2601/4||
record-73.txt|MMI|0.52|Hemodynamically stable|C0578150|[fndg]|"Hemodynamically stable"-text-4-"hemodynamically stable"-RB-0|text|3421/22||
record-73.txt|MMI|0.52|Herero language|C0574443|[lang]|"HER"-text-0-"Her"-PRP$-0|text|4033/3||
record-73.txt|MMI|0.52|Hospital admission|C0184666|[hlca]|"admitting"-text-0-"admitting"-VBG-0|text|1293/9||
record-73.txt|MMI|0.52|Hospital environment|C1510665|[qlco]|"Hospital"-text-0-"Hospital"-NNP-0|text|599/8||
record-73.txt|MMI|0.52|Ileal Loop|C1550266|[bpoc]|"Ileal Loop"-text-24-"ileal loop"-JJ-0|text|885/10||
record-73.txt|MMI|0.52|In Blood|C0005768|[bdsu]|"blood"-text-0-"blood"-NN-0|text|516/5||
record-73.txt|MMI|0.52|Inadequate (qualifier)|C0205412|[qlco]|"Inadequate"-text-18-"inadequate"-JJ-0|text|2319/10||
record-73.txt|MMI|0.52|Instruction [Publication Type]|C0302828|[inpr]|"instructions"-text-0-"Instructions"-NNS-0|text|3948/12||
record-73.txt|MMI|0.52|Instructions|C1442085|[inpr]|"Instructions"-text-0-"Instructions"-NNS-0|text|3948/12||
record-73.txt|MMI|0.52|Instructions:Text:Point in time:^Patient:Narrative|C3263700|[clna]|"Instructions"-text-0-"Instructions"-NNS-0|text|3948/12||
record-73.txt|MMI|0.52|Inventory of Callous-Unemotional Traits|C4554035|[inpr]|"ICU"-text-0-"ICU"-NNP-0|text|608/3||
record-73.txt|MMI|0.52|Labeled (qualifier)|C1708632|[qlco]|"Tagged"-text-0-"Tagged"-JJ-0|text|538/6||
record-73.txt|MMI|0.52|MDF AttributeType - Number|C1554106|[idcn]|"Number"-text-0-"number"-NN-0|text|4037/6||
record-73.txt|MMI|0.52|Malignant neoplasm of urinary bladder|C0005684|[neop]|"bladder ca"-text-0-"bladder CA"-NN-0|text|824/10||
record-73.txt|MMI|0.52|Mass of body region|C0577573|[sosy]|"Mass"-text-0-"mass"-NN-0|text|2386/4||
record-73.txt|MMI|0.52|Mass, a measure of quantity of matter|C1306372|[qnco]|"Mass"-text-0-"mass"-NN-0|text|2386/4||
record-73.txt|MMI|0.52|Medical History|C0262926|[fndg]|"Past Medical History"-text-0-"Past Medical History"-NNP-0|text|790/20||
record-73.txt|MMI|0.52|Medications|C4284232|[inpr]|"Medications"-text-0-"medications"-NNS-0|text|3721/11||
record-73.txt|MMI|0.52|Medications on admission|C1627937|[fndg]|"Medications on admission"-text-0-"Medications on Admission"-NNS-0|text|2738/24||
record-73.txt|MMI|0.52|Medications:-:Point in time:^Patient:-|C2598133|[clna]|"Medications"-text-0-"medications"-NNS-0|text|3721/11||
record-73.txt|MMI|0.52|Medications:Presence or Identity:Duration of the study:^Patient:Nominal|C0802604|[clna]|"Medications"-text-0-"medications"-NNS-0|text|3721/11||
record-73.txt|MMI|0.52|Metastatic Disease Clinical Trial Setting|C4085632|[hcro]|"METASTATIC"-text-0-"Metastatic"-NNP-0|text|813/10||
record-73.txt|MMI|0.52|Metastatic to|C0036525|[ftcn]|"metastatic"-text-0-"Metastatic"-NNP-0|text|813/10||
record-73.txt|MMI|0.52|Microplate Well|C4283957|[spco]|"Well"-text-0-"well"-RB-0|text|743/4||
record-73.txt|MMI|0.52|Middle|C0444598|[spco]|"Mid"-text-0-"mid"-NN-0|text|1109/3||
record-73.txt|MMI|0.52|Molecular Mass|C3152252|[qnco]|"Mass"-text-0-"mass"-NN-0|text|2386/4||
record-73.txt|MMI|0.52|Monday|C0585024|[tmco]|"Monday"-text-14-"Monday"-NNP-0|text|723/6||
record-73.txt|MMI|0.52|Mongolian language|C0026409|[lang]|"MON"-text-0-"MON"-NNP-0|text|4308/3||
record-73.txt|MMI|0.52|Morphology, Attenuation, Size, and Structure Criteria|C4283905|[inpr]|"MASS"-text-0-"mass"-NN-0|text|2386/4||
record-73.txt|MMI|0.52|Most|C0205393|[qnco]|"Most"-text-4-"most"-RBS-0|text|2393/4||
record-73.txt|MMI|0.52|Most Recent|C1513491|[tmco]|"Most Recent"-text-0-"most recent"-RBS-0|text|1001/11||
record-73.txt|MMI|0.52|No known allergy|C0262580|[fndg]|"NO KNOWN ALLERGIES"-text-52-"No Known Allergies"-DT-1|text|149/18||
record-73.txt|MMI|0.52|Now (cigarettes)|C4760243|[mnob]|"Now"-text-0-"now"-RB-0|text|835/3||
record-73.txt|MMI|0.52|Now (temporal qualifier)|C1948052|[tmco]|"Now"-text-0-"now"-RB-0|text|835/3||
record-73.txt|MMI|0.52|Now - dosing instruction fragment|C1720566|[inpr]|"Now"-text-0-"now"-RB-0|text|835/3||
record-73.txt|MMI|0.52|Numbers|C0237753|[qnco]|"Number"-text-0-"number"-NN-0|text|4037/6||
record-73.txt|MMI|0.52|Organization unit type - Hospital|C1547192|[idcn]|"Hospital"-text-0-"Hospital"-NNP-0|text|599/8||
record-73.txt|MMI|0.52|PDC wt Allele|C1705998|[gngm]|"PHD"-text-0-"PHD"-NNP-0|text|4183/3||
record-73.txt|MMI|0.52|PER tumor staging notation|C0449201|[blor]|"PER"-text-0-"per"-IN-0|text|1289/3||
record-73.txt|MMI|0.52|PER1 gene|C1418464|[gngm]|"PER"-text-0-"per"-IN-0|text|1289/3||
record-73.txt|MMI|0.52|PER1 wt Allele|C3273590|[gngm]|"PER"-text-0-"per"-IN-0|text|1289/3||
record-73.txt|MMI|0.52|PLXNA3 gene|C1418662|[gngm]|"SEX"-text-24-"Sex"-NN-0|text|83/3||
record-73.txt|MMI|0.52|PMH - past medical history|C0455458|[fndg]|"Past medical history"-text-0-"Past Medical History"-NNP-0|text|790/20||
record-73.txt|MMI|0.52|Patient date of birth|C0421451|[tmco]|"Date of birth"-text-14-"Date of Birth"-NNP-0|text|56/13||
record-73.txt|MMI|0.52|Pelvic cavity structure|C0559769|[bsoj]|"Pelvis"-text-28-"pelvis"-NN-0|text|2551/6||
record-73.txt|MMI|0.52|Per (qualifier)|C3887962|[qlco]|"Per"-text-0-"per"-IN-0|text|1289/3||
record-73.txt|MMI|0.52|Per - dosing instruction fragment|C1704764|[inpr]|"Per"-text-0-"per"-IN-0|text|1289/3||
record-73.txt|MMI|0.52|Physical Activity Measurement|C4049938|[lbpr]|"Activity"-text-0-"activity"-NN-0|text|551/8||
record-73.txt|MMI|0.52|Planned|C1301732|[ftcn]|"Plan"-text-0-"plan"-NN-0|text|659/4||
record-73.txt|MMI|0.52|Prescribed|C0278329|[hlca]|"Prescribed"-text-2-"prescribed"-VBN-0|text|3736/10||
record-73.txt|MMI|0.52|Probable diagnosis|C0332148|[fndg]|"Likely"-text-0-"likely"-RB-0|text|3290/6||
record-73.txt|MMI|0.52|Probably|C0750492|[idcn]|"Likely"-text-0-"likely"-RB-0|text|3290/6||
record-73.txt|MMI|0.52|Radical (qualifier value)|C0439807|[qlco]|"Radical"-text-34-"radical"-JJ-0|text|923/7||
record-73.txt|MMI|0.52|Radicals (chemistry)|C0302912|[chvs]|"Radical"-text-34-"radical"-JJ-0|text|923/7||
record-73.txt|MMI|0.52|Recommendation|C0034866|[idcn]|"recommend"-text-0-"recommend"-VBP-0|text|3199/9||
record-73.txt|MMI|0.52|Red Blood Cell Count measurement|C0014772|[lbpr]|"RBC"-text-0-"RBC"-NNP-0|text|545/3||
record-73.txt|MMI|0.52|Regulatory Report|C3273238|[inpr]|"Report"-text-16-"Report"-NNP-0|text|4340/6||
record-73.txt|MMI|0.52|Rehabilitation therapy|C0034991|[topp]|"Rehab"-text-0-"Rehab"-NNP-0|text|593/5||
record-73.txt|MMI|0.52|Report (document)|C0684224|[inpr]|"Report"-text-16-"Report"-NNP-0|text|4340/6||
record-73.txt|MMI|0.52|Report:Finding:Point in time:{Setting}:Document:{Role}|C4255046|[clna]|"Report"-text-16-"Report"-NNP-0|text|4340/6||
record-73.txt|MMI|0.52|Reporting|C0700287|[hlca]|"report"-text-16-"Report"-NNP-0|text|4340/6||
record-73.txt|MMI|0.52|Resume - Remote control command|C1550028|[idcn]|"Resume"-text-4-"resume"-VB-0|text|3225/6||
record-73.txt|MMI|0.52|Schedule (document type)|C0086960|[inpr]|"Scheduled"-text-0-"scheduled"-VBN-0|text|3783/9||
record-73.txt|MMI|0.52|Scheduled - priority|C1571999|[tmco]|"Scheduled"-text-0-"scheduled"-VBN-0|text|3783/9||
record-73.txt|MMI|0.52|Scheduled - procedure status|C0205539|[qlco]|"Scheduled"-text-0-"scheduled"-VBN-0|text|3783/9||
record-73.txt|MMI|0.52|Scope|C1710028|[cnce]|"Scope"-text-10-"scope"-NN-0|text|714/5||
record-73.txt|MMI|0.52|Services|C0557854|[ocac]|"service"-text-30-"Service"-NNP-0|text|91/7||
record-73.txt|MMI|0.52|Sexual intercourse - finding|C1314687|[fndg]|"Sex"-text-24-"Sex"-NN-0|text|83/3||
record-73.txt|MMI|0.52|Signature|C1519316|[inpr]|"Signed"-text-26-"Signed"-VBN-0|text|4252/6||
record-73.txt|MMI|0.52|Since|C1711239|[tmco]|"Since"-text-0-"Since"-IN-0|text|2438/5||
record-73.txt|MMI|0.52|Software Service|C2825316|[mnob]|"Service"-text-30-"Service"-NNP-0|text|91/7||
record-73.txt|MMI|0.52|Speaking (activity)|C0234856|[dora]|"Talking"-text-12-"talking"-VBG-0|text|3251/7||
record-73.txt|MMI|0.52|Specimen Source Codes - Mass|C1546709|[inpr]|"Mass"-text-0-"mass"-NN-0|text|2386/4||
record-73.txt|MMI|0.52|Stop (qualifier value)|C2746065|[tmco]|"End"-text-12-"End"-NN-0|text|4333/3||
record-73.txt|MMI|0.52|Take|C1515187|[hlca]|"Take"-text-0-"take"-VB-0|text|3705/4||
record-73.txt|MMI|0.52|This (eukaryote)|C1080058|[euka]|"This"-text-34-"this"-DT-0|text|3513/4||
record-73.txt|MMI|0.52|To be stopped|C1272691|[qlco]|"stopped"-text-0-"stopped"-VBN-0|text|3391/7||
record-73.txt|MMI|0.52|Tracer|C1522485|[irda]|"Tagged"-text-0-"Tagged"-JJ-0|text|538/6||
record-73.txt|MMI|0.52|Transferred to|C4049693|[fndg]|"Transferred to"-text-0-"Transferred to"-VBN-0|text|569/14||
record-73.txt|MMI|0.52|Transferred to:Loc:Pt:^Patient:Nom|C4049692|[clna]|"Transferred to"-text-0-"Transferred to"-VBN-0|text|569/14||
record-73.txt|MMI|0.52|Treatment Plan|C0599880|[inpr]|"Plan"-text-0-"plan"-NN-0|text|659/4||
record-73.txt|MMI|0.52|Unable|C1299582|[fndg]|"Unable"-text-12-"unable"-JJ-0|text|3352/6||
record-73.txt|MMI|0.52|Unable to Do|C4048706|[fndg]|"unable"-text-12-"unable"-JJ-0|text|3352/6||
record-73.txt|MMI|0.52|Unable to Use Stairs|C4321405|[inpr]|"unable"-text-12-"unable"-JJ-0|text|3352/6||
record-73.txt|MMI|0.52|Unable to feed self|C0566415|[fndg]|"unable"-text-12-"unable"-JJ-0|text|3352/6||
record-73.txt|MMI|0.52|Units Of Measure - Gilbert|C1551090|[qnco]|"Gilbert"-text-0-"Gilbert"-NNP-0|text|4290/7||
record-73.txt|MMI|0.52|Unsatisfactory|C0439856|[qlco]|"Inadequate"-text-18-"inadequate"-JJ-0|text|2319/10||
record-73.txt|MMI|0.52|Well|C3146287|[mnob]|"Well"-text-0-"well"-RB-0|text|743/4||
record-73.txt|MMI|0.52|Well Marginated Nodule|C4761387|[fndg]|"Well"-text-0-"well"-RB-0|text|743/4||
record-73.txt|MMI|0.52|are unit of measure|C1551058|[qnco]|"Are"-text-22-"are"-VBP-0|text|3484/3||
record-73.txt|MMI|0.52|baseline - TableCellVerticalAlign|C1552824|[idcn]|"BASELINE"-text-0-"baseline"-NN-0|text|1100/8||
record-73.txt|MMI|0.52|consider|C0750591|[idcn]|"considered"-text-10-"considered"-VBN-0|text|2725/10||
record-73.txt|MMI|0.52|described|C1552738|[idcn]|"described"-text-26-"described"-VBN-0|text|3649/9||
record-73.txt|MMI|0.52|end - ActRelationshipCheckpoint|C1561490|[ftcn]|"end"-text-12-"End"-NN-0|text|4333/3||
record-73.txt|MMI|0.52|lab results|C3244125|[inpr]|"lab results"-text-0-"lab results"-NN-0|text|3824/11||
record-73.txt|MMI|0.52|metastatic qualifier|C1522484|[ftcn]|"metastatic"-text-0-"Metastatic"-NNP-0|text|813/10||
record-73.txt|MMI|0.52|most likely|C0750501|[idcn]|"most likely"-text-12-"most likely"-JJS-0|text|3609/11||
record-73.txt|MMI|0.52|peripheral blood|C0229664|[bdsu]|"Blood"-text-0-"blood"-NN-0|text|516/5||
record-73.txt|MMI|0.52|phenylalanine dehydrogenase activity|C1324593|[moft]|"PHD"-text-0-"PHD"-NNP-0|text|4183/3||
record-73.txt|MMI|0.52|recurrent muscle twitches (symptom)|C2169806|[sosy]|"Tics"-text-2-"tics"-NNS-0|text|526/4||
record-73.txt|MMI|0.52|resume - DataOperation|C3242342|[ftcn]|"resume"-text-4-"resume"-VB-0|text|3225/6||
record-73.txt|MMI|0.52|signed - ParticipationSignature|C1561610|[inpr]|"signed"-text-26-"Signed"-VBN-0|text|4252/6||
record-73.txt|MMI|0.52|yang|C2945617|[idcn]|"yang"-text-0-"YANG"-NNP-0|text|4298/4||
record-73.txt|MMI|0.50|625|C4517838|[qnco]|"625"-text-14-"625"-CD-0|text|4230/3||
record-73.txt|MMI|0.50|Administration Method - Pain|C1549543|[ftcn]|"Pain"-text-0-"pain"-NN-1|text|761/4||
record-73.txt|MMI|0.50|Adverse Event Associated with Pain|C1557397|[fndg]|"PAIN"-text-0-"pain"-NN-1|text|761/4||
record-73.txt|MMI|0.50|Better|C0332272|[qlco]|"Better"-text-2-"better"-JJR-0|text|2696/6||
record-73.txt|MMI|0.50|Better than Others|C4522046|[fndg]|"Better"-text-2-"better"-JJR-0|text|2696/6||
record-73.txt|MMI|0.50|Clinical Study Follow-up|C3274571|[hlca]|"FOLLOW-UP"-text-0-"follow-up"-VB-0|text|2612/9||
record-73.txt|MMI|0.50|Completed By (qualifier)|C2349181|[qlco]|"Completed By"-text-2-"Completed by"-VBN-0|text|4194/12||
record-73.txt|MMI|0.50|Discharge date|C2361123|[tmco]|"Discharge date"-text-0-"Discharge Date"-NNP-0|text|28/14||
record-73.txt|MMI|0.50|Discharge date:Time Stamp -- Date and Time:Point in time:^Patient:Quantitative|C2361122|[clna]|"Discharge date"-text-0-"Discharge Date"-NNP-0|text|28/14||
record-73.txt|MMI|0.50|Discharge instructions|C4282220|[inpr]|"Discharge instructions"-text-0-"Discharge Instructions"-NNP-0|text|3171/22||
record-73.txt|MMI|0.50|Discharge instructions:Find:Pt:{Setting}:Doc:{Provider}|C3669312|[clna]|"Discharge instructions"-text-0-"Discharge Instructions"-NNP-0|text|3171/22||
record-73.txt|MMI|0.50|Extrinsic|C0205101|[spco]|"Outside"-text-4-"outside"-JJ-0|text|2489/7||
record-73.txt|MMI|0.50|Feel Pain|C4554132|[inpr]|"Pain"-text-0-"pain"-NN-1|text|761/4||
record-73.txt|MMI|0.50|Filter (function)|C1704449|[cnce]|"Filter"-text-19-"filter"-NN-0|text|1055/6||
record-73.txt|MMI|0.50|Filter - medical device|C1875155|[medd]|"FILTER"-text-19-"filter"-NN-0|text|1055/6||
record-73.txt|MMI|0.50|Filters|C0180860|[mnob]|"Filter"-text-19-"filter"-NN-0|text|1055/6||
record-73.txt|MMI|0.50|Follow-Up Report|C1704685|[inpr]|"Follow-Up"-text-0-"follow-up"-VB-0|text|2612/9||
record-73.txt|MMI|0.50|Frequency of Pain Question|C0518090|[inpr]|"Pain"-text-0-"pain"-NN-1|text|761/4||
record-73.txt|MMI|0.50|Have Pain|C2984058|[inpr]|"Pain"-text-0-"pain"-NN-1|text|761/4||
record-73.txt|MMI|0.50|How Much Distress Pain|C4085212|[inpr]|"Pain"-text-0-"pain"-NN-1|text|761/4||
record-73.txt|MMI|0.50|How Often Felt Normal question|C4553972|[inpr]|"Normal"-text-0-"normal"-JJ-0|text|474/6||
record-73.txt|MMI|0.50|Improved - answer to question|C4084203|[fndg]|"Better"-text-2-"better"-JJR-0|text|2696/6||
record-73.txt|MMI|0.50|Location characteristic ID - Smoking|C1548578|[inpr]|"Smoking"-text-0-"smoking"-VBG-1|text|1170/7||
record-73.txt|MMI|0.50|Medical Device Emits Smoke|C1881674|[fndg]|"Smoking"-text-0-"smoking"-VBG-1|text|1170/7||
record-73.txt|MMI|0.50|Normal|C0205307|[qlco]|"Normal"-text-0-"normal"-JJ-0|text|474/6||
record-73.txt|MMI|0.50|Normal Gait|C5200925|[fndg]|"Normal"-text-0-"normal"-JJ-0|text|474/6||
record-73.txt|MMI|0.50|Normal Immune Presence|C5202633|[fndg]|"Normal"-text-0-"normal"-JJ-0|text|474/6||
record-73.txt|MMI|0.50|Normal Observation Interpretation|C1550457|[fndg]|"Normal"-text-0-"normal"-JJ-0|text|474/6||
record-73.txt|MMI|0.50|Normal Reference Range|C2698497|[inpr]|"Normal"-text-0-"normal"-JJ-0|text|474/6||
record-73.txt|MMI|0.50|Normal assessment finding|C1873497|[fndg]|"Normal"-text-0-"normal"-JJ-0|text|474/6||
record-73.txt|MMI|0.50|Normal, Unit of Concentration|C1704701|[qnco]|"Normal"-text-0-"normal"-JJ-0|text|474/6||
record-73.txt|MMI|0.50|Observation Interpretation - better|C1550462|[idcn]|"Better"-text-2-"better"-JJR-0|text|2696/6||
record-73.txt|MMI|0.50|Optical filter|C0581406|[medd]|"Filter"-text-19-"filter"-NN-0|text|1055/6||
record-73.txt|MMI|0.50|Pain Distress Question|C4085211|[inpr]|"Pain"-text-0-"pain"-NN-1|text|761/4||
record-73.txt|MMI|0.50|Pain by Anatomic Descriptor, CTCAE|C1882272|[fndg]|"Pain"-text-0-"pain"-NN-1|text|761/4||
record-73.txt|MMI|0.50|Pain, CTCAE|C4553004|[fndg]|"Pain"-text-0-"pain"-NN-1|text|761/4||
record-73.txt|MMI|0.50|Pain:-:Point in time:^Patient:-|C2598155|[clna]|"Pain"-text-0-"pain"-NN-1|text|761/4||
record-73.txt|MMI|0.50|Pelvic lymphadenectomy|C0193883|[topp]|"Pelvic Lymph Node Dissection"-text-48-"pelvic lymph node dissection"-JJ-0|text|959/28||
record-73.txt|MMI|0.50|Pelvic mass|C0347944|[fndg]|"Pelvic mass"-text-6-"pelvic mass"-JJ-0|text|3595/11||
record-73.txt|MMI|0.50|Primary Care Doctor|C2985417|[prog]|"Primary Care Doctor"-text-4-"primary care doctor"-JJ-0|text|2627/19||
record-73.txt|MMI|0.50|Quantity limited request - Records|C1548330|[idcn]|"Records"-text-6-"records"-NNS-0|text|2497/7||
record-73.txt|MMI|0.50|Query Quantity Unit - Records|C1553414|[qlco]|"Records"-text-6-"records"-NNS-0|text|2497/7||
record-73.txt|MMI|0.50|Red blood cell scan|C0948706|[diap]|"Red blood cell scan"-text-6-"red blood cell scan"-JJ-0|text|2185/19||
record-73.txt|MMI|0.50|Resident (person)|C2347958|[popg]|"Resident"-text-0-"resident"-NN-0|text|1303/8||
record-73.txt|MMI|0.50|Resident (physician)|C1320928|[prog]|"Resident"-text-0-"resident"-NN-0|text|1303/8||
record-73.txt|MMI|0.50|Resident - Procedure Practitioner Identifier Code Type|C1549439|[inpr]|"Resident"-text-0-"resident"-NN-0|text|1303/8||
record-73.txt|MMI|0.50|Resident - answer to question|C3835651|[fndg]|"Resident"-text-0-"resident"-NN-0|text|1303/8||
record-73.txt|MMI|0.50|Right femoral vein|C0739300|[bpoc]|"Right femoral vein"-text-11-"right femoral vein"-RB-0|text|1028/18||
record-73.txt|MMI|0.50|Skin appearance normal (finding)|C0558145|[fndg]|"NORMAL"-text-0-"normal"-JJ-0|text|474/6||
record-73.txt|MMI|0.50|Specimen Source Codes - Filter|C1546637|[inpr]|"Filter"-text-19-"filter"-NN-0|text|1055/6||
record-73.txt|MMI|0.50|Specimen Type - Filter|C1550638|[bdsu]|"Filter"-text-19-"filter"-NN-0|text|1055/6||
record-73.txt|MMI|0.50|Tobacco smoking behavior|C0453996|[inbe]|"Smoking"-text-0-"smoking"-VBG-1|text|1170/7||
record-73.txt|MMI|0.50|Unable to complete|C3842772|[fndg]|"Unable to complete"-text-0-"unable to complete"-JJ-0|text|490/18||
record-73.txt|MMI|0.50|Usual Severity Pain|C4085210|[inpr]|"Pain"-text-0-"pain"-NN-1|text|761/4||
record-73.txt|MMI|0.50|filter information process|C1522664|[inpr]|"Filter"-text-19-"filter"-NN-0|text|1055/6||
record-73.txt|MMI|0.50|normal Act Status|C1553386|[inpr]|"normal"-text-0-"normal"-JJ-0|text|474/6||
record-73.txt|MMI|0.50|normal Confidentiality|C1550469|[idcn]|"normal"-text-0-"normal"-JJ-0|text|474/6||
record-73.txt|MMI|0.50|normal Device Alert Level|C1551394|[fndg]|"Normal"-text-0-"normal"-JJ-0|text|474/6||
record-73.txt|MMI|0.50|normal Entity Status|C1553406|[qlco]|"normal"-text-0-"normal"-JJ-0|text|474/6||
record-73.txt|MMI|0.50|normal Managed Participation Status|C1553399|[idcn]|"normal"-text-0-"normal"-JJ-0|text|474/6||
record-73.txt|MMI|0.50|normal Role Status|C1553402|[idcn]|"normal"-text-0-"normal"-JJ-0|text|474/6||
