record-49.txt|MMI|129.42|Wiskott-Aldrich Syndrome|C0043194|[dsyn]|"WAS"-text-0-"was"-VBD-0,"WAS"-text-0-"was"-VBD-0,"WAS"-text-10-"was"-VBD-0,"WAS"-text-0-"was"-VBD-0,"WAS"-text-12-"was"-VBD-0,"WAS"-text-26-"was"-VBD-0,"WAS"-text-0-"was"-VBD-0,"WAS"-text-14-"was"-VBD-0|text|205/3;327/3;392/3;456/3;513/3;539/3;873/3;1036/3|C20.673.627.900;C15.378.553.546.605.900;C16.320.798.875;C20.673.795.875;C16.320.322.937;C15.378.463.960;C16.320.099.970;C15.378.100.100.970|
record-49.txt|MMI|15.24|WAS protein, human|C1565156|[bacs, aapp]|"WAS"-text-0-"was"-VBD-0,"WAS"-text-0-"was"-VBD-0,"WAS"-text-10-"was"-VBD-0,"WAS"-text-0-"was"-VBD-0,"WAS"-text-12-"was"-VBD-0,"WAS"-text-26-"was"-VBD-0,"WAS"-text-0-"was"-VBD-0,"WAS"-text-14-"was"-VBD-0|text|205/3;327/3;392/3;456/3;513/3;539/3;873/3;1036/3|x.x.x.x|
record-49.txt|MMI|12.49|S-adenosylmethionine|C0036002|[bacs, aapp, phsu]|"SAMe"-text-0-"same"-JJ-0|text|1166/4|D03.633.100.759.590.138.264;D12.125.166.676.180;D13.570.583.138.264;D13.570.800.096.264;D02.886.030.676.180|
record-49.txt|MMI|11.11|Patient Discharge|C0030685|[hlca]|"Discharged"-text-0-"discharged"-VBN-0|text|209/10|N04.590.233.727.210.125;E02.760.169.125;N02.421.585.169.125;E02.760.400.610;N02.421.585.400.610|
record-49.txt|MMI|10.82|Patients|C0030705|[podg]|"Patient"-text-0-"patient"-NN-0,"Patient"-text-0-"patient"-NN-0,"Patient"-text-8-"patient"-NN-0,"Patient"-text-0-"patient"-NN-0,"Patient"-text-32-"patient"-NN-0,"Patient"-text-0-"patient"-NN-0,"Patient"-text-11-"patient"-NN-0,"Patient"-text-0-"patient"-NN-0,"Patient"-text-0-"patient"-NN-0,"Patient"-text-0-"patient"-JJ-0,"Patient"-text-12-"patient"-NN-0|text|197/7;267/7;384/7;448/7;555/7;654/7;709/7;802/7;865/7;943/7;1028/7|M01.643|
record-49.txt|MMI|10.26|lidocaine|C0023660|[orch, phsu]|"lidocaine"-text-16-"lidocaine"-NN-0,"lidocaine"-text-56-"lidocaine"-NN-0|text|409/9;617/9|D02.092.146.113.092.500;D02.065.199.092.500|
record-49.txt|MMI|7.22|Andorra|C0002838|[geoa]|"AND"-text-4-"and"-CC-0,"AND"-text-4-"and"-CC-0,"AND"-text-42-"and"-CC-0,"AND"-text-8-"and"-CC-0,"AND"-text-22-"and"-CC-0|text|375/3;489/3;583/3;1020/3;1245/3|Z01.542.049|
record-49.txt|MMI|5.76|Disabled Person Code - Patient|C1578486|[inpr]|"Patient"-text-0-"patient"-NN-0,"Patient"-text-0-"patient"-NN-0,"Patient"-text-8-"patient"-NN-0,"Patient"-text-0-"patient"-NN-0,"Patient"-text-32-"patient"-NN-0,"Patient"-text-0-"patient"-NN-0,"Patient"-text-11-"patient"-NN-0,"Patient"-text-0-"patient"-NN-0,"Patient"-text-0-"patient"-NN-0,"Patient"-text-0-"patient"-JJ-0,"Patient"-text-12-"patient"-NN-0|text|197/7;267/7;384/7;448/7;555/7;654/7;709/7;802/7;865/7;943/7;1028/7||
record-49.txt|MMI|5.76|Mail Claim Party - Patient|C1578481|[idcn]|"Patient"-text-0-"patient"-NN-0,"Patient"-text-0-"patient"-NN-0,"Patient"-text-8-"patient"-NN-0,"Patient"-text-0-"patient"-NN-0,"Patient"-text-32-"patient"-NN-0,"Patient"-text-0-"patient"-NN-0,"Patient"-text-11-"patient"-NN-0,"Patient"-text-0-"patient"-NN-0,"Patient"-text-0-"patient"-NN-0,"Patient"-text-0-"patient"-JJ-0,"Patient"-text-12-"patient"-NN-0|text|197/7;267/7;384/7;448/7;555/7;654/7;709/7;802/7;865/7;943/7;1028/7||
record-49.txt|MMI|5.76|Relationship modifier - Patient|C1578484|[idcn]|"Patient"-text-0-"patient"-NN-0,"Patient"-text-0-"patient"-NN-0,"Patient"-text-8-"patient"-NN-0,"Patient"-text-0-"patient"-NN-0,"Patient"-text-32-"patient"-NN-0,"Patient"-text-0-"patient"-NN-0,"Patient"-text-11-"patient"-NN-0,"Patient"-text-0-"patient"-NN-0,"Patient"-text-0-"patient"-NN-0,"Patient"-text-0-"patient"-JJ-0,"Patient"-text-12-"patient"-NN-0|text|197/7;267/7;384/7;448/7;555/7;654/7;709/7;802/7;865/7;943/7;1028/7||
record-49.txt|MMI|5.76|Report source - Patient|C1578483|[idcn]|"Patient"-text-0-"patient"-NN-0,"Patient"-text-0-"patient"-NN-0,"Patient"-text-8-"patient"-NN-0,"Patient"-text-0-"patient"-NN-0,"Patient"-text-32-"patient"-NN-0,"Patient"-text-0-"patient"-NN-0,"Patient"-text-11-"patient"-NN-0,"Patient"-text-0-"patient"-NN-0,"Patient"-text-0-"patient"-NN-0,"Patient"-text-0-"patient"-JJ-0,"Patient"-text-12-"patient"-NN-0|text|197/7;267/7;384/7;448/7;555/7;654/7;709/7;802/7;865/7;943/7;1028/7||
record-49.txt|MMI|5.76|Specimen Source Codes - Patient|C1578485|[inpr]|"Patient"-text-0-"patient"-NN-0,"Patient"-text-0-"patient"-NN-0,"Patient"-text-8-"patient"-NN-0,"Patient"-text-0-"patient"-NN-0,"Patient"-text-32-"patient"-NN-0,"Patient"-text-0-"patient"-NN-0,"Patient"-text-11-"patient"-NN-0,"Patient"-text-0-"patient"-NN-0,"Patient"-text-0-"patient"-NN-0,"Patient"-text-0-"patient"-JJ-0,"Patient"-text-12-"patient"-NN-0|text|197/7;267/7;384/7;448/7;555/7;654/7;709/7;802/7;865/7;943/7;1028/7||
record-49.txt|MMI|5.76|Specimen Type - Patient|C1550655|[bdsu]|"Patient"-text-0-"patient"-NN-0,"Patient"-text-0-"patient"-NN-0,"Patient"-text-8-"patient"-NN-0,"Patient"-text-0-"patient"-NN-0,"Patient"-text-32-"patient"-NN-0,"Patient"-text-0-"patient"-NN-0,"Patient"-text-11-"patient"-NN-0,"Patient"-text-0-"patient"-NN-0,"Patient"-text-0-"patient"-NN-0,"Patient"-text-0-"patient"-JJ-0,"Patient"-text-12-"patient"-NN-0|text|197/7;267/7;384/7;448/7;555/7;654/7;709/7;802/7;865/7;943/7;1028/7||
record-49.txt|MMI|5.76|Veterinary Patient|C1705908|[orgm]|"Patient"-text-0-"patient"-NN-0,"Patient"-text-0-"patient"-NN-0,"Patient"-text-8-"patient"-NN-0,"Patient"-text-0-"patient"-NN-0,"Patient"-text-32-"patient"-NN-0,"Patient"-text-0-"patient"-NN-0,"Patient"-text-11-"patient"-NN-0,"Patient"-text-0-"patient"-NN-0,"Patient"-text-0-"patient"-NN-0,"Patient"-text-0-"patient"-JJ-0,"Patient"-text-12-"patient"-NN-0|text|197/7;267/7;384/7;448/7;555/7;654/7;709/7;802/7;865/7;943/7;1028/7||
record-49.txt|MMI|5.13|Rosa|C0035853|[plnt]|"Rose"-text-54-"Rose"-NNP-0|text|612/4|B01.650.940.800.575.912.250.859.937.500.750|
record-49.txt|MMI|4.21|Phleum|C0446282|[plnt]|"Timothy"-text-0-"Timothy"-NNP-0|text|1308/7|B01.650.940.800.575.912.250.822.788|
record-49.txt|MMI|4.19|WAS gene|C1421478|[gngm]|"WAS"-text-0-"was"-VBD-0,"WAS"-text-0-"was"-VBD-0,"WAS"-text-10-"was"-VBD-0,"WAS"-text-0-"was"-VBD-0,"WAS"-text-12-"was"-VBD-0,"WAS"-text-26-"was"-VBD-0,"WAS"-text-0-"was"-VBD-0,"WAS"-text-14-"was"-VBD-0|text|205/3;327/3;392/3;456/3;513/3;539/3;873/3;1036/3||
record-49.txt|MMI|4.19|Washoe language|C1555640|[lang]|"WAS"-text-0-"was"-VBD-0,"WAS"-text-0-"was"-VBD-0,"WAS"-text-10-"was"-VBD-0,"WAS"-text-0-"was"-VBD-0,"WAS"-text-12-"was"-VBD-0,"WAS"-text-26-"was"-VBD-0,"WAS"-text-0-"was"-VBD-0,"WAS"-text-14-"was"-VBD-0|text|205/3;327/3;392/3;456/3;513/3;539/3;873/3;1036/3||
record-49.txt|MMI|3.81|Buttocks|C0006497|[blor]|"Buttocks"-text-12-"buttocks"-NNS-0,"Buttock"-text-18-"buttock"-NN-0|text|311/8;1233/7|A01.378.610.100|
record-49.txt|MMI|3.81|HAC protocol|C0062074|[topp]|"HAD"-text-0-"had"-VBD-0,"HAD"-text-0-"had"-VBD-0|text|275/3;810/3|x.x.x.x|
record-49.txt|MMI|3.81|Pressure Ulcer|C0011127|[dsyn]|"Decubitus"-text-6-"decubitus"-NN-0,"Decubitus Ulcer"-text-10-"decubitus ulcer"-NN-0|text|294/9;497/15|C17.800.893.665|
record-49.txt|MMI|3.75|Coitus|C0009253|[orgf]|"Sex"-text-24-"Sex"-NN-0|text|83/3|G08.686.784.041;F01.145.802.188|
record-49.txt|MMI|2.80|Pain management|C0002766|[topp]|"Pain Control"-text-24-"pain control"-NN-0|text|429/12|E02.745;N04.590.607.500|
record-49.txt|MMI|2.62|And|C1515981|[idcn]|"And"-text-4-"and"-CC-0,"And"-text-4-"and"-CC-0,"And"-text-42-"and"-CC-0,"And"-text-8-"and"-CC-0,"And"-text-22-"and"-CC-0|text|375/3;489/3;583/3;1020/3;1245/3||
record-49.txt|MMI|2.62|And - dosing instruction fragment|C1706368|[inpr]|"And"-text-4-"and"-CC-0,"And"-text-4-"and"-CC-0,"And"-text-42-"and"-CC-0,"And"-text-8-"and"-CC-0,"And"-text-22-"and"-CC-0|text|375/3;489/3;583/3;1020/3;1245/3||
record-49.txt|MMI|2.62|RelationshipConjunction - and|C1550557|[inpr]|"and"-text-4-"and"-CC-0,"and"-text-4-"and"-CC-0,"and"-text-42-"and"-CC-0,"and"-text-8-"and"-CC-0,"and"-text-22-"and"-CC-0|text|375/3;489/3;583/3;1020/3;1245/3||
record-49.txt|MMI|2.37|Overall|C1561607|[qlco]|"Overall"-text-0-"overall"-JJ-0|text|951/7|V02.672;V02.270.500|
record-49.txt|MMI|2.37|United Arab Emirates|C0041698|[geoa]|"ARE"-text-0-"are"-VBP-0|text|1158/3|Z01.252.245.500.900|
record-49.txt|MMI|1.90|Gender|C0079399|[orga]|"sex"-text-24-"Sex"-NN-0|text|83/3|x.x.x.x|
record-49.txt|MMI|1.90|eucerin|C0164056|[orch, phsu]|"eucerin"-text-0-"Eucerin"-NNP-0|text|361/7|x.x.x.x|
record-49.txt|MMI|1.88|Chronic Obstructive Airway Disease|C0024117|[dsyn]|"CHRONIC OBSTRUCTIVE PULMONARY DISEASE"-text-5-"chronic obstructive pulmonary disease"-JJ-0|text|665/37|C08.381.495.389|
record-49.txt|MMI|1.57|Facilitated oscillatory release technique|C1562169|[topp]|"FOR"-text-54-"for"-IN-0,"FOR"-text-20-"for"-IN-0,"FOR"-text-30-"for"-IN-0|text|153/3;425/3;1103/3||
record-49.txt|MMI|1.57|Gel|C0017243|[bodm]|"Jelly"-text-18-"jelly"-NN-0,"Jelly"-text-58-"jelly"-NN-0,"Jelly"-text-8-"jelly"-NN-0|text|419/5;627/5;1210/5||
record-49.txt|MMI|1.57|Herero language|C0574443|[lang]|"HER"-text-10-"her"-PRP$-0,"HER"-text-30-"her"-PRP$-0,"HER"-text-0-"her"-PRP$-0|text|307/3;776/3;897/3||
record-49.txt|MMI|1.57|In addition to|C0332287|[ftcn]|"With"-text-0-"With"-IN-0,"With"-text-0-"with"-IN-0,"Addition"-text-0-"addition"-NN-0|text|635/4;1171/4;1180/8||
record-49.txt|MMI|1.57|Jelly (food)|C0453543|[food]|"Jelly"-text-18-"jelly"-NN-0,"Jelly"-text-58-"jelly"-NN-0,"Jelly"-text-8-"jelly"-NN-0|text|419/5;627/5;1210/5||
record-49.txt|MMI|1.57|Jelly Dose Form|C1881293|[bodm]|"Jelly"-text-18-"jelly"-NN-0,"Jelly"-text-58-"jelly"-NN-0,"Jelly"-text-8-"jelly"-NN-0|text|419/5;627/5;1210/5||
record-49.txt|MMI|1.57|Preposition For|C0521125|[qlco]|"For"-text-54-"for"-IN-0,"For"-text-20-"for"-IN-0,"For"-text-30-"for"-IN-0|text|153/3;425/3;1103/3||
record-49.txt|MMI|1.57|WWOX gene|C1421525|[gngm]|"FOR"-text-54-"for"-IN-0,"FOR"-text-20-"for"-IN-0,"FOR"-text-30-"for"-IN-0|text|153/3;425/3;1103/3||
record-49.txt|MMI|1.57|WWOX wt Allele|C4321252|[gngm]|"FOR"-text-54-"for"-IN-0,"FOR"-text-20-"for"-IN-0,"FOR"-text-30-"for"-IN-0|text|153/3;425/3;1103/3||
record-49.txt|MMI|1.44|Sex Behavior|C0036864|[bhvr]|"Sex"-text-24-"Sex"-NN-0|text|83/3|F01.145.802|
record-49.txt|MMI|1.44|sex|C1522384|[orga]|"sex"-text-24-"Sex"-NN-0|text|83/3|G08.686.810|
record-49.txt|MMI|1.05|Addendum|C1510776|[inpr]|"Addendum"-text-44-"addendum"-NN-0,"Addendum"-text-0-"ADDENDUM"-NNP-0|text|119/8;236/8||
record-49.txt|MMI|1.05|As required|C0558288|[tmco]|"prn"-text-20-"prn"-NN-0,"prn"-text-36-"prn"-NN-0|text|1241/3;1289/3||
record-49.txt|MMI|1.05|Butting|C0233535|[mobd]|"but"-text-24-"but"-CC-0,"but"-text-0-"but"-CC-0|text|535/3;982/3||
record-49.txt|MMI|1.05|CIAO3 gene|C1422467|[gngm]|"PRN"-text-20-"prn"-NN-0,"PRN"-text-36-"prn"-NN-0|text|1241/3;1289/3||
record-49.txt|MMI|1.05|HADH gene|C1415458|[gngm]|"HAD"-text-0-"had"-VBD-0,"HAD"-text-0-"had"-VBD-0|text|275/3;810/3||
record-49.txt|MMI|1.05|Have|C3539897|[qlco]|"Had"-text-0-"had"-VBD-0,"Had"-text-0-"had"-VBD-0|text|275/3;810/3||
record-49.txt|MMI|1.05|Hospital course|C0489547|[fndg]|"Hospital course"-text-0-"HOSPITAL COURSE"-NNP-0,"Hospital course"-text-34-"hospital course"-NN-0|text|245/15;780/15||
record-49.txt|MMI|1.05|Hospital course:Finding:Point in time:^Patient:Narrative|C0488549|[clna]|"Hospital course"-text-0-"HOSPITAL COURSE"-NNP-0,"Hospital course"-text-34-"hospital course"-NN-0|text|245/15;780/15||
record-49.txt|MMI|1.05|PRN (schedule frequency)|C1879745|[qlco]|"PRN"-text-20-"prn"-NN-0,"PRN"-text-36-"prn"-NN-0|text|1241/3;1289/3||
record-49.txt|MMI|1.05|Rehabilitation Hospital|C0337962|[mnob, hcro]|"hospital rehabilitation"-text-26-"Hospital Rehabilitation"-NNP-0,"Rehabilitation Hospital"-text-28-"Rehabilitation Hospital"-NNP-0|text|1070/23;1079/23||
record-49.txt|MMI|1.05|This (eukaryote)|C1080058|[euka]|"This"-text-38-"This"-DT-0,"This"-text-0-"This"-DT-0|text|108/4;322/4||
record-49.txt|MMI|1.05|Treated with|C0332293|[topp]|"Treated with"-text-0-"treated with"-VBN-0,"Treated with"-text-14-"treated with"-VBN-0|text|331/12;396/12||
record-49.txt|MMI|1.05|Treating|C1522326|[ftcn]|"treated with"-text-0-"treated with"-VBN-0,"treated with"-text-14-"treated with"-VBN-0|text|331/12;396/12||
record-49.txt|MMI|1.05|With - dosing instruction fragment|C1705690|[inpr]|"With"-text-0-"With"-IN-0,"With"-text-0-"with"-IN-0|text|635/4;1171/4||
record-49.txt|MMI|1.05|lidocaine viscous|C0721362|[orch, phsu]|"viscous lidocaine"-text-6-"viscous lidocaine"-JJ-0,"viscous lidocaine"-text-26-"viscous lidocaine"-JJ-0|text|1192/17;1249/17||
record-49.txt|MMI|1.01|Tissue viability nurse|C0557541|[prog]|"Wound care nurse"-text-2-"wound care nurse"-NN-0,"Wound care nurse"-text-50-"wound care nurse"-NN-0|text|472/16;591/16||
record-49.txt|MMI|0.72|Admission activity|C0809949|[hlca]|"Admission"-text-58-"admission"-NN-0|text|161/9||
record-49.txt|MMI|0.72|Admission date:Time Stamp -- Date and Time:Point in time:^Patient:Quantitative|C2598112|[clna]|"Admission date"-text-0-"Admission Date"-NNP-0|text|0/14||
record-49.txt|MMI|0.72|Date of admission|C1302393|[tmco]|"Admission date"-text-0-"Admission Date"-NNP-0|text|0/14||
record-49.txt|MMI|0.72|Hospital admission|C0184666|[hlca]|"Admission"-text-58-"admission"-NN-0|text|161/9||
record-49.txt|MMI|0.52|A Lot of the Time|C3900172|[fndg]|"A lot"-text-36-"a lot"-DT-0|text|563/5||
record-49.txt|MMI|0.52|ActInformationPrivacyReason <service>|C3245478|[idcn]|"service"-text-30-"Service"-NNP-0|text|91/7||
record-49.txt|MMI|0.52|Add - instruction imperative|C1883712|[ftcn]|"Addition"-text-0-"addition"-NN-0|text|1180/8||
record-49.txt|MMI|0.52|Address type - Home|C1549632|[idcn]|"Home"-text-0-"home"-NN-0|text|901/4||
record-49.txt|MMI|0.52|Admission Level of Care Code - Improved|C1561611|[inpr]|"Improved"-text-20-"improved"-VBD-0|text|739/8||
record-49.txt|MMI|0.52|Androgen Response Element|C1515984|[nusq]|"ARE"-text-0-"are"-VBP-0|text|1158/3||
record-49.txt|MMI|0.52|Better|C0332272|[qlco]|"Improved"-text-20-"improved"-VBD-0|text|739/8||
record-49.txt|MMI|0.52|Bothered Very Much|C3831292|[fndg]|"A lot"-text-36-"a lot"-DT-0|text|563/5||
record-49.txt|MMI|0.52|CDISC SDTM Sex of Individual Terminology|C1879943|[inpr]|"SEX"-text-24-"Sex"-NN-0|text|83/3||
record-49.txt|MMI|0.52|Causing|C0678227|[ftcn]|"Causing"-text-28-"causing"-VBG-0|text|543/7||
record-49.txt|MMI|0.52|Continuous|C0549178|[idcn]|"Continued"-text-0-"continued"-JJ-0|text|959/9||
record-49.txt|MMI|0.52|Cough Frequency|C4084727|[inpr]|"Cough"-text-2-"cough"-NN-1|text|840/5||
record-49.txt|MMI|0.52|Cough, CTCAE|C1961131|[fndg]|"Cough"-text-2-"cough"-NN-1|text|840/5||
record-49.txt|MMI|0.52|Coughing|C0010200|[sosy]|"Cough"-text-2-"cough"-NN-1|text|840/5||
record-49.txt|MMI|0.52|Cream|C1378128|[bodm]|"Cream"-text-2-"cream"-NN-0|text|369/5||
record-49.txt|MMI|0.52|Cream Dosage Form Category|C4722351|[bodm]|"Cream"-text-2-"cream"-NN-0|text|369/5||
record-49.txt|MMI|0.52|Dairy Cream|C0700385|[food]|"Cream"-text-2-"cream"-NN-0|text|369/5||
record-49.txt|MMI|0.52|Decompensated|C0205434|[qlco]|"Decompensated"-text-6-"decompensated"-VBN-0|text|1006/13||
record-49.txt|MMI|0.52|Decubitus direction|C0442303|[spco]|"Decubitus"-text-6-"decubitus"-NN-0|text|294/9||
record-49.txt|MMI|0.52|Diagnostic Service Section ID - Physical Therapy|C1547999|[inpr]|"Physical Therapy"-text-36-"physical therapy"-JJ-0|text|1117/16||
record-49.txt|MMI|0.52|Discomfort|C2364135|[sosy]|"Discomfort"-text-40-"discomfort"-NN-0|text|572/10||
record-49.txt|MMI|0.52|ENG gene|C1366583|[gngm]|"END"-text-10-"End"-NN-0|text|1520/3||
record-49.txt|MMI|0.52|ENG wt Allele|C1704837|[gngm]|"END"-text-10-"End"-NN-0|text|1520/3||
record-49.txt|MMI|0.52|Emollient Cream|C0705539|[bodm]|"cream"-text-2-"cream"-NN-0|text|369/5||
record-49.txt|MMI|0.52|End|C0444930|[spco]|"End"-text-10-"End"-NN-0|text|1520/3||
record-49.txt|MMI|0.52|Endoglin, human|C0082420|[imft, aapp]|"END"-text-10-"End"-NN-0|text|1520/3||
record-49.txt|MMI|0.52|Epidermal cGVHD Score 2|C4761314|[inpr]|"Mild"-text-20-"mild"-JJ-0|text|528/4||
record-49.txt|MMI|0.52|Evaluation and management note:Finding:Point in time:{Setting}:Document:{Provider}|C1316572|[clna]|"Note"-text-34-"NOTE"-NNP-0|text|101/4||
record-49.txt|MMI|0.52|Gender:Type:Point in time:^Patient:Nominal|C0804628|[clna]|"Sex"-text-24-"Sex"-NN-0|text|83/3||
record-49.txt|MMI|0.52|Good|C0205170|[qlco]|"Well"-text-0-"well"-RB-0|text|889/4||
record-49.txt|MMI|0.52|Have Been Coughing|C3274924|[inpr]|"Cough"-text-2-"cough"-NN-1|text|840/5||
record-49.txt|MMI|0.52|Home environment|C0442519|[spco]|"Home"-text-0-"home"-NN-0|text|901/4||
record-49.txt|MMI|0.52|How Much Distress Cough|C4084726|[inpr]|"Cough"-text-2-"cough"-NN-1|text|840/5||
record-49.txt|MMI|0.52|Improved|C0184511|[fndg]|"Improved"-text-20-"improved"-VBD-0|text|739/8||
record-49.txt|MMI|0.52|Improved - answer to question|C4084203|[fndg]|"Improved"-text-20-"improved"-VBD-0|text|739/8||
record-49.txt|MMI|0.52|Ivy (antigen)|C1963010|[imft]|"Ivy"-text-52-"Ivy"-NNP-0|text|608/3||
record-49.txt|MMI|0.52|Ivy (plant)|C0446290|[plnt]|"Ivy"-text-52-"Ivy"-NNP-0|text|608/3||
record-49.txt|MMI|0.52|Microplate Well|C4283957|[spco]|"Well"-text-0-"well"-RB-0|text|889/4||
record-49.txt|MMI|0.52|Mild (qualifier value)|C2945599|[qlco]|"Mild"-text-20-"mild"-JJ-0|text|528/4||
record-49.txt|MMI|0.52|Mild Adverse Event|C1513302|[fndg]|"MILD"-text-20-"mild"-JJ-0|text|528/4||
record-49.txt|MMI|0.52|Mild Allergy Severity|C1563320|[qlco]|"Mild"-text-20-"mild"-JJ-0|text|528/4||
record-49.txt|MMI|0.52|Mild Hallucination|C4722210|[fndg]|"Mild"-text-20-"mild"-JJ-0|text|528/4||
record-49.txt|MMI|0.52|Mild Severity of Illness Code|C1547225|[inpr]|"Mild"-text-20-"mild"-JJ-0|text|528/4||
record-49.txt|MMI|0.52|No Shortness of Breath|C4054349|[fndg]|"No Shortness of Breath"-text-0-"no shortness of breath"-DT-1|text|814/22||
record-49.txt|MMI|0.52|Note (document)|C1317574|[inpr]|"Note"-text-34-"NOTE"-NNP-0|text|101/4||
record-49.txt|MMI|0.52|Organization unit type - Home|C1547197|[orgt]|"Home"-text-0-"home"-NN-0|text|901/4||
record-49.txt|MMI|0.52|Overall Publication Type|C0282416|[inpr]|"Overall"-text-0-"overall"-JJ-0|text|951/7||
record-49.txt|MMI|0.52|PLXNA3 gene|C1418662|[gngm]|"SEX"-text-24-"Sex"-NN-0|text|83/3||
record-49.txt|MMI|0.52|Patient date of birth|C0421451|[tmco]|"Date of birth"-text-14-"Date of Birth"-NNP-0|text|56/13||
record-49.txt|MMI|0.52|Per Minute|C0702093|[tmco]|"Per Minute"-text-14-"per minute"-IN-0|text|926/10||
record-49.txt|MMI|0.52|Person location type - Home|C1548530|[spco]|"Home"-text-0-"home"-NN-0|text|901/4||
record-49.txt|MMI|0.52|Phleum pratense|C1123001|[plnt]|"timothy"-text-0-"Timothy"-NNP-0|text|1308/7||
record-49.txt|MMI|0.52|Phleum pratense top extract|C3486733|[orch, phsu]|"Timothy"-text-0-"Timothy"-NNP-0|text|1308/7||
record-49.txt|MMI|0.52|Physical therapy|C0949766|[topp]|"Physical therapy"-text-36-"physical therapy"-JJ-0|text|1117/16||
record-49.txt|MMI|0.52|Physical therapy (field)|C0699718|[bmod]|"Physical therapy"-text-36-"physical therapy"-JJ-0|text|1117/16||
record-49.txt|MMI|0.52|Recognition of Outliers by Sampling Ends|C4050365|[resa]|"ROSE"-text-54-"Rose"-NNP-0|text|612/4||
record-49.txt|MMI|0.52|Recumbent body position|C0444334|[spco]|"DECUBITUS"-text-6-"decubitus"-NN-0|text|294/9||
record-49.txt|MMI|0.52|Regulatory Report|C3273238|[inpr]|"Report"-text-14-"Report"-NNP-0|text|1527/6||
record-49.txt|MMI|0.52|Report (document)|C0684224|[inpr]|"Report"-text-14-"Report"-NNP-0|text|1527/6||
record-49.txt|MMI|0.52|Report:Finding:Point in time:{Setting}:Document:{Role}|C4255046|[clna]|"Report"-text-14-"Report"-NNP-0|text|1527/6||
record-49.txt|MMI|0.52|Reporting|C0700287|[hlca]|"report"-text-14-"Report"-NNP-0|text|1527/6||
record-49.txt|MMI|0.52|Respiratory Status|C1998827|[fndg]|"Respiratory Status"-text-18-"respiratory status"-JJ-0|text|720/18||
record-49.txt|MMI|0.52|Respiratory Status:-:Point in time:^Patient:-|C2598168|[clna]|"Respiratory status"-text-18-"respiratory status"-JJ-0|text|720/18||
record-49.txt|MMI|0.52|Rose extract|C0995005|[phsu]|"ROSE"-text-54-"Rose"-NNP-0|text|612/4||
record-49.txt|MMI|0.52|Same|C0445247|[qlco]|"Same"-text-0-"same"-JJ-0|text|1166/4||
record-49.txt|MMI|0.52|Sensory Discomfort|C0234215|[sosy]|"Discomfort"-text-40-"discomfort"-NN-0|text|572/10||
record-49.txt|MMI|0.52|Services|C0557854|[ocac]|"service"-text-30-"Service"-NNP-0|text|91/7||
record-49.txt|MMI|0.52|Sexual intercourse - finding|C1314687|[fndg]|"Sex"-text-24-"Sex"-NN-0|text|83/3||
record-49.txt|MMI|0.52|Software Service|C2825316|[mnob]|"Service"-text-30-"Service"-NNP-0|text|91/7||
record-49.txt|MMI|0.52|Stop (qualifier value)|C2746065|[tmco]|"End"-text-10-"End"-NN-0|text|1520/3||
record-49.txt|MMI|0.52|Swish and Swallow Route of Administration|C1515103|[ftcn]|"Swish and Swallow"-text-32-"swish and swallow"-NN-0|text|1267/17||
record-49.txt|MMI|0.52|Swish and swallow - dosing instruction imperative|C1706537|[inpr]|"Swish and swallow"-text-32-"swish and swallow"-NN-0|text|1267/17||
record-49.txt|MMI|0.52|Three times daily|C0556984|[tmco]|"TID"-text-34-"tid"-JJ-0|text|1285/3||
record-49.txt|MMI|0.52|Transferred to|C4049693|[fndg]|"Transferred to"-text-18-"transferred to"-VBN-0|text|1040/14||
record-49.txt|MMI|0.52|Transferred to:Loc:Pt:^Patient:Nom|C4049692|[clna]|"Transferred to"-text-18-"transferred to"-VBN-0|text|1040/14||
record-49.txt|MMI|0.52|Use of|C1524063|[ftcn]|"Using"-text-0-"using"-VBG-0|text|355/5||
record-49.txt|MMI|0.52|Usual Severity Cough|C4084725|[inpr]|"Cough"-text-2-"cough"-NN-1|text|840/5||
record-49.txt|MMI|0.52|Very Much|C2984081|[qlco]|"A Lot"-text-36-"a lot"-DT-0|text|563/5||
record-49.txt|MMI|0.52|Visit User Code - Home|C1548341|[inpr]|"Home"-text-0-"home"-NN-0|text|901/4||
record-49.txt|MMI|0.52|Well|C3146287|[mnob]|"Well"-text-0-"well"-RB-0|text|889/4||
record-49.txt|MMI|0.52|Well Marginated Nodule|C4761387|[fndg]|"Well"-text-0-"well"-RB-0|text|889/4||
record-49.txt|MMI|0.52|ante cibus|C1550738|[tmco]|"Before Meals"-text-40-"before meals"-IN-0|text|1293/12||
record-49.txt|MMI|0.52|are unit of measure|C1551058|[qnco]|"Are"-text-0-"are"-VBP-0|text|1158/3||
record-49.txt|MMI|0.52|end - ActRelationshipCheckpoint|C1561490|[ftcn]|"end"-text-10-"End"-NN-0|text|1520/3||
record-49.txt|MMI|0.52|home health encounter|C1553498|[hlca]|"Home"-text-0-"home"-NN-0|text|901/4||
record-49.txt|MMI|0.52|same - RoleClassOntological|C1692345|[idcn]|"same"-text-0-"same"-JJ-0|text|1166/4||
record-49.txt|MMI|0.52|seen|C0205397|[qlco]|"seen"-text-0-"seen"-VBN-0|text|460/4||
record-49.txt|MMI|0.52|three times a day at institution-specified times|C1610169|[tmco]|"TID"-text-34-"tid"-JJ-0|text|1285/3||
record-49.txt|MMI|0.50|1958|C0456587|[tmco]|"1958"-text-18-"1958"-CD-0|text|72/4||
record-49.txt|MMI|0.50|Apply|C4048755|[ftcn]|"Applied"-text-14-"applied"-VBN-0|text|1222/7||
record-49.txt|MMI|0.50|Bone structure of sacrum|C0036037|[bpoc]|"Sacral"-text-4-"sacral"-JJ-0|text|287/6||
record-49.txt|MMI|0.50|Discharge date|C2361123|[tmco]|"Discharge date"-text-0-"Discharge Date"-NNP-0|text|28/14||
record-49.txt|MMI|0.50|Discharge date:Time Stamp -- Date and Time:Point in time:^Patient:Quantitative|C2361122|[clna]|"Discharge date"-text-0-"Discharge Date"-NNP-0|text|28/14||
record-49.txt|MMI|0.50|Discharge summarization note:Finding:Point in time:{Setting}:Document:{Provider}|C0801840|[clna]|"Discharge summary"-text-52-"discharge summary"-NN-0|text|135/17||
record-49.txt|MMI|0.50|Discharge summary|C0743221|[inpr]|"Discharge summary"-text-52-"discharge summary"-NN-0|text|135/17||
record-49.txt|MMI|0.50|Dosage|C0178602|[qnco]|"Dose"-text-4-"dose"-NN-0|text|909/4||
record-49.txt|MMI|0.50|Medication.discharge|C0806915|[fndg]|"Discharge medications"-text-0-"DISCHARGE MEDICATIONS"-NN-0|text|1136/21||
record-49.txt|MMI|0.50|On discharge|C1548175|[tmco]|"On discharge"-text-6-"on discharge"-IN-0|text|846/12||
record-49.txt|MMI|0.50|Pain control|C1304888|[topp]|"Pain control"-text-24-"pain control"-NN-0|text|429/12||
record-49.txt|MMI|0.50|Stage 1|C3840271|[fndg]|"Stage 1"-text-2-"stage 1"-NN-0|text|279/7||
record-49.txt|MMI|0.50|Stage level 1|C0441766|[clas]|"Stage 1"-text-2-"stage 1"-NN-0|text|279/7||
record-49.txt|MMI|0.50|Unit dose|C0869039|[qnco]|"Dose"-text-4-"dose"-NN-0|text|909/4||
record-49.txt|MMI|0.50|WOUND CARE (kit desciptor)|C3152828|[medd]|"WOUND CARE"-text-0-"wound care"-NN-0|text|344/10||
record-49.txt|MMI|0.50|Wound care management|C1272654|[topp]|"Wound Care"-text-0-"wound care"-NN-0|text|344/10||
record-49.txt|MMI|0.50|wound care|C0886052|[topp]|"wound care"-text-0-"wound care"-NN-0|text|344/10||
